; generated by PrusaSlicer 2.4.1+x64 on 2022-07-13 at 08:11:08 UTC

; 

; external perimeters extrusion width = 0.60mm
; perimeters extrusion width = 0.50mm
; infill extrusion width = 0.50mm
; solid infill extrusion width = 0.50mm
; top infill extrusion width = 0.45mm
; first layer extrusion width = 0.42mm

M73 P0 R311
M73 Q0 S312
M201 X1000 Y1000 Z200 E5000 ; sets maximum accelerations, mm/sec^2
M203 X200 Y200 Z12 E120 ; sets maximum feedrates, mm / sec
M204 P1250 R1250 T1250 ; sets acceleration (P, T) and retract acceleration (R), mm/sec^2
M205 X8.00 Y8.00 Z0.40 E4.50 ; sets the jerk limits, mm/sec
M205 S0 T0 ; sets the minimum extruding and travel feed rate, mm/sec
M107
;TYPE:Custom
M862.3 P "MK3S" ; printer model check
M862.1 P0.4 ; nozzle diameter check
M115 U3.10.1 ; tell printer latest fw version
G90 ; use absolute coordinates
M83 ; extruder relative mode
M104 S215 ; set extruder temp
M140 S60 ; set bed temp
M190 S60 ; wait for bed temp
M109 S215 ; wait for extruder temp
G28 W ; home all without mesh bed level
G80 ; mesh bed leveling
G1 Z0.2 F720
G1 Y-3 F1000 ; go outside print area
G92 E0
G1 X60 E9 F1000 ; intro line
G1 X100 E12.5 F1000 ; intro line
G92 E0
M221 S95

; Don't change E values below. Excessive value can damage the printer.

M907 E538 ; set extruder motor current
G21 ; set units to millimeters
G90 ; use absolute coordinates
M83 ; use relative distances for extrusion
M900 K0.05 ; Filament gcode LA 1.5
M900 K30 ; Filament gcode LA 1.0
M107
;LAYER_CHANGE
;Z:0.2
;HEIGHT:0.2
;BEFORE_LAYER_CHANGE
G92 E0.0
;0.2


G1 E-.8 F2100
G1 Z.4 F720
;AFTER_LAYER_CHANGE
;0.2
G1 X67.415 Y75.343 F10800
G1 Z.2 F720
G1 E.8 F2100
M204 S800
;TYPE:Skirt/Brim
;WIDTH:0.42
G1 F1200
G1 X68.46 Y74.467 E.04278
G1 X69.4 Y74.273 E.03008
G1 X180.6 Y74.273 E3.4866
G1 X181.907 Y74.665 E.04278
G1 X182.783 Y75.71 E.04278
G1 X182.977 Y76.65 E.03008
G1 X182.977 Y81.65 E.15677
G1 X182.585 Y82.957 E.04278
G1 X181.54 Y83.833 E.04278
G1 X180.6 Y84.027 E.03008
G1 X69.4 Y84.027 E3.4866
G1 X68.093 Y83.635 E.04278
M73 P0 R310
G1 X67.217 Y82.59 E.04278
G1 X67.023 Y81.65 E.03008
G1 X67.023 Y76.65 E.15677
G1 X67.397 Y75.4 E.0409
M204 S1000
; printing object camera-stand.stl id:0 copy 0
;WIPE_START
G1 F8640
G1 X68.46 Y74.467 E-.32671
G1 X69.4 Y74.273 E-.22155
G1 X70.317 Y74.273 E-.21174
;WIPE_END
G1 E-.04 F2100
G1 Z.6 F720
G1 X70.187 Y77.437 F10800
G1 Z.2 F720
G1 E.8 F2100
M204 S800
;TYPE:Perimeter
G1 F1200
G1 X179.813 Y77.437 E3.43724
G1 X179.813 Y80.863 E.10741
G1 X70.187 Y80.863 E3.43724
G1 X70.187 Y77.497 E.10553
M204 S1000
G1 X69.81 Y77.06 F10800
M204 S800
;TYPE:External perimeter
G1 F1200
G1 X180.19 Y77.06 E3.46089
G1 X180.19 Y81.24 E.13106
G1 X69.81 Y81.24 E3.46089
G1 X69.81 Y77.12 E.12918
M204 S1000
G1 X70.21 Y77.065 F10800
;WIPE_START
G1 F8640
G1 X73.101 Y77.118 E-.76
;WIPE_END
G1 E-.04 F2100
G1 Z.6 F720
G1 X178.936 Y77.55 F10800
G1 Z.2 F720
G1 E.8 F2100
M204 S800
;TYPE:Solid infill
;WIDTH:0.420517
G1 F1200
G1 X179.53 Y78.144 E.02636
G1 X179.53 Y78.678 E.01677
G1 X178.572 Y77.72 E.04254
G1 X178.038 Y77.72 E.01677
G1 X179.53 Y79.212 E.06625
G1 X179.53 Y79.746 E.01677
G1 X177.504 Y77.72 E.08996
G1 X176.97 Y77.72 E.01677
G1 X179.53 Y80.28 E.11367
G1 X179.53 Y80.58 E.00943
G1 X179.296 Y80.58 E.00734
G1 X176.436 Y77.72 E.127
G1 X175.902 Y77.72 E.01677
G1 X178.762 Y80.58 E.127
G1 X178.228 Y80.58 E.01677
G1 X175.368 Y77.72 E.127
G1 X174.834 Y77.72 E.01677
G1 X177.694 Y80.58 E.127
G1 X177.16 Y80.58 E.01677
G1 X174.3 Y77.72 E.127
G1 X173.766 Y77.72 E.01677
G1 X176.626 Y80.58 E.127
G1 X176.092 Y80.58 E.01677
G1 X173.232 Y77.72 E.127
G1 X172.698 Y77.72 E.01677
G1 X175.558 Y80.58 E.127
G1 X175.024 Y80.58 E.01677
G1 X172.164 Y77.72 E.127
G1 X171.63 Y77.72 E.01677
G1 X174.49 Y80.58 E.127
G1 X173.956 Y80.58 E.01677
G1 X171.096 Y77.72 E.127
G1 X170.562 Y77.72 E.01677
G1 X173.422 Y80.58 E.127
G1 X172.888 Y80.58 E.01677
G1 X170.028 Y77.72 E.127
G1 X169.494 Y77.72 E.01677
G1 X172.354 Y80.58 E.127
G1 X171.82 Y80.58 E.01677
G1 X168.96 Y77.72 E.127
G1 X168.426 Y77.72 E.01677
G1 X171.286 Y80.58 E.127
G1 X170.752 Y80.58 E.01677
G1 X167.892 Y77.72 E.127
G1 X167.358 Y77.72 E.01677
G1 X170.218 Y80.58 E.127
G1 X169.684 Y80.58 E.01677
G1 X166.824 Y77.72 E.127
G1 X166.29 Y77.72 E.01677
G1 X169.15 Y80.58 E.127
G1 X168.616 Y80.58 E.01677
G1 X165.756 Y77.72 E.127
G1 X165.222 Y77.72 E.01677
G1 X168.082 Y80.58 E.127
G1 X167.548 Y80.58 E.01677
G1 X164.688 Y77.72 E.127
G1 X164.154 Y77.72 E.01677
G1 X167.014 Y80.58 E.127
G1 X166.48 Y80.58 E.01677
G1 X163.62 Y77.72 E.127
G1 X163.086 Y77.72 E.01677
G1 X165.946 Y80.58 E.127
G1 X165.412 Y80.58 E.01677
G1 X162.552 Y77.72 E.127
G1 X162.018 Y77.72 E.01677
G1 X164.878 Y80.58 E.127
G1 X164.344 Y80.58 E.01677
G1 X161.484 Y77.72 E.127
G1 X160.95 Y77.72 E.01677
G1 X163.81 Y80.58 E.127
G1 X163.276 Y80.58 E.01677
G1 X160.416 Y77.72 E.127
G1 X159.882 Y77.72 E.01677
G1 X162.742 Y80.58 E.127
G1 X162.208 Y80.58 E.01677
G1 X159.348 Y77.72 E.127
G1 X158.814 Y77.72 E.01677
M73 Q0 S311
G1 X161.674 Y80.58 E.127
G1 X161.14 Y80.58 E.01677
G1 X158.28 Y77.72 E.127
G1 X157.746 Y77.72 E.01677
G1 X160.606 Y80.58 E.127
G1 X160.072 Y80.58 E.01677
G1 X157.212 Y77.72 E.127
G1 X156.678 Y77.72 E.01677
G1 X159.538 Y80.58 E.127
G1 X159.004 Y80.58 E.01677
G1 X156.144 Y77.72 E.127
G1 X155.61 Y77.72 E.01677
G1 X158.47 Y80.58 E.127
G1 X157.936 Y80.58 E.01677
G1 X155.076 Y77.72 E.127
G1 X154.542 Y77.72 E.01677
G1 X157.402 Y80.58 E.127
G1 X156.868 Y80.58 E.01677
G1 X154.008 Y77.72 E.127
G1 X153.474 Y77.72 E.01677
G1 X156.334 Y80.58 E.127
G1 X155.8 Y80.58 E.01677
G1 X152.94 Y77.72 E.127
G1 X152.406 Y77.72 E.01677
G1 X155.266 Y80.58 E.127
G1 X154.732 Y80.58 E.01677
G1 X151.872 Y77.72 E.127
G1 X151.338 Y77.72 E.01677
G1 X154.198 Y80.58 E.127
G1 X153.664 Y80.58 E.01677
G1 X150.804 Y77.72 E.127
G1 X150.27 Y77.72 E.01677
G1 X153.13 Y80.58 E.127
G1 X152.596 Y80.58 E.01677
G1 X149.736 Y77.72 E.127
G1 X149.202 Y77.72 E.01677
G1 X152.062 Y80.58 E.127
G1 X151.528 Y80.58 E.01677
G1 X148.668 Y77.72 E.127
G1 X148.134 Y77.72 E.01677
G1 X150.994 Y80.58 E.127
G1 X150.46 Y80.58 E.01677
G1 X147.6 Y77.72 E.127
G1 X147.066 Y77.72 E.01677
G1 X149.926 Y80.58 E.127
G1 X149.392 Y80.58 E.01677
G1 X146.532 Y77.72 E.127
G1 X145.998 Y77.72 E.01677
G1 X148.858 Y80.58 E.127
G1 X148.324 Y80.58 E.01677
G1 X145.464 Y77.72 E.127
G1 X144.93 Y77.72 E.01677
G1 X147.79 Y80.58 E.127
G1 X147.256 Y80.58 E.01677
G1 X144.396 Y77.72 E.127
G1 X143.862 Y77.72 E.01677
G1 X146.722 Y80.58 E.127
G1 X146.188 Y80.58 E.01677
G1 X143.328 Y77.72 E.127
G1 X142.794 Y77.72 E.01677
G1 X145.654 Y80.58 E.127
G1 X145.12 Y80.58 E.01677
G1 X142.26 Y77.72 E.127
G1 X141.726 Y77.72 E.01677
G1 X144.586 Y80.58 E.127
G1 X144.052 Y80.58 E.01677
G1 X141.192 Y77.72 E.127
G1 X140.658 Y77.72 E.01677
G1 X143.518 Y80.58 E.127
G1 X142.984 Y80.58 E.01677
G1 X140.124 Y77.72 E.127
G1 X139.59 Y77.72 E.01677
G1 X142.45 Y80.58 E.127
G1 X141.916 Y80.58 E.01677
G1 X139.056 Y77.72 E.127
G1 X138.522 Y77.72 E.01677
G1 X141.382 Y80.58 E.127
G1 X140.848 Y80.58 E.01677
G1 X137.988 Y77.72 E.127
G1 X137.454 Y77.72 E.01677
G1 X140.314 Y80.58 E.127
G1 X139.78 Y80.58 E.01677
G1 X136.92 Y77.72 E.127
G1 X136.386 Y77.72 E.01677
G1 X139.246 Y80.58 E.127
G1 X138.712 Y80.58 E.01677
G1 X135.852 Y77.72 E.127
G1 X135.318 Y77.72 E.01677
G1 X138.178 Y80.58 E.127
G1 X137.644 Y80.58 E.01677
G1 X134.784 Y77.72 E.127
G1 X134.25 Y77.72 E.01677
G1 X137.11 Y80.58 E.127
G1 X136.576 Y80.58 E.01677
G1 X133.716 Y77.72 E.127
G1 X133.182 Y77.72 E.01677
G1 X136.042 Y80.58 E.127
G1 X135.508 Y80.58 E.01677
G1 X132.648 Y77.72 E.127
G1 X132.114 Y77.72 E.01677
G1 X134.974 Y80.58 E.127
G1 X134.44 Y80.58 E.01677
G1 X131.58 Y77.72 E.127
G1 X131.046 Y77.72 E.01677
G1 X133.906 Y80.58 E.127
G1 X133.372 Y80.58 E.01677
G1 X130.512 Y77.72 E.127
G1 X129.978 Y77.72 E.01677
G1 X132.838 Y80.58 E.127
G1 X132.304 Y80.58 E.01677
G1 X129.444 Y77.72 E.127
G1 X128.91 Y77.72 E.01677
G1 X131.77 Y80.58 E.127
G1 X131.236 Y80.58 E.01677
G1 X128.376 Y77.72 E.127
G1 X127.842 Y77.72 E.01677
G1 X130.702 Y80.58 E.127
G1 X130.168 Y80.58 E.01677
G1 X127.308 Y77.72 E.127
G1 X126.774 Y77.72 E.01677
G1 X129.634 Y80.58 E.127
G1 X129.1 Y80.58 E.01677
G1 X126.24 Y77.72 E.127
G1 X125.706 Y77.72 E.01677
G1 X128.566 Y80.58 E.127
G1 X128.032 Y80.58 E.01677
G1 X125.172 Y77.72 E.127
G1 X124.638 Y77.72 E.01677
G1 X127.498 Y80.58 E.127
G1 X126.964 Y80.58 E.01677
G1 X124.104 Y77.72 E.127
G1 X123.57 Y77.72 E.01677
G1 X126.43 Y80.58 E.127
G1 X125.896 Y80.58 E.01677
G1 X123.036 Y77.72 E.127
G1 X122.502 Y77.72 E.01677
G1 X125.362 Y80.58 E.127
G1 X124.828 Y80.58 E.01677
G1 X121.968 Y77.72 E.127
G1 X121.434 Y77.72 E.01677
G1 X124.294 Y80.58 E.127
G1 X123.76 Y80.58 E.01677
G1 X120.9 Y77.72 E.127
G1 X120.366 Y77.72 E.01677
G1 X123.226 Y80.58 E.127
G1 X122.692 Y80.58 E.01677
G1 X119.832 Y77.72 E.127
G1 X119.298 Y77.72 E.01677
G1 X122.158 Y80.58 E.127
G1 X121.624 Y80.58 E.01677
G1 X118.764 Y77.72 E.127
G1 X118.23 Y77.72 E.01677
G1 X121.09 Y80.58 E.127
G1 X120.556 Y80.58 E.01677
G1 X117.696 Y77.72 E.127
G1 X117.162 Y77.72 E.01677
G1 X120.022 Y80.58 E.127
G1 X119.488 Y80.58 E.01677
G1 X116.628 Y77.72 E.127
G1 X116.094 Y77.72 E.01677
G1 X118.954 Y80.58 E.127
G1 X118.42 Y80.58 E.01677
G1 X115.56 Y77.72 E.127
G1 X115.026 Y77.72 E.01677
G1 X117.886 Y80.58 E.127
G1 X117.352 Y80.58 E.01677
G1 X114.492 Y77.72 E.127
G1 X113.958 Y77.72 E.01677
G1 X116.818 Y80.58 E.127
G1 X116.284 Y80.58 E.01677
G1 X113.424 Y77.72 E.127
G1 X112.89 Y77.72 E.01677
G1 X115.75 Y80.58 E.127
G1 X115.216 Y80.58 E.01677
M73 P0 R309
G1 X112.356 Y77.72 E.127
G1 X111.822 Y77.72 E.01677
G1 X114.682 Y80.58 E.127
G1 X114.148 Y80.58 E.01677
G1 X111.288 Y77.72 E.127
G1 X110.754 Y77.72 E.01677
G1 X113.614 Y80.58 E.127
G1 X113.08 Y80.58 E.01677
G1 X110.22 Y77.72 E.127
G1 X109.686 Y77.72 E.01677
G1 X112.546 Y80.58 E.127
G1 X112.012 Y80.58 E.01677
G1 X109.152 Y77.72 E.127
G1 X108.618 Y77.72 E.01677
G1 X111.478 Y80.58 E.127
G1 X110.944 Y80.58 E.01677
G1 X108.084 Y77.72 E.127
G1 X107.55 Y77.72 E.01677
G1 X110.41 Y80.58 E.127
G1 X109.876 Y80.58 E.01677
G1 X107.016 Y77.72 E.127
G1 X106.482 Y77.72 E.01677
G1 X109.342 Y80.58 E.127
G1 X108.808 Y80.58 E.01677
G1 X105.948 Y77.72 E.127
G1 X105.414 Y77.72 E.01677
G1 X108.274 Y80.58 E.127
G1 X107.74 Y80.58 E.01677
G1 X104.88 Y77.72 E.127
G1 X104.346 Y77.72 E.01677
G1 X107.206 Y80.58 E.127
G1 X106.672 Y80.58 E.01677
G1 X103.812 Y77.72 E.127
G1 X103.278 Y77.72 E.01677
G1 X106.138 Y80.58 E.127
G1 X105.604 Y80.58 E.01677
G1 X102.744 Y77.72 E.127
G1 X102.21 Y77.72 E.01677
G1 X105.07 Y80.58 E.127
G1 X104.536 Y80.58 E.01677
G1 X101.676 Y77.72 E.127
G1 X101.142 Y77.72 E.01677
G1 X104.002 Y80.58 E.127
G1 X103.468 Y80.58 E.01677
G1 X100.608 Y77.72 E.127
G1 X100.074 Y77.72 E.01677
G1 X102.934 Y80.58 E.127
G1 X102.4 Y80.58 E.01677
G1 X99.54 Y77.72 E.127
G1 X99.006 Y77.72 E.01677
G1 X101.866 Y80.58 E.127
G1 X101.332 Y80.58 E.01677
G1 X98.472 Y77.72 E.127
G1 X97.938 Y77.72 E.01677
G1 X100.798 Y80.58 E.127
G1 X100.264 Y80.58 E.01677
G1 X97.404 Y77.72 E.127
G1 X96.87 Y77.72 E.01677
G1 X99.73 Y80.58 E.127
G1 X99.196 Y80.58 E.01677
G1 X96.336 Y77.72 E.127
G1 X95.802 Y77.72 E.01677
G1 X98.662 Y80.58 E.127
G1 X98.128 Y80.58 E.01677
G1 X95.268 Y77.72 E.127
G1 X94.734 Y77.72 E.01677
G1 X97.594 Y80.58 E.127
G1 X97.06 Y80.58 E.01677
G1 X94.2 Y77.72 E.127
G1 X93.666 Y77.72 E.01677
G1 X96.526 Y80.58 E.127
G1 X95.992 Y80.58 E.01677
G1 X93.132 Y77.72 E.127
G1 X92.598 Y77.72 E.01677
G1 X95.458 Y80.58 E.127
G1 X94.924 Y80.58 E.01677
G1 X92.064 Y77.72 E.127
G1 X91.53 Y77.72 E.01677
G1 X94.39 Y80.58 E.127
G1 X93.856 Y80.58 E.01677
G1 X90.996 Y77.72 E.127
G1 X90.462 Y77.72 E.01677
G1 X93.322 Y80.58 E.127
G1 X92.788 Y80.58 E.01677
G1 X89.928 Y77.72 E.127
G1 X89.394 Y77.72 E.01677
G1 X92.254 Y80.58 E.127
G1 X91.72 Y80.58 E.01677
G1 X88.86 Y77.72 E.127
G1 X88.326 Y77.72 E.01677
G1 X91.186 Y80.58 E.127
G1 X90.652 Y80.58 E.01677
G1 X87.792 Y77.72 E.127
G1 X87.258 Y77.72 E.01677
G1 X90.118 Y80.58 E.127
G1 X89.584 Y80.58 E.01677
G1 X86.724 Y77.72 E.127
G1 X86.19 Y77.72 E.01677
G1 X89.05 Y80.58 E.127
G1 X88.516 Y80.58 E.01677
G1 X85.656 Y77.72 E.127
G1 X85.122 Y77.72 E.01677
G1 X87.982 Y80.58 E.127
G1 X87.448 Y80.58 E.01677
G1 X84.588 Y77.72 E.127
G1 X84.054 Y77.72 E.01677
G1 X86.914 Y80.58 E.127
G1 X86.38 Y80.58 E.01677
G1 X83.52 Y77.72 E.127
G1 X82.986 Y77.72 E.01677
G1 X85.846 Y80.58 E.127
G1 X85.312 Y80.58 E.01677
G1 X82.452 Y77.72 E.127
G1 X81.918 Y77.72 E.01677
G1 X84.778 Y80.58 E.127
G1 X84.244 Y80.58 E.01677
G1 X81.384 Y77.72 E.127
G1 X80.85 Y77.72 E.01677
G1 X83.71 Y80.58 E.127
G1 X83.176 Y80.58 E.01677
G1 X80.316 Y77.72 E.127
G1 X79.782 Y77.72 E.01677
G1 X82.642 Y80.58 E.127
G1 X82.108 Y80.58 E.01677
G1 X79.248 Y77.72 E.127
G1 X78.714 Y77.72 E.01677
G1 X81.574 Y80.58 E.127
G1 X81.04 Y80.58 E.01677
G1 X78.18 Y77.72 E.127
G1 X77.646 Y77.72 E.01677
G1 X80.506 Y80.58 E.127
G1 X79.972 Y80.58 E.01677
G1 X77.112 Y77.72 E.127
G1 X76.578 Y77.72 E.01677
G1 X79.438 Y80.58 E.127
G1 X78.904 Y80.58 E.01677
G1 X76.044 Y77.72 E.127
G1 X75.51 Y77.72 E.01677
G1 X78.37 Y80.58 E.127
G1 X77.836 Y80.58 E.01677
G1 X74.976 Y77.72 E.127
G1 X74.442 Y77.72 E.01677
G1 X77.302 Y80.58 E.127
G1 X76.768 Y80.58 E.01677
G1 X73.908 Y77.72 E.127
G1 X73.374 Y77.72 E.01677
G1 X76.234 Y80.58 E.127
G1 X75.7 Y80.58 E.01677
G1 X72.84 Y77.72 E.127
G1 X72.306 Y77.72 E.01677
G1 X75.166 Y80.58 E.127
G1 X74.632 Y80.58 E.01677
G1 X71.772 Y77.72 E.127
G1 X71.238 Y77.72 E.01677
G1 X74.098 Y80.58 E.127
G1 X73.564 Y80.58 E.01677
G1 X70.704 Y77.72 E.127
G1 X70.47 Y77.72 E.00734
G1 X70.47 Y78.02 E.00943
G1 X73.03 Y80.58 E.11367
G1 X72.496 Y80.58 E.01677
G1 X70.47 Y78.554 E.08996
G1 X70.47 Y79.088 E.01677
G1 X71.962 Y80.58 E.06625
G1 X71.428 Y80.58 E.01677
G1 X70.47 Y79.622 E.04253
G1 X70.47 Y80.156 E.01677
G1 X71.063 Y80.75 E.02636
M204 S1000
; stop printing object camera-stand.stl id:0 copy 0
M106 S84.15
;LAYER_CHANGE
;Z:0.5
;HEIGHT:0.3
;BEFORE_LAYER_CHANGE
G92 E0.0
;0.5


;WIPE_START
G1 F8640
G1 X70.47 Y80.156 E-.19384
G1 X70.47 Y79.622 E-.1233
G1 X71.428 Y80.58 E-.3128
G1 X71.962 Y80.58 E-.1233
G1 X71.941 Y80.559 E-.00675
;WIPE_END
G1 E-.04 F2100
G1 Z.6 F720
;AFTER_LAYER_CHANGE
;0.5
G1 X71.941 Y84.027 F10800
G1 Z.5 F720
G1 E.8 F2100
;TYPE:Skirt/Brim
;WIDTH:0.42
G1 F2700
G1 X69.4 Y84.027 E.11271
G1 X68.093 Y83.635 E.06052
G1 X67.217 Y82.59 E.06052
G1 X67.023 Y81.65 E.04256
G1 X67.023 Y76.65 E.22177
G1 X67.415 Y75.343 E.06052
G1 X68.46 Y74.467 E.06052
G1 X69.4 Y74.273 E.04256
G1 X180.6 Y74.273 E4.93226
G1 X181.907 Y74.665 E.06052
G1 X182.783 Y75.71 E.06052
G1 X182.977 Y76.65 E.04256
G1 X182.977 Y81.65 E.22177
G1 X182.585 Y82.957 E.06052
G1 X181.54 Y83.833 E.06052
G1 X180.6 Y84.027 E.04256
G1 X72.001 Y84.027 E4.81688
; printing object camera-stand.stl id:0 copy 0
;WIPE_START
G1 F8640
G1 X69.4 Y84.027 E-.60061
G1 X68.739 Y83.829 E-.15939
;WIPE_END
G1 E-.04 F2100
G1 Z.9 F720
G1 X70.186 Y80.864 F10800
G1 Z.5 F720
G1 E.8 F2100
M204 S800
;TYPE:Perimeter
;WIDTH:0.5
G1 F3000
G1 X70.186 Y77.436 E.18629
G1 X179.814 Y77.436 E5.95644
G1 X179.814 Y80.864 E.18629
G1 X70.246 Y80.864 E5.95318
M204 S1000
G1 X69.7 Y81.35 F10800
M204 S800
;TYPE:External perimeter
;WIDTH:0.6
G1 F2100
G1 X69.7 Y76.95 E.29394
G1 X180.3 Y76.95 E7.38868
G1 X180.3 Y81.35 E.29394
G1 X69.76 Y81.35 E7.38467
M204 S1000
G1 X69.895 Y81.001 F10800
;WIPE_START
G1 F8640
G1 X69.715 Y78.059 E-.76
;WIPE_END
G1 E-.04 F2100
G1 Z.9 F720
G1 X179.684 Y79.849 F10800
G1 Z.5 F720
M73 Q0 S310
G1 E.8 F2100
;TYPE:Solid infill
;WIDTH:0.501939
G1 F4800
G1 X178.995 Y80.538 E.05315
G1 X178.376 Y80.538 E.03377
G1 X179.488 Y79.426 E.08578
G1 X179.488 Y78.807 E.03377
G1 X177.757 Y80.538 E.13354
G1 X177.139 Y80.538 E.03377
G1 X179.488 Y78.189 E.1813
G1 X179.488 Y77.762 E.02326
G1 X179.295 Y77.762 E.01051
G1 X176.52 Y80.538 E.2142
G1 X175.901 Y80.538 E.03377
G1 X178.676 Y77.762 E.2142
G1 X178.058 Y77.762 E.03377
G1 X175.282 Y80.538 E.2142
G1 X174.663 Y80.538 E.03377
G1 X177.439 Y77.762 E.2142
G1 X176.82 Y77.762 E.03377
G1 X174.045 Y80.538 E.2142
G1 X173.426 Y80.538 E.03377
G1 X176.201 Y77.762 E.2142
G1 X175.582 Y77.762 E.03377
G1 X172.807 Y80.538 E.2142
G1 X172.188 Y80.538 E.03377
