; generated by PrusaSlicer 2.4.0+x64 on 2022-03-13 at 14:06:23 UTC

; 

; external perimeters extrusion width = 0.60mm
; perimeters extrusion width = 0.50mm
; infill extrusion width = 0.50mm
; solid infill extrusion width = 0.50mm
; top infill extrusion width = 0.45mm
; first layer extrusion width = 0.42mm

M73 P0 R51
M73 Q0 S51
M201 X1000 Y1000 Z200 E5000 ; sets maximum accelerations, mm/sec^2
M203 X200 Y200 Z12 E120 ; sets maximum feedrates, mm/sec
M204 P1250 R1250 T1250 ; sets acceleration (P, T) and retract acceleration (R), mm/sec^2
M205 X8.00 Y8.00 Z0.40 E4.50 ; sets the jerk limits, mm/sec
M205 S0 T0 ; sets the minimum extruding and travel feed rate, mm/sec
M107
;TYPE:Custom
M862.3 P "MK3S" ; printer model check
M862.1 P0.4 ; nozzle diameter check
M115 U3.10.0 ; tell printer latest fw version
G90 ; use absolute coordinates
M83 ; extruder relative mode
M104 S215 ; set extruder temp
M140 S60 ; set bed temp
M190 S60 ; wait for bed temp
M109 S215 ; wait for extruder temp
G28 W ; home all without mesh bed level
G80 ; mesh bed leveling
G1 Z0.2 F720
G1 Y-3 F1000 ; go outside print area
G92 E0
G1 X60 E9 F1000 ; intro line
G1 X100 E12.5 F1000 ; intro line
G92 E0
M221 S95

; Don't change E values below. Excessive value can damage the printer.

M907 E538 ; set extruder motor current
G21 ; set units to millimeters
G90 ; use absolute coordinates
M83 ; use relative distances for extrusion
M900 K0.05 ; Filament gcode LA 1.5
M900 K30 ; Filament gcode LA 1.0
M107
;LAYER_CHANGE
;Z:0.2
;HEIGHT:0.2
;BEFORE_LAYER_CHANGE
G92 E0.0
;0.2


G1 E-.8 F2100
G1 Z.4 F720
;AFTER_LAYER_CHANGE
;0.2
G1 X74.06 Y88.817 F10800
G1 Z.2 F720
G1 E.8 F2100
M204 S800
;TYPE:Skirt/Brim
;WIDTH:0.42
G1 F1200
G1 X75 Y88.623 E.03008
G1 X175 Y88.623 E3.13543
G1 X176.307 Y89.015 E.04278
M73 P0 R50
G1 X177.183 Y90.06 E.04278
G1 X177.377 Y91 E.03008
G1 X177.377 Y119 E.87792
G1 X176.985 Y120.307 E.04278
G1 X175.94 Y121.183 E.04278
G1 X175 Y121.377 E.03008
G1 X75 Y121.377 E3.13543
G1 X73.693 Y120.985 E.04278
M73 Q0 S50
G1 X72.817 Y119.94 E.04278
G1 X72.623 Y119 E.03008
G1 X72.623 Y91 E.87792
G1 X73.015 Y89.693 E.04278
G1 X74.014 Y88.855 E.0409
M204 S1000
; printing object camera-stand.stl id:0 copy 0
;WIPE_START
G1 F8640
G1 X75 Y88.623 E-.23384
G1 X77.279 Y88.623 E-.52616
;WIPE_END
G1 E-.04 F2100
G1 Z.6 F720
G1 X84.99 Y111.213 F10800
G1 Z.2 F720
G1 E.8 F2100
M204 S800
;TYPE:Perimeter
G1 F1200
G1 X165.787 Y111.213 E2.53334
G1 X165.787 Y114.787 E.11207
G1 X84.213 Y114.787 E2.5577
G1 X84.213 Y111.213 E.11207
G1 X84.93 Y111.213 E.02248
M204 S1000
G1 X84.59 Y111.59 F10800
M204 S800
;TYPE:External perimeter
G1 F1200
G1 X165.41 Y111.59 E2.53405
G1 X165.41 Y114.41 E.08842
M73 P1 R50
M73 Q1 S50
G1 X84.59 Y114.41 E2.53405
G1 X84.59 Y111.65 E.08654
M204 S1000
G1 X84.394 Y111.241 F10800
;WIPE_START
G1 F8640
G1 X87.881 Y111.648 E-.76
;WIPE_END
G1 E-.04 F2100
G1 Z.6 F720
G1 X75.787 Y117.813 F10800
G1 Z.2 F720
G1 E.8 F2100
M204 S800
;TYPE:Perimeter
G1 F1200
G1 X75.787 Y91.787 E.81602
G1 X174.213 Y91.787 E3.08607
G1 X174.213 Y118.213 E.82856
G1 X75.787 Y118.213 E3.08607
G1 X75.787 Y117.873 E.01066
M204 S1000
G1 X75.41 Y118.59 F10800
M204 S800
;TYPE:External perimeter
G1 F1200
G1 X75.41 Y91.41 E.85221
G1 X174.59 Y91.41 E3.10972
G1 X174.59 Y118.59 E.85221
G1 X75.47 Y118.59 E3.10784
M204 S1000
G1 X75.578 Y118.227 F10800
;WIPE_START
M73 P2 R50
M73 Q2 S50
G1 F8640
G1 X75.463 Y115.299 E-.76
;WIPE_END
G1 E-.04 F2100
G1 Z.6 F720
G1 X173.336 Y91.9 F10800
G1 Z.2 F720
G1 E.8 F2100
M204 S800
;TYPE:Solid infill
;WIDTH:0.420674
G1 F1200
G1 X173.93 Y92.494 E.02639
G1 X173.93 Y93.028 E.01678
G1 X172.972 Y92.07 E.04258
G1 X172.437 Y92.07 E.01678
G1 X173.93 Y93.563 E.06631
G1 X173.93 Y94.097 E.01678
G1 X171.903 Y92.07 E.09004
G1 X171.369 Y92.07 E.01678
G1 X173.93 Y94.631 E.11377
G1 X173.93 Y95.165 E.01678
G1 X170.835 Y92.07 E.1375
G1 X170.3 Y92.07 E.01678
G1 X173.93 Y95.7 E.16123
G1 X173.93 Y96.234 E.01678
G1 X169.766 Y92.07 E.18496
G1 X169.232 Y92.07 E.01678
G1 X173.93 Y96.768 E.2087
G1 X173.93 Y97.302 E.01678
G1 X168.698 Y92.07 E.23243
G1 X168.164 Y92.07 E.01678
G1 X173.93 Y97.836 E.25616
G1 X173.93 Y98.371 E.01678
G1 X167.629 Y92.07 E.27989
G1 X167.095 Y92.07 E.01678
G1 X173.93 Y98.905 E.30362
G1 X173.93 Y99.439 E.01678
G1 X166.561 Y92.07 E.32735
G1 X166.027 Y92.07 E.01678
G1 X173.93 Y99.973 E.35108
G1 X173.93 Y100.508 E.01678
G1 X165.492 Y92.07 E.37481
G1 X164.958 Y92.07 E.01678
G1 X173.93 Y101.042 E.39854
G1 X173.93 Y101.576 E.01678
G1 X164.424 Y92.07 E.42227
G1 X163.89 Y92.07 E.01678
M73 P2 R49
G1 X173.93 Y102.11 E.446
G1 X173.93 Y102.644 E.01678
G1 X163.356 Y92.07 E.46973
G1 X162.821 Y92.07 E.01678
G1 X173.93 Y103.179 E.49346
G1 X173.93 Y103.713 E.01678
G1 X162.287 Y92.07 E.5172
G1 X161.753 Y92.07 E.01678
G1 X173.93 Y104.247 E.54093
G1 X173.93 Y104.781 E.01678
G1 X161.219 Y92.07 E.56466
G1 X160.684 Y92.07 E.01678
G1 X173.93 Y105.316 E.58839
G1 X173.93 Y105.85 E.01678
G1 X160.15 Y92.07 E.61212
M73 Q2 S49
G1 X159.616 Y92.07 E.01678
G1 X173.93 Y106.384 E.63585
G1 X173.93 Y106.918 E.01678
G1 X159.082 Y92.07 E.65958
G1 X158.547 Y92.07 E.01678
G1 X173.93 Y107.453 E.68331
G1 X173.93 Y107.987 E.01678
G1 X158.013 Y92.07 E.70704
G1 X157.479 Y92.07 E.01678
G1 X173.93 Y108.521 E.73077
G1 X173.93 Y109.055 E.01678
G1 X156.945 Y92.07 E.7545
G1 X156.411 Y92.07 E.01678
G1 X173.93 Y109.589 E.77823
G1 X173.93 Y110.124 E.01678
G1 X155.876 Y92.07 E.80197
G1 X155.342 Y92.07 E.01678
G1 X173.93 Y110.658 E.8257
G1 X173.93 Y111.192 E.01678
G1 X154.808 Y92.07 E.84943
G1 X154.274 Y92.07 E.01678
G1 X173.93 Y111.726 E.87316
G1 X173.93 Y112.261 E.01678
M73 P3 R49
M73 Q3 S49
G1 X153.739 Y92.07 E.89689
G1 X153.205 Y92.07 E.01678
G1 X173.93 Y112.795 E.92062
G1 X173.93 Y113.329 E.01678
G1 X152.671 Y92.07 E.94435
G1 X152.137 Y92.07 E.01678
G1 X173.93 Y113.863 E.96808
G1 X173.93 Y114.397 E.01678
G1 X151.603 Y92.07 E.99181
G1 X151.068 Y92.07 E.01678
G1 X173.93 Y114.932 E1.01554
G1 X173.93 Y115.466 E.01678
G1 X150.534 Y92.07 E1.03927
G1 X150 Y92.07 E.01678
G1 X173.93 Y116 E1.063
G1 X173.93 Y116.534 E.01678
G1 X149.466 Y92.07 E1.08673
G1 X148.931 Y92.07 E.01678
G1 X173.93 Y117.069 E1.11047
G1 X173.93 Y117.603 E.01678
G1 X148.397 Y92.07 E1.1342
G1 X147.863 Y92.07 E.01678
G1 X173.723 Y117.93 E1.14874
G1 X173.189 Y117.93 E.01678
G1 X147.329 Y92.07 E1.14874
G1 X146.795 Y92.07 E.01678
G1 X165.655 Y110.93 E.83779
G1 X166.07 Y110.93 E.01304
G1 X166.07 Y111.345 E.01304
G1 X172.655 Y117.93 E.29251
G1 X172.121 Y117.93 E.01678
G1 X166.07 Y111.879 E.26878
G1 X166.07 Y112.414 E.01678
G1 X171.586 Y117.93 E.24505
G1 X171.052 Y117.93 E.01678
G1 X166.07 Y112.948 E.22132
G1 X166.07 Y113.482 E.01678
G1 X170.518 Y117.93 E.19759
G1 X169.984 Y117.93 E.01678
G1 X166.07 Y114.016 E.17385
G1 X166.07 Y114.551 E.01678
G1 X169.449 Y117.93 E.15012
G1 X168.915 Y117.93 E.01678
G1 X166.055 Y115.07 E.12705
G1 X165.521 Y115.07 E.01678
G1 X168.381 Y117.93 E.12705
G1 X167.847 Y117.93 E.01678
G1 X164.987 Y115.07 E.12705
G1 X164.452 Y115.07 E.01678
G1 X167.313 Y117.93 E.12705
G1 X166.778 Y117.93 E.01678
G1 X163.918 Y115.07 E.12705
G1 X163.384 Y115.07 E.01678
G1 X166.244 Y117.93 E.12705
G1 X165.71 Y117.93 E.01678
G1 X162.85 Y115.07 E.12705
G1 X162.315 Y115.07 E.01678
G1 X165.176 Y117.93 E.12705
G1 X164.641 Y117.93 E.01678
G1 X161.781 Y115.07 E.12705
G1 X161.247 Y115.07 E.01678
G1 X164.107 Y117.93 E.12705
G1 X163.573 Y117.93 E.01678
G1 X160.713 Y115.07 E.12705
G1 X160.179 Y115.07 E.01678
G1 X163.039 Y117.93 E.12705
G1 X162.505 Y117.93 E.01678
G1 X159.644 Y115.07 E.12705
G1 X159.11 Y115.07 E.01678
G1 X161.97 Y117.93 E.12705
G1 X161.436 Y117.93 E.01678
G1 X158.576 Y115.07 E.12705
G1 X158.042 Y115.07 E.01678
M73 Q4 S49
G1 X160.902 Y117.93 E.12705
G1 X160.368 Y117.93 E.01678
G1 X157.507 Y115.07 E.12705
G1 X156.973 Y115.07 E.01678
M73 P4 R49
G1 X159.833 Y117.93 E.12705
G1 X159.299 Y117.93 E.01678
G1 X156.439 Y115.07 E.12705
G1 X155.905 Y115.07 E.01678
G1 X158.765 Y117.93 E.12705
G1 X158.231 Y117.93 E.01678
G1 X155.37 Y115.07 E.12705
G1 X154.836 Y115.07 E.01678
G1 X157.697 Y117.93 E.12705
G1 X157.162 Y117.93 E.01678
G1 X154.302 Y115.07 E.12705
G1 X153.768 Y115.07 E.01678
G1 X156.628 Y117.93 E.12705
G1 X156.094 Y117.93 E.01678
G1 X153.234 Y115.07 E.12705
G1 X152.699 Y115.07 E.01678
G1 X155.56 Y117.93 E.12705
G1 X155.025 Y117.93 E.01678
G1 X152.165 Y115.07 E.12705
G1 X151.631 Y115.07 E.01678
G1 X154.491 Y117.93 E.12705
G1 X153.957 Y117.93 E.01678
G1 X151.097 Y115.07 E.12705
G1 X150.562 Y115.07 E.01678
G1 X153.423 Y117.93 E.12705
G1 X152.888 Y117.93 E.01678
G1 X150.028 Y115.07 E.12705
G1 X149.494 Y115.07 E.01678
G1 X152.354 Y117.93 E.12705
G1 X151.82 Y117.93 E.01678
G1 X148.96 Y115.07 E.12705
G1 X148.426 Y115.07 E.01678
G1 X151.286 Y117.93 E.12705
G1 X150.752 Y117.93 E.01678
G1 X147.891 Y115.07 E.12705
G1 X147.357 Y115.07 E.01678
G1 X150.217 Y117.93 E.12705
G1 X149.683 Y117.93 E.01678
G1 X146.823 Y115.07 E.12705
G1 X146.289 Y115.07 E.01678
G1 X149.149 Y117.93 E.12705
G1 X148.615 Y117.93 E.01678
G1 X145.754 Y115.07 E.12705
G1 X145.22 Y115.07 E.01678
G1 X148.08 Y117.93 E.12705
G1 X147.546 Y117.93 E.01678
G1 X144.686 Y115.07 E.12705
G1 X144.152 Y115.07 E.01678
G1 X147.012 Y117.93 E.12705
G1 X146.478 Y117.93 E.01678
G1 X143.618 Y115.07 E.12705
G1 X143.083 Y115.07 E.01678
G1 X145.944 Y117.93 E.12705
G1 X145.409 Y117.93 E.01678
G1 X142.549 Y115.07 E.12705
G1 X142.015 Y115.07 E.01678
G1 X144.875 Y117.93 E.12705
G1 X144.341 Y117.93 E.01678
G1 X141.481 Y115.07 E.12705
G1 X140.946 Y115.07 E.01678
G1 X143.807 Y117.93 E.12705
G1 X143.272 Y117.93 E.01678
G1 X140.412 Y115.07 E.12705
G1 X139.878 Y115.07 E.01678
G1 X142.738 Y117.93 E.12705
G1 X142.204 Y117.93 E.01678
G1 X139.344 Y115.07 E.12705
G1 X138.81 Y115.07 E.01678
G1 X141.67 Y117.93 E.12705
G1 X141.136 Y117.93 E.01678
G1 X138.275 Y115.07 E.12705
M73 P4 R48
G1 X137.741 Y115.07 E.01678
G1 X140.601 Y117.93 E.12705
G1 X140.067 Y117.93 E.01678
G1 X137.207 Y115.07 E.12705
G1 X136.673 Y115.07 E.01678
G1 X139.533 Y117.93 E.12705
G1 X138.999 Y117.93 E.01678
G1 X136.138 Y115.07 E.12705
G1 X135.604 Y115.07 E.01678
G1 X138.464 Y117.93 E.12705
G1 X137.93 Y117.93 E.01678
G1 X135.07 Y115.07 E.12705
G1 X134.536 Y115.07 E.01678
G1 X137.396 Y117.93 E.12705
G1 X136.862 Y117.93 E.01678
G1 X134.001 Y115.07 E.12705
G1 X133.467 Y115.07 E.01678
G1 X136.328 Y117.93 E.12705
G1 X135.793 Y117.93 E.01678
G1 X132.933 Y115.07 E.12705
G1 X132.399 Y115.07 E.01678
G1 X135.259 Y117.93 E.12705
G1 X134.725 Y117.93 E.01678
G1 X131.865 Y115.07 E.12705
G1 X131.33 Y115.07 E.01678
G1 X134.191 Y117.93 E.12705
G1 X133.656 Y117.93 E.01678
G1 X130.796 Y115.07 E.12705
G1 X130.262 Y115.07 E.01678
G1 X133.122 Y117.93 E.12705
G1 X132.588 Y117.93 E.01678
G1 X129.728 Y115.07 E.12705
G1 X129.193 Y115.07 E.01678
G1 X132.054 Y117.93 E.12705
G1 X131.519 Y117.93 E.01678
G1 X128.659 Y115.07 E.12705
G1 X128.125 Y115.07 E.01678
G1 X130.985 Y117.93 E.12705
G1 X130.451 Y117.93 E.01678
G1 X127.591 Y115.07 E.12705
G1 X127.057 Y115.07 E.01678
G1 X129.917 Y117.93 E.12705
G1 X129.383 Y117.93 E.01678
G1 X126.522 Y115.07 E.12705
G1 X125.988 Y115.07 E.01678
G1 X128.848 Y117.93 E.12705
G1 X128.314 Y117.93 E.01678
G1 X125.454 Y115.07 E.12705
G1 X124.92 Y115.07 E.01678
G1 X127.78 Y117.93 E.12705
G1 X127.246 Y117.93 E.01678
G1 X124.385 Y115.07 E.12705
G1 X123.851 Y115.07 E.01678
G1 X126.711 Y117.93 E.12705
G1 X126.177 Y117.93 E.01678
M73 Q4 S48
G1 X123.317 Y115.07 E.12705
G1 X122.783 Y115.07 E.01678
G1 X125.643 Y117.93 E.12705
G1 X125.109 Y117.93 E.01678
G1 X122.249 Y115.07 E.12705
G1 X121.714 Y115.07 E.01678
G1 X124.575 Y117.93 E.12705
G1 X124.04 Y117.93 E.01678
G1 X121.18 Y115.07 E.12705
G1 X120.646 Y115.07 E.01678
G1 X123.506 Y117.93 E.12705
G1 X122.972 Y117.93 E.01678
G1 X120.112 Y115.07 E.12705
G1 X119.577 Y115.07 E.01678
G1 X122.438 Y117.93 E.12705
G1 X121.903 Y117.93 E.01678
G1 X119.043 Y115.07 E.12705
G1 X118.509 Y115.07 E.01678
G1 X121.369 Y117.93 E.12705
G1 X120.835 Y117.93 E.01678
G1 X117.975 Y115.07 E.12705
G1 X117.441 Y115.07 E.01678
G1 X120.301 Y117.93 E.12705
G1 X119.767 Y117.93 E.01678
G1 X116.906 Y115.07 E.12705
G1 X116.372 Y115.07 E.01678
G1 X119.232 Y117.93 E.12705
G1 X118.698 Y117.93 E.01678
G1 X115.838 Y115.07 E.12705
G1 X115.304 Y115.07 E.01678
G1 X118.164 Y117.93 E.12705
G1 X117.63 Y117.93 E.01678
G1 X114.769 Y115.07 E.12705
G1 X114.235 Y115.07 E.01678
G1 X117.095 Y117.93 E.12705
G1 X116.561 Y117.93 E.01678
G1 X113.701 Y115.07 E.12705
G1 X113.167 Y115.07 E.01678
G1 X116.027 Y117.93 E.12705
G1 X115.493 Y117.93 E.01678
G1 X112.632 Y115.07 E.12705
G1 X112.098 Y115.07 E.01678
G1 X114.959 Y117.93 E.12705
G1 X114.424 Y117.93 E.01678
G1 X111.564 Y115.07 E.12705
G1 X111.03 Y115.07 E.01678
G1 X113.89 Y117.93 E.12705
G1 X113.356 Y117.93 E.01678
G1 X110.496 Y115.07 E.12705
G1 X109.961 Y115.07 E.01678
G1 X112.822 Y117.93 E.12705
G1 X112.287 Y117.93 E.01678
G1 X109.427 Y115.07 E.12705
G1 X108.893 Y115.07 E.01678
G1 X111.753 Y117.93 E.12705
G1 X111.219 Y117.93 E.01678
G1 X108.359 Y115.07 E.12705
G1 X107.824 Y115.07 E.01678
G1 X110.685 Y117.93 E.12705
G1 X110.15 Y117.93 E.01678
G1 X107.29 Y115.07 E.12705
G1 X106.756 Y115.07 E.01678
G1 X109.616 Y117.93 E.12705
G1 X109.082 Y117.93 E.01678
G1 X106.222 Y115.07 E.12705
G1 X105.688 Y115.07 E.01678
G1 X108.548 Y117.93 E.12705
G1 X108.014 Y117.93 E.01678
G1 X105.153 Y115.07 E.12705
G1 X104.619 Y115.07 E.01678
G1 X107.479 Y117.93 E.12705
G1 X106.945 Y117.93 E.01678
G1 X104.085 Y115.07 E.12705
G1 X103.551 Y115.07 E.01678
G1 X106.411 Y117.93 E.12705
G1 X105.877 Y117.93 E.01678
G1 X103.016 Y115.07 E.12705
G1 X102.482 Y115.07 E.01678
G1 X105.342 Y117.93 E.12705
G1 X104.808 Y117.93 E.01678
G1 X101.948 Y115.07 E.12705
G1 X101.414 Y115.07 E.01678
G1 X104.274 Y117.93 E.12705
G1 X103.74 Y117.93 E.01678
G1 X100.88 Y115.07 E.12705
G1 X100.345 Y115.07 E.01678
G1 X103.206 Y117.93 E.12705
G1 X102.671 Y117.93 E.01678
G1 X99.811 Y115.07 E.12705
G1 X99.277 Y115.07 E.01678
G1 X102.137 Y117.93 E.12705
G1 X101.603 Y117.93 E.01678
G1 X98.743 Y115.07 E.12705
G1 X98.208 Y115.07 E.01678
G1 X101.069 Y117.93 E.12705
G1 X100.534 Y117.93 E.01678
G1 X97.674 Y115.07 E.12705
G1 X97.14 Y115.07 E.01678
G1 X100 Y117.93 E.12705
G1 X99.466 Y117.93 E.01678
G1 X96.606 Y115.07 E.12705
G1 X96.072 Y115.07 E.01678
G1 X98.932 Y117.93 E.12705
G1 X98.398 Y117.93 E.01678
G1 X95.537 Y115.07 E.12705
G1 X95.003 Y115.07 E.01678
G1 X97.863 Y117.93 E.12705
G1 X97.329 Y117.93 E.01678
G1 X94.469 Y115.07 E.12705
G1 X93.935 Y115.07 E.01678
G1 X96.795 Y117.93 E.12705
G1 X96.261 Y117.93 E.01678
G1 X93.4 Y115.07 E.12705
G1 X92.866 Y115.07 E.01678
G1 X95.726 Y117.93 E.12705
G1 X95.192 Y117.93 E.01678
G1 X92.332 Y115.07 E.12705
G1 X91.798 Y115.07 E.01678
G1 X94.658 Y117.93 E.12705
G1 X94.124 Y117.93 E.01678
G1 X91.264 Y115.07 E.12705
G1 X90.729 Y115.07 E.01678
G1 X93.59 Y117.93 E.12705
G1 X93.055 Y117.93 E.01678
M73 Q5 S48
G1 X90.195 Y115.07 E.12705
G1 X89.661 Y115.07 E.01678
M73 P5 R48
G1 X92.521 Y117.93 E.12705
G1 X91.987 Y117.93 E.01678
G1 X89.127 Y115.07 E.12705
G1 X88.592 Y115.07 E.01678
G1 X91.453 Y117.93 E.12705
G1 X90.918 Y117.93 E.01678
G1 X88.058 Y115.07 E.12705
G1 X87.524 Y115.07 E.01678
G1 X90.384 Y117.93 E.12705
G1 X89.85 Y117.93 E.01678
G1 X86.99 Y115.07 E.12705
G1 X86.455 Y115.07 E.01678
G1 X89.316 Y117.93 E.12705
G1 X88.782 Y117.93 E.01678
G1 X85.921 Y115.07 E.12705
G1 X85.387 Y115.07 E.01678
G1 X88.247 Y117.93 E.12705
G1 X87.713 Y117.93 E.01678
G1 X84.683 Y114.9 E.13459
M204 S1000
;WIPE_START
G1 F8640
G1 X87.011 Y117.228 E-.76
;WIPE_END
G1 E-.04 F2100
G1 Z.6 F720
G1 X146.091 Y91.9 F10800
G1 Z.2 F720
G1 E.8 F2100
M204 S800
G1 F1200
G1 X165.121 Y110.93 E.84533
G1 X164.586 Y110.93 E.01678
G1 X145.726 Y92.07 E.83779
G1 X145.192 Y92.07 E.01678
G1 X164.052 Y110.93 E.83779
G1 X163.518 Y110.93 E.01678
G1 X144.658 Y92.07 E.83779
G1 X144.123 Y92.07 E.01678
G1 X162.984 Y110.93 E.83779
G1 X162.449 Y110.93 E.01678
G1 X143.589 Y92.07 E.83779
G1 X143.055 Y92.07 E.01678
G1 X161.915 Y110.93 E.83779
G1 X161.381 Y110.93 E.01678
G1 X142.521 Y92.07 E.83779
G1 X141.987 Y92.07 E.01678
G1 X160.847 Y110.93 E.83779
G1 X160.313 Y110.93 E.01678
G1 X141.452 Y92.07 E.83779
G1 X140.918 Y92.07 E.01678
