; generated by PrusaSlicer 2.4.1+x64 on 2022-03-31 at 19:10:55 UTC

; 

; external perimeters extrusion width = 0.60mm
; perimeters extrusion width = 0.50mm
; infill extrusion width = 0.50mm
; solid infill extrusion width = 0.50mm
; top infill extrusion width = 0.45mm
; first layer extrusion width = 0.42mm

M73 P0 R255
M73 Q0 S255
M201 X1000 Y1000 Z200 E5000 ; sets maximum accelerations, mm/sec^2
M203 X200 Y200 Z12 E120 ; sets maximum feedrates, mm / sec
M204 P1250 R1250 T1250 ; sets acceleration (P, T) and retract acceleration (R), mm/sec^2
M205 X8.00 Y8.00 Z0.40 E4.50 ; sets the jerk limits, mm/sec
M205 S0 T0 ; sets the minimum extruding and travel feed rate, mm/sec
M107
;TYPE:Custom
M862.3 P "MK3S" ; printer model check
M862.1 P0.4 ; nozzle diameter check
M115 U3.10.1 ; tell printer latest fw version
G90 ; use absolute coordinates
M83 ; extruder relative mode
M104 S215 ; set extruder temp
M140 S60 ; set bed temp
M190 S60 ; wait for bed temp
M109 S215 ; wait for extruder temp
G28 W ; home all without mesh bed level
G80 ; mesh bed leveling
G1 Z0.2 F720
G1 Y-3 F1000 ; go outside print area
G92 E0
G1 X60 E9 F1000 ; intro line
G1 X100 E12.5 F1000 ; intro line
G92 E0
M221 S95

; Don't change E values below. Excessive value can damage the printer.

M907 E538 ; set extruder motor current
G21 ; set units to millimeters
G90 ; use absolute coordinates
M83 ; use relative distances for extrusion
M900 K0.05 ; Filament gcode LA 1.5
M900 K30 ; Filament gcode LA 1.0
M107
;LAYER_CHANGE
;Z:0.2
;HEIGHT:0.2
;BEFORE_LAYER_CHANGE
G92 E0.0
;0.2


M73 P0 R254
G1 E-.8 F2100
G1 Z.4 F720
;AFTER_LAYER_CHANGE
;0.2
G1 X67.415 Y68.343 F10800
G1 Z.2 F720
G1 E.8 F2100
M204 S800
;TYPE:Skirt/Brim
;WIDTH:0.42
G1 F1200
G1 X68.46 Y67.467 E.04278
G1 X69.4 Y67.273 E.03008
G1 X180.6 Y67.273 E3.4866
G1 X181.907 Y67.665 E.04278
G1 X182.783 Y68.71 E.04278
G1 X182.977 Y69.65 E.03008
G1 X182.977 Y140.35 E2.21675
G1 X182.585 Y141.657 E.04278
G1 X181.54 Y142.533 E.04278
G1 X180.6 Y142.727 E.03008
G1 X69.4 Y142.727 E3.4866
G1 X68.093 Y142.335 E.04278
G1 X67.217 Y141.29 E.04278
G1 X67.023 Y140.35 E.03008
G1 X67.023 Y69.65 E2.21675
G1 X67.397 Y68.4 E.0409
M204 S1000
; printing object camera-stand.stl id:0 copy 0
;WIPE_START
G1 F8640
G1 X68.46 Y67.467 E-.32671
G1 X69.4 Y67.273 E-.22155
G1 X70.317 Y67.273 E-.21174
;WIPE_END
G1 E-.04 F2100
G1 Z.6 F720
G1 X73.613 Y88.563 F10800
G1 Z.2 F720
G1 E.8 F2100
M204 S800
;TYPE:Perimeter
G1 F1200
G1 X105.187 Y88.563 E.98999
G1 X105.187 Y120.137 E.98999
G1 X73.613 Y120.137 E.98999
G1 X73.613 Y88.623 E.9881
M204 S1000
G1 X73.99 Y88.94 F10800
M204 S800
;TYPE:External perimeter
G1 F1200
G1 X104.81 Y88.94 E.96634
G1 X104.81 Y119.76 E.96634
G1 X73.99 Y119.76 E.96634
G1 X73.99 Y89 E.96446
M204 S1000
G1 X73.886 Y88.554 F10800
;WIPE_START
M73 Q0 S254
G1 F8640
G1 X77.281 Y88.994 E-.76
;WIPE_END
G1 E-.04 F2100
G1 Z.6 F720
G1 X70.187 Y70.437 F10800
G1 Z.2 F720
G1 E.8 F2100
M204 S800
;TYPE:Perimeter
G1 F1200
G1 X179.813 Y70.437 E3.43724
G1 X179.813 Y139.563 E2.16739
G1 X70.187 Y139.563 E3.43724
G1 X70.187 Y70.497 E2.16551
M204 S1000
G1 X69.81 Y70.06 F10800
M204 S800
;TYPE:External perimeter
G1 F1200
G1 X180.19 Y70.06 E3.46089
G1 X180.19 Y139.94 E2.19104
M73 P0 R253
G1 X69.81 Y139.94 E3.46089
G1 X69.81 Y70.12 E2.18916
M204 S1000
G1 X70.203 Y70.135 F10800
;WIPE_START
G1 F8640
G1 X73.101 Y70.118 E-.76
;WIPE_END
G1 E-.04 F2100
G1 Z.6 F720
G1 X178.936 Y70.55 F10800
G1 Z.2 F720
G1 E.8 F2100
M204 S800
;TYPE:Solid infill
;WIDTH:0.420554
G1 F1200
G1 X179.53 Y71.144 E.02637
G1 X179.53 Y71.678 E.01677
G1 X178.572 Y70.72 E.04255
G1 X178.038 Y70.72 E.01677
G1 X179.53 Y72.212 E.06626
G1 X179.53 Y72.746 E.01677
G1 X177.504 Y70.72 E.08998
G1 X176.97 Y70.72 E.01677
G1 X179.53 Y73.28 E.11369
G1 X179.53 Y73.814 E.01677
G1 X176.436 Y70.72 E.13741
G1 X175.902 Y70.72 E.01677
G1 X179.53 Y74.348 E.16113
G1 X179.53 Y74.882 E.01677
G1 X175.368 Y70.72 E.18484
G1 X174.834 Y70.72 E.01677
G1 X179.53 Y75.416 E.20856
G1 X179.53 Y75.95 E.01677
G1 X174.3 Y70.72 E.23227
G1 X173.765 Y70.72 E.01677
G1 X179.53 Y76.485 E.25599
G1 X179.53 Y77.019 E.01677
G1 X173.231 Y70.72 E.2797
G1 X172.697 Y70.72 E.01677
G1 X179.53 Y77.553 E.30342
G1 X179.53 Y78.087 E.01677
G1 X172.163 Y70.72 E.32714
G1 X171.629 Y70.72 E.01677
G1 X179.53 Y78.621 E.35085
G1 X179.53 Y79.155 E.01677
G1 X171.095 Y70.72 E.37457
G1 X170.561 Y70.72 E.01677
G1 X179.53 Y79.689 E.39828
G1 X179.53 Y80.223 E.01677
G1 X170.027 Y70.72 E.422
G1 X169.493 Y70.72 E.01677
G1 X179.53 Y80.757 E.44571
G1 X179.53 Y81.291 E.01677
G1 X168.959 Y70.72 E.46943
G1 X168.425 Y70.72 E.01677
G1 X179.53 Y81.825 E.49315
G1 X179.53 Y82.359 E.01677
G1 X167.891 Y70.72 E.51686
G1 X167.357 Y70.72 E.01677
G1 X179.53 Y82.893 E.54058
G1 X179.53 Y83.427 E.01677
G1 X166.823 Y70.72 E.56429
G1 X166.289 Y70.72 E.01677
G1 X179.53 Y83.961 E.58801
G1 X179.53 Y84.495 E.01677
G1 X165.755 Y70.72 E.61172
G1 X165.221 Y70.72 E.01677
G1 X179.53 Y85.029 E.63544
G1 X179.53 Y85.563 E.01677
G1 X164.687 Y70.72 E.65916
G1 X164.153 Y70.72 E.01677
G1 X179.53 Y86.097 E.68287
G1 X179.53 Y86.632 E.01677
G1 X163.618 Y70.72 E.70659
G1 X163.084 Y70.72 E.01677
G1 X179.53 Y87.166 E.7303
G1 X179.53 Y87.7 E.01677
G1 X162.55 Y70.72 E.75402
G1 X162.016 Y70.72 E.01677
G1 X179.53 Y88.234 E.77773
G1 X179.53 Y88.768 E.01677
M73 Q0 S253
G1 X161.482 Y70.72 E.80145
G1 X160.948 Y70.72 E.01677
G1 X179.53 Y89.302 E.82517
G1 X179.53 Y89.836 E.01677
G1 X160.414 Y70.72 E.84888
G1 X159.88 Y70.72 E.01677
G1 X179.53 Y90.37 E.8726
G1 X179.53 Y90.904 E.01677
G1 X159.346 Y70.72 E.89631
G1 X158.812 Y70.72 E.01677
G1 X179.53 Y91.438 E.92003
G1 X179.53 Y91.972 E.01677
G1 X158.278 Y70.72 E.94374
G1 X157.744 Y70.72 E.01677
G1 X179.53 Y92.506 E.96746
G1 X179.53 Y93.04 E.01677
G1 X157.21 Y70.72 E.99118
G1 X156.676 Y70.72 E.01677
G1 X179.53 Y93.574 E1.01489
G1 X179.53 Y94.108 E.01677
G1 X156.142 Y70.72 E1.03861
G1 X155.608 Y70.72 E.01677
G1 X179.53 Y94.642 E1.06232
G1 X179.53 Y95.176 E.01677
G1 X155.074 Y70.72 E1.08604
G1 X154.54 Y70.72 E.01677
G1 X179.53 Y95.71 E1.10975
G1 X179.53 Y96.245 E.01677
G1 X154.005 Y70.72 E1.13347
G1 X153.471 Y70.72 E.01677
M73 P0 R252
G1 X179.53 Y96.779 E1.15719
G1 X179.53 Y97.313 E.01677
G1 X152.937 Y70.72 E1.1809
G1 X152.403 Y70.72 E.01677
G1 X179.53 Y97.847 E1.20462
G1 X179.53 Y98.381 E.01677
G1 X151.869 Y70.72 E1.22833
G1 X151.335 Y70.72 E.01677
G1 X179.53 Y98.915 E1.25205
G1 X179.53 Y99.449 E.01677
G1 X150.801 Y70.72 E1.27576
G1 X150.267 Y70.72 E.01677
G1 X179.53 Y99.983 E1.29948
G1 X179.53 Y100.517 E.01677
G1 X149.733 Y70.72 E1.3232
G1 X149.199 Y70.72 E.01677
G1 X179.53 Y101.051 E1.34691
G1 X179.53 Y101.585 E.01677
G1 X148.665 Y70.72 E1.37063
G1 X148.131 Y70.72 E.01677
G1 X179.53 Y102.119 E1.39434
G1 X179.53 Y102.653 E.01677
G1 X147.597 Y70.72 E1.41806
G1 X147.063 Y70.72 E.01677
G1 X179.53 Y103.187 E1.44177
G1 X179.53 Y103.721 E.01677
G1 X146.529 Y70.72 E1.46549
G1 X145.995 Y70.72 E.01677
G1 X179.53 Y104.255 E1.48921
G1 X179.53 Y104.789 E.01677
M73 P1 R252
M73 Q1 S253
G1 X145.461 Y70.72 E1.51292
G1 X144.927 Y70.72 E.01677
G1 X179.53 Y105.323 E1.53664
G1 X179.53 Y105.858 E.01677
M73 Q1 S252
G1 X144.392 Y70.72 E1.56035
G1 X143.858 Y70.72 E.01677
G1 X179.53 Y106.392 E1.58407
G1 X179.53 Y106.926 E.01677
G1 X143.324 Y70.72 E1.60778
G1 X142.79 Y70.72 E.01677
G1 X179.53 Y107.46 E1.6315
G1 X179.53 Y107.994 E.01677
G1 X142.256 Y70.72 E1.65522
G1 X141.722 Y70.72 E.01677
G1 X179.53 Y108.528 E1.67893
G1 X179.53 Y109.062 E.01677
G1 X141.188 Y70.72 E1.70265
G1 X140.654 Y70.72 E.01677
G1 X179.53 Y109.596 E1.72636
G1 X179.53 Y110.13 E.01677
G1 X140.12 Y70.72 E1.75008
G1 X139.586 Y70.72 E.01677
M73 P1 R251
G1 X179.53 Y110.664 E1.77379
G1 X179.53 Y111.198 E.01677
G1 X139.052 Y70.72 E1.79751
G1 X138.518 Y70.72 E.01677
G1 X179.53 Y111.732 E1.82123
G1 X179.53 Y112.266 E.01677
G1 X137.984 Y70.72 E1.84494
G1 X137.45 Y70.72 E.01677
G1 X179.53 Y112.8 E1.86866
G1 X179.53 Y113.334 E.01677
G1 X136.916 Y70.72 E1.89237
G1 X136.382 Y70.72 E.01677
G1 X179.53 Y113.868 E1.91609
G1 X179.53 Y114.402 E.01677
G1 X135.848 Y70.72 E1.9398
G1 X135.314 Y70.72 E.01677
G1 X179.53 Y114.936 E1.96352
G1 X179.53 Y115.471 E.01677
G1 X134.779 Y70.72 E1.98724
G1 X134.245 Y70.72 E.01677
G1 X179.53 Y116.005 E2.01095
G1 X179.53 Y116.539 E.01677
G1 X133.711 Y70.72 E2.03467
G1 X133.177 Y70.72 E.01677
M73 Q1 S251
G1 X179.53 Y117.073 E2.05838
G1 X179.53 Y117.607 E.01677
G1 X132.643 Y70.72 E2.0821
G1 X132.109 Y70.72 E.01677
G1 X179.53 Y118.141 E2.10581
G1 X179.53 Y118.675 E.01677
G1 X131.575 Y70.72 E2.12953
G1 X131.041 Y70.72 E.01677
G1 X179.53 Y119.209 E2.15325
G1 X179.53 Y119.743 E.01677
G1 X130.507 Y70.72 E2.17696
G1 X129.973 Y70.72 E.01677
G1 X179.53 Y120.277 E2.20068
G1 X179.53 Y120.811 E.01677
M73 P1 R250
G1 X129.439 Y70.72 E2.22439
G1 X128.905 Y70.72 E.01677
G1 X179.53 Y121.345 E2.24811
G1 X179.53 Y121.879 E.01677
G1 X128.371 Y70.72 E2.27182
G1 X127.837 Y70.72 E.01677
G1 X179.53 Y122.413 E2.29554
G1 X179.53 Y122.947 E.01677
G1 X127.303 Y70.72 E2.31926
G1 X126.769 Y70.72 E.01677
G1 X179.53 Y123.481 E2.34297
G1 X179.53 Y124.015 E.01677
G1 X126.235 Y70.72 E2.36669
G1 X125.701 Y70.72 E.01677
G1 X179.53 Y124.549 E2.3904
G1 X179.53 Y125.084 E.01677
G1 X125.166 Y70.72 E2.41412
G1 X124.632 Y70.72 E.01677
G1 X179.53 Y125.618 E2.43783
M73 Q1 S250
G1 X179.53 Y126.152 E.01677
G1 X124.098 Y70.72 E2.46155
G1 X123.564 Y70.72 E.01677
G1 X179.53 Y126.686 E2.48527
G1 X179.53 Y127.22 E.01677
G1 X123.03 Y70.72 E2.50898
G1 X122.496 Y70.72 E.01677
G1 X179.53 Y127.754 E2.5327
G1 X179.53 Y128.288 E.01677
G1 X121.962 Y70.72 E2.55641
G1 X121.428 Y70.72 E.01677
M73 P1 R249
G1 X179.53 Y128.822 E2.58013
G1 X179.53 Y129.356 E.01677
M73 P2 R249
M73 Q2 S250
G1 X120.894 Y70.72 E2.60384
G1 X120.36 Y70.72 E.01677
G1 X179.53 Y129.89 E2.62756
G1 X179.53 Y130.424 E.01677
G1 X119.826 Y70.72 E2.65128
G1 X119.292 Y70.72 E.01677
G1 X179.53 Y130.958 E2.67499
G1 X179.53 Y131.492 E.01677
G1 X118.758 Y70.72 E2.69871
G1 X118.224 Y70.72 E.01677
G1 X179.53 Y132.026 E2.72242
G1 X179.53 Y132.56 E.01677
G1 X117.69 Y70.72 E2.74614
G1 X117.156 Y70.72 E.01677
G1 X179.53 Y133.094 E2.76985
G1 X179.53 Y133.628 E.01677
M73 Q2 S249
G1 X116.622 Y70.72 E2.79357
G1 X116.088 Y70.72 E.01677
G1 X179.53 Y134.162 E2.81729
G1 X179.53 Y134.697 E.01677
G1 X115.553 Y70.72 E2.841
G1 X115.019 Y70.72 E.01677
G1 X179.53 Y135.231 E2.86472
G1 X179.53 Y135.765 E.01677
G1 X114.485 Y70.72 E2.88843
G1 X113.951 Y70.72 E.01677
M73 P2 R248
G1 X179.53 Y136.299 E2.91215
G1 X179.53 Y136.833 E.01677
G1 X113.417 Y70.72 E2.93586
G1 X112.883 Y70.72 E.01677
G1 X179.53 Y137.367 E2.95958
G1 X179.53 Y137.901 E.01677
G1 X112.349 Y70.72 E2.9833
G1 X111.815 Y70.72 E.01677
G1 X179.53 Y138.435 E3.00701
G1 X179.53 Y138.969 E.01677
G1 X111.281 Y70.72 E3.03073
G1 X110.747 Y70.72 E.01677
G1 X179.307 Y139.28 E3.04455
G1 X178.773 Y139.28 E.01677
G1 X110.213 Y70.72 E3.04455
G1 X109.679 Y70.72 E.01677
M73 Q2 S248
G1 X178.239 Y139.28 E3.04455
G1 X177.705 Y139.28 E.01677
G1 X109.145 Y70.72 E3.04455
G1 X108.611 Y70.72 E.01677
G1 X177.171 Y139.28 E3.04455
G1 X176.637 Y139.28 E.01677
G1 X108.077 Y70.72 E3.04455
G1 X107.543 Y70.72 E.01677
M73 P2 R247
G1 X176.103 Y139.28 E3.04455
G1 X175.569 Y139.28 E.01677
G1 X107.009 Y70.72 E3.04455
G1 X106.475 Y70.72 E.01677
G1 X175.035 Y139.28 E3.04455
G1 X174.501 Y139.28 E.01677
G1 X105.94 Y70.72 E3.04455
G1 X105.406 Y70.72 E.01677
G1 X173.967 Y139.28 E3.04455
G1 X173.433 Y139.28 E.01677
G1 X104.872 Y70.72 E3.04455
G1 X104.338 Y70.72 E.01677
G1 X172.899 Y139.28 E3.04455
G1 X172.365 Y139.28 E.01677
G1 X103.804 Y70.72 E3.04455
G1 X103.27 Y70.72 E.01677
M73 P3 R247
M73 Q3 S247
G1 X171.83 Y139.28 E3.04455
G1 X171.296 Y139.28 E.01677
G1 X102.736 Y70.72 E3.04455
G1 X102.202 Y70.72 E.01677
G1 X170.762 Y139.28 E3.04455
G1 X170.228 Y139.28 E.01677
G1 X101.668 Y70.72 E3.04455
G1 X101.134 Y70.72 E.01677
G1 X169.694 Y139.28 E3.04455
G1 X169.16 Y139.28 E.01677
M73 P3 R246
G1 X100.6 Y70.72 E3.04455
G1 X100.066 Y70.72 E.01677
G1 X168.626 Y139.28 E3.04455
G1 X168.092 Y139.28 E.01677
G1 X99.532 Y70.72 E3.04455
G1 X98.998 Y70.72 E.01677
G1 X167.558 Y139.28 E3.04455
G1 X167.024 Y139.28 E.01677
G1 X98.464 Y70.72 E3.04455
G1 X97.93 Y70.72 E.01677
G1 X166.49 Y139.28 E3.04455
G1 X165.956 Y139.28 E.01677
G1 X97.396 Y70.72 E3.04455
G1 X96.862 Y70.72 E.01677
M73 Q3 S246
G1 X165.422 Y139.28 E3.04455
G1 X164.888 Y139.28 E.01677
G1 X96.328 Y70.72 E3.04455
G1 X95.793 Y70.72 E.01677
G1 X164.354 Y139.28 E3.04455
G1 X163.82 Y139.28 E.01677
G1 X95.259 Y70.72 E3.04455
G1 X94.725 Y70.72 E.01677
G1 X163.286 Y139.28 E3.04455
G1 X162.752 Y139.28 E.01677
M73 P3 R245
G1 X94.191 Y70.72 E3.04455
G1 X93.657 Y70.72 E.01677
G1 X162.217 Y139.28 E3.04455
G1 X161.683 Y139.28 E.01677
G1 X93.123 Y70.72 E3.04455
G1 X92.589 Y70.72 E.01677
G1 X161.149 Y139.28 E3.04455
G1 X160.615 Y139.28 E.01677
G1 X92.055 Y70.72 E3.04455
G1 X91.521 Y70.72 E.01677
G1 X160.081 Y139.28 E3.04455
G1 X159.547 Y139.28 E.01677
G1 X90.987 Y70.72 E3.04455
G1 X90.453 Y70.72 E.01677
G1 X159.013 Y139.28 E3.04455
M73 Q3 S245
G1 X158.479 Y139.28 E.01677
G1 X89.919 Y70.72 E3.04455
G1 X89.385 Y70.72 E.01677
G1 X157.945 Y139.28 E3.04455
G1 X157.411 Y139.28 E.01677
G1 X88.851 Y70.72 E3.04455
G1 X88.317 Y70.72 E.01677
G1 X156.877 Y139.28 E3.04455
G1 X156.343 Y139.28 E.01677
M73 P3 R244
G1 X87.783 Y70.72 E3.04455
G1 X87.249 Y70.72 E.01677
G1 X104.809 Y88.28 E.7798
G1 X104.275 Y88.28 E.01677
G1 X86.715 Y70.72 E.7798
G1 X86.18 Y70.72 E.01677
G1 X103.741 Y88.28 E.7798
G1 X103.207 Y88.28 E.01677
G1 X85.646 Y70.72 E.7798
G1 X85.112 Y70.72 E.01677
M73 P4 R244
M73 Q4 S245
G1 X102.673 Y88.28 E.7798
G1 X102.139 Y88.28 E.01677
G1 X84.578 Y70.72 E.7798
G1 X84.044 Y70.72 E.01677
G1 X101.604 Y88.28 E.7798
G1 X101.07 Y88.28 E.01677
G1 X83.51 Y70.72 E.7798
G1 X82.976 Y70.72 E.01677
G1 X100.536 Y88.28 E.7798
G1 X100.002 Y88.28 E.01677
G1 X82.442 Y70.72 E.7798
G1 X81.908 Y70.72 E.01677
G1 X99.468 Y88.28 E.7798
G1 X98.934 Y88.28 E.01677
G1 X81.374 Y70.72 E.7798
G1 X80.84 Y70.72 E.01677
G1 X98.4 Y88.28 E.7798
G1 X97.866 Y88.28 E.01677
G1 X80.306 Y70.72 E.7798
G1 X79.772 Y70.72 E.01677
G1 X97.332 Y88.28 E.7798
G1 X96.798 Y88.28 E.01677
G1 X79.238 Y70.72 E.7798
G1 X78.704 Y70.72 E.01677
G1 X96.264 Y88.28 E.7798
G1 X95.73 Y88.28 E.01677
G1 X78.17 Y70.72 E.7798
G1 X77.636 Y70.72 E.01677
G1 X95.196 Y88.28 E.7798
G1 X94.662 Y88.28 E.01677
G1 X77.102 Y70.72 E.7798
G1 X76.567 Y70.72 E.01677
G1 X94.128 Y88.28 E.7798
G1 X93.594 Y88.28 E.01677
G1 X76.033 Y70.72 E.7798
G1 X75.499 Y70.72 E.01677
G1 X93.06 Y88.28 E.7798
G1 X92.526 Y88.28 E.01677
G1 X74.965 Y70.72 E.7798
G1 X74.431 Y70.72 E.01677
M73 Q4 S244
G1 X91.991 Y88.28 E.7798
G1 X91.457 Y88.28 E.01677
G1 X73.897 Y70.72 E.7798
G1 X73.363 Y70.72 E.01677
G1 X90.923 Y88.28 E.7798
G1 X90.389 Y88.28 E.01677
G1 X72.829 Y70.72 E.7798
G1 X72.295 Y70.72 E.01677
G1 X89.855 Y88.28 E.7798
G1 X89.321 Y88.28 E.01677
G1 X71.761 Y70.72 E.7798
G1 X71.227 Y70.72 E.01677
G1 X88.787 Y88.28 E.7798
G1 X88.253 Y88.28 E.01677
G1 X70.693 Y70.72 E.7798
G1 X70.47 Y70.72 E.007
G1 X70.47 Y71.031 E.00977
G1 X87.719 Y88.28 E.76598
G1 X87.185 Y88.28 E.01677
G1 X70.47 Y71.565 E.74227
G1 X70.47 Y72.099 E.01677
G1 X86.651 Y88.28 E.71855
G1 X86.117 Y88.28 E.01677
G1 X70.47 Y72.633 E.69483
G1 X70.47 Y73.167 E.01677
G1 X85.583 Y88.28 E.67112
G1 X85.049 Y88.28 E.01677
G1 X70.47 Y73.701 E.6474
G1 X70.47 Y74.235 E.01677
G1 X84.515 Y88.28 E.62369
G1 X83.981 Y88.28 E.01677
G1 X70.47 Y74.769 E.59997
G1 X70.47 Y75.303 E.01677
G1 X83.447 Y88.28 E.57626
G1 X82.913 Y88.28 E.01677
G1 X70.47 Y75.837 E.55254
G1 X70.47 Y76.371 E.01677
G1 X82.378 Y88.28 E.52882
G1 X81.844 Y88.28 E.01677
G1 X70.47 Y76.906 E.50511
G1 X70.47 Y77.44 E.01677
G1 X81.31 Y88.28 E.48139
G1 X80.776 Y88.28 E.01677
M73 P4 R243
G1 X70.47 Y77.974 E.45768
G1 X70.47 Y78.508 E.01677
G1 X80.242 Y88.28 E.43396
G1 X79.708 Y88.28 E.01677
G1 X70.47 Y79.042 E.41025
G1 X70.47 Y79.576 E.01677
G1 X79.174 Y88.28 E.38653
G1 X78.64 Y88.28 E.01677
G1 X70.47 Y80.11 E.36281
G1 X70.47 Y80.644 E.01677
G1 X78.106 Y88.28 E.3391
G1 X77.572 Y88.28 E.01677
G1 X70.47 Y81.178 E.31538
G1 X70.47 Y81.712 E.01677
G1 X77.038 Y88.28 E.29167
