; generated by PrusaSlicer 2.4.0+x64 on 2022-03-13 at 15:54:19 UTC

; 

; external perimeters extrusion width = 0.60mm
; perimeters extrusion width = 0.50mm
; infill extrusion width = 0.50mm
; solid infill extrusion width = 0.50mm
; top infill extrusion width = 0.45mm
; first layer extrusion width = 0.42mm

M73 P0 R21
M73 Q0 S21
M201 X1000 Y1000 Z200 E5000 ; sets maximum accelerations, mm/sec^2
M203 X200 Y200 Z12 E120 ; sets maximum feedrates, mm/sec
M204 P1250 R1250 T1250 ; sets acceleration (P, T) and retract acceleration (R), mm/sec^2
M205 X8.00 Y8.00 Z0.40 E4.50 ; sets the jerk limits, mm/sec
M205 S0 T0 ; sets the minimum extruding and travel feed rate, mm/sec
M107
;TYPE:Custom
M862.3 P "MK3S" ; printer model check
M862.1 P0.4 ; nozzle diameter check
M115 U3.10.0 ; tell printer latest fw version
G90 ; use absolute coordinates
M83 ; extruder relative mode
M104 S215 ; set extruder temp
M140 S60 ; set bed temp
M190 S60 ; wait for bed temp
M109 S215 ; wait for extruder temp
G28 W ; home all without mesh bed level
G80 ; mesh bed leveling
G1 Z0.2 F720
G1 Y-3 F1000 ; go outside print area
G92 E0
G1 X60 E9 F1000 ; intro line
G1 X100 E12.5 F1000 ; intro line
G92 E0
M221 S95

; Don't change E values below. Excessive value can damage the printer.

M907 E538 ; set extruder motor current
G21 ; set units to millimeters
G90 ; use absolute coordinates
M83 ; use relative distances for extrusion
M900 K0.05 ; Filament gcode LA 1.5
M900 K30 ; Filament gcode LA 1.0
M107
;LAYER_CHANGE
;Z:0.2
;HEIGHT:0.2
;BEFORE_LAYER_CHANGE
G92 E0.0
;0.2


G1 E-.8 F2100
G1 Z.4 F720
;AFTER_LAYER_CHANGE
;0.2
G1 X80.015 Y88.693 F10800
G1 Z.2 F720
G1 E.8 F2100
M204 S800
;TYPE:Skirt/Brim
;WIDTH:0.42
G1 F1200
G1 X81.06 Y87.817 E.04278
G1 X82 Y87.623 E.03008
G1 X168 Y87.623 E2.69647
G1 X169.307 Y88.015 E.04278
G1 X170.183 Y89.06 E.04278
G1 X170.377 Y90 E.03008
G1 X170.377 Y120 E.94063
G1 X169.985 Y121.307 E.04278
M73 P1 R21
M73 Q1 S21
G1 X168.94 Y122.183 E.04278
G1 X168 Y122.377 E.03008
G1 X82 Y122.377 E2.69647
G1 X80.693 Y121.985 E.04278
G1 X79.817 Y120.94 E.04278
G1 X79.623 Y120 E.03008
G1 X79.623 Y90 E.94063
G1 X79.997 Y88.75 E.0409
M204 S1000
; printing object camera-stand.stl id:0 copy 0
;WIPE_START
G1 F8640
G1 X81.06 Y87.817 E-.32671
G1 X82 Y87.623 E-.22155
G1 X82.917 Y87.623 E-.21174
;WIPE_END
G1 E-.04 F2100
G1 Z.6 F720
G1 X83.187 Y90.787 F10800
G1 Z.2 F720
G1 E.8 F2100
M204 S800
;TYPE:Perimeter
G1 F1200
G1 X167.213 Y90.787 E2.63457
G1 X167.213 Y119.213 E.89127
G1 X82.787 Y119.213 E2.64711
G1 X82.787 Y90.787 E.89127
M73 P2 R21
M73 Q2 S21
G1 X83.127 Y90.787 E.01066
M204 S1000
G1 X82.41 Y90.41 F10800
M204 S800
;TYPE:External perimeter
G1 F1200
G1 X167.59 Y90.41 E2.67076
G1 X167.59 Y119.59 E.91492
M73 P2 R20
G1 X82.41 Y119.59 E2.67076
M73 Q2 S20
G1 X82.41 Y90.47 E.91304
M204 S1000
M73 P3 R20
M73 Q3 S20
G1 X82.808 Y90.454 F10800
;WIPE_START
G1 F8640
G1 X85.701 Y90.468 E-.76
;WIPE_END
G1 E-.04 F2100
G1 Z.6 F720
G1 X166.334 Y90.9 F10800
G1 Z.2 F720
G1 E.8 F2100
M204 S800
;TYPE:Solid infill
;WIDTH:0.421641
G1 F1200
G1 X166.93 Y91.496 E.02655
G1 X166.93 Y92.032 E.01687
G1 X165.968 Y91.07 E.04284
G1 X165.433 Y91.07 E.01687
G1 X166.93 Y92.567 E.06669
G1 X166.93 Y93.103 E.01687
G1 X164.897 Y91.07 E.09055
G1 X164.361 Y91.07 E.01687
G1 X166.93 Y93.639 E.1144
G1 X166.93 Y94.174 E.01687
G1 X163.826 Y91.07 E.13825
G1 X163.29 Y91.07 E.01687
G1 X166.93 Y94.71 E.1621
G1 X166.93 Y95.245 E.01687
G1 X162.755 Y91.07 E.18596
G1 X162.219 Y91.07 E.01687
G1 X166.93 Y95.781 E.20981
G1 X166.93 Y96.317 E.01687
G1 X161.683 Y91.07 E.23366
G1 X161.148 Y91.07 E.01687
G1 X166.93 Y96.852 E.25751
G1 X166.93 Y97.388 E.01687
G1 X160.612 Y91.07 E.28137
G1 X160.077 Y91.07 E.01687
G1 X166.93 Y97.923 E.30522
G1 X166.93 Y98.459 E.01687
G1 X159.541 Y91.07 E.32907
G1 X159.005 Y91.07 E.01687
G1 X166.93 Y98.995 E.35292
G1 X166.93 Y99.53 E.01687
G1 X158.47 Y91.07 E.37678
G1 X157.934 Y91.07 E.01687
G1 X166.93 Y100.066 E.40063
G1 X166.93 Y100.601 E.01687
G1 X157.399 Y91.07 E.42448
G1 X156.863 Y91.07 E.01687
G1 X166.93 Y101.137 E.44833
G1 X166.93 Y101.673 E.01687
M73 Q4 S20
G1 X156.327 Y91.07 E.47219
G1 X155.792 Y91.07 E.01687
M73 P4 R20
G1 X166.93 Y102.208 E.49604
G1 X166.93 Y102.744 E.01687
G1 X155.256 Y91.07 E.51989
G1 X154.721 Y91.07 E.01687
G1 X166.93 Y103.279 E.54374
G1 X166.93 Y103.815 E.01687
G1 X154.185 Y91.07 E.56759
G1 X153.65 Y91.07 E.01687
G1 X166.93 Y104.35 E.59145
G1 X166.93 Y104.886 E.01687
G1 X153.114 Y91.07 E.6153
G1 X152.578 Y91.07 E.01687
G1 X166.93 Y105.422 E.63915
G1 X166.93 Y105.957 E.01687
G1 X152.043 Y91.07 E.663
G1 X151.507 Y91.07 E.01687
G1 X166.93 Y106.493 E.68686
G1 X166.93 Y107.028 E.01687
G1 X150.972 Y91.07 E.71071
G1 X150.436 Y91.07 E.01687
G1 X166.93 Y107.564 E.73456
G1 X166.93 Y108.1 E.01687
G1 X149.9 Y91.07 E.75841
G1 X149.365 Y91.07 E.01687
M73 P5 R20
M73 Q5 S20
G1 X166.93 Y108.635 E.78227
G1 X166.93 Y109.171 E.01687
G1 X148.829 Y91.07 E.80612
G1 X148.294 Y91.07 E.01687
G1 X166.93 Y109.706 E.82997
G1 X166.93 Y110.242 E.01687
G1 X147.758 Y91.07 E.85382
G1 X147.222 Y91.07 E.01687
G1 X166.93 Y110.778 E.87768
G1 X166.93 Y111.313 E.01687
G1 X146.687 Y91.07 E.90153
G1 X146.151 Y91.07 E.01687
G1 X166.93 Y111.849 E.92538
G1 X166.93 Y112.384 E.01687
G1 X145.616 Y91.07 E.94923
G1 X145.08 Y91.07 E.01687
G1 X166.93 Y112.92 E.97309
G1 X166.93 Y113.456 E.01687
M73 Q6 S20
G1 X144.544 Y91.07 E.99694
M73 P6 R20
G1 X144.009 Y91.07 E.01687
G1 X166.93 Y113.991 E1.02079
G1 X166.93 Y114.527 E.01687
G1 X143.473 Y91.07 E1.04464
G1 X142.938 Y91.07 E.01687
G1 X166.93 Y115.062 E1.0685
G1 X166.93 Y115.598 E.01687
G1 X142.402 Y91.07 E1.09235
G1 X141.866 Y91.07 E.01687
G1 X166.93 Y116.134 E1.1162
G1 X166.93 Y116.669 E.01687
G1 X141.331 Y91.07 E1.14005
G1 X140.795 Y91.07 E.01687
G1 X166.93 Y117.205 E1.16391
G1 X166.93 Y117.74 E.01687
M73 P7 R20
M73 Q7 S20
G1 X140.26 Y91.07 E1.18776
G1 X139.724 Y91.07 E.01687
G1 X166.93 Y118.276 E1.21161
G1 X166.93 Y118.811 E.01687
M73 P7 R19
G1 X139.189 Y91.07 E1.23546
G1 X138.653 Y91.07 E.01687
M73 Q7 S19
G1 X166.513 Y118.93 E1.24075
G1 X165.978 Y118.93 E.01687
G1 X138.117 Y91.07 E1.24075
G1 X137.582 Y91.07 E.01687
G1 X165.442 Y118.93 E1.24075
G1 X164.906 Y118.93 E.01687
M73 P8 R19
M73 Q8 S19
G1 X137.046 Y91.07 E1.24075
G1 X136.511 Y91.07 E.01687
G1 X164.371 Y118.93 E1.24075
G1 X163.835 Y118.93 E.01687
G1 X135.975 Y91.07 E1.24075
G1 X135.439 Y91.07 E.01687
G1 X163.3 Y118.93 E1.24075
G1 X162.764 Y118.93 E.01687
G1 X134.904 Y91.07 E1.24075
G1 X134.368 Y91.07 E.01687
G1 X162.228 Y118.93 E1.24075
G1 X161.693 Y118.93 E.01687
G1 X133.833 Y91.07 E1.24075
G1 X133.297 Y91.07 E.01687
M73 P9 R19
M73 Q9 S19
G1 X161.157 Y118.93 E1.24075
G1 X160.622 Y118.93 E.01687
G1 X132.761 Y91.07 E1.24075
G1 X132.226 Y91.07 E.01687
G1 X160.086 Y118.93 E1.24075
G1 X159.55 Y118.93 E.01687
G1 X131.69 Y91.07 E1.24075
G1 X131.155 Y91.07 E.01687
G1 X159.015 Y118.93 E1.24075
G1 X158.479 Y118.93 E.01687
G1 X130.619 Y91.07 E1.24075
G1 X130.083 Y91.07 E.01687
M73 P10 R19
M73 Q10 S19
G1 X157.944 Y118.93 E1.24075
G1 X157.408 Y118.93 E.01687
G1 X129.548 Y91.07 E1.24075
G1 X129.012 Y91.07 E.01687
G1 X156.873 Y118.93 E1.24075
G1 X156.337 Y118.93 E.01687
G1 X128.477 Y91.07 E1.24075
G1 X127.941 Y91.07 E.01687
G1 X155.801 Y118.93 E1.24075
G1 X155.266 Y118.93 E.01687
G1 X127.406 Y91.07 E1.24075
G1 X126.87 Y91.07 E.01687
G1 X154.73 Y118.93 E1.24075
G1 X154.195 Y118.93 E.01687
M73 P11 R19
M73 Q11 S19
G1 X126.334 Y91.07 E1.24075
G1 X125.799 Y91.07 E.01687
G1 X153.659 Y118.93 E1.24075
G1 X153.123 Y118.93 E.01687
G1 X125.263 Y91.07 E1.24075
G1 X124.728 Y91.07 E.01687
G1 X152.588 Y118.93 E1.24075
G1 X152.052 Y118.93 E.01687
G1 X124.192 Y91.07 E1.24075
G1 X123.656 Y91.07 E.01687
M73 P11 R18
G1 X151.517 Y118.93 E1.24075
G1 X150.981 Y118.93 E.01687
M73 P12 R18
M73 Q12 S19
G1 X123.121 Y91.07 E1.24075
M73 Q12 S18
G1 X122.585 Y91.07 E.01687
G1 X150.445 Y118.93 E1.24075
G1 X149.91 Y118.93 E.01687
G1 X122.05 Y91.07 E1.24075
G1 X121.514 Y91.07 E.01687
G1 X149.374 Y118.93 E1.24075
G1 X148.839 Y118.93 E.01687
G1 X120.978 Y91.07 E1.24075
G1 X120.443 Y91.07 E.01687
G1 X148.303 Y118.93 E1.24075
G1 X147.767 Y118.93 E.01687
M73 Q13 S18
G1 X119.907 Y91.07 E1.24075
G1 X119.372 Y91.07 E.01687
M73 P13 R18
G1 X147.232 Y118.93 E1.24075
G1 X146.696 Y118.93 E.01687
G1 X118.836 Y91.07 E1.24075
G1 X118.3 Y91.07 E.01687
G1 X146.161 Y118.93 E1.24075
G1 X145.625 Y118.93 E.01687
G1 X117.765 Y91.07 E1.24075
G1 X117.229 Y91.07 E.01687
G1 X145.089 Y118.93 E1.24075
G1 X144.554 Y118.93 E.01687
G1 X116.694 Y91.07 E1.24075
G1 X116.158 Y91.07 E.01687
M73 P14 R18
M73 Q14 S18
G1 X144.018 Y118.93 E1.24075
G1 X143.483 Y118.93 E.01687
G1 X115.622 Y91.07 E1.24075
G1 X115.087 Y91.07 E.01687
G1 X142.947 Y118.93 E1.24075
G1 X142.412 Y118.93 E.01687
G1 X114.551 Y91.07 E1.24075
G1 X114.016 Y91.07 E.01687
G1 X141.876 Y118.93 E1.24075
G1 X141.34 Y118.93 E.01687
G1 X113.48 Y91.07 E1.24075
G1 X112.945 Y91.07 E.01687
M73 P15 R18
M73 Q15 S18
G1 X140.805 Y118.93 E1.24075
G1 X140.269 Y118.93 E.01687
G1 X112.409 Y91.07 E1.24075
G1 X111.873 Y91.07 E.01687
G1 X139.734 Y118.93 E1.24075
G1 X139.198 Y118.93 E.01687
G1 X111.338 Y91.07 E1.24075
G1 X110.802 Y91.07 E.01687
G1 X138.662 Y118.93 E1.24075
G1 X138.127 Y118.93 E.01687
G1 X110.267 Y91.07 E1.24075
G1 X109.731 Y91.07 E.01687
G1 X137.591 Y118.93 E1.24075
G1 X137.056 Y118.93 E.01687
M73 P16 R18
M73 Q16 S18
G1 X109.195 Y91.07 E1.24075
G1 X108.66 Y91.07 E.01687
G1 X136.52 Y118.93 E1.24075
G1 X135.984 Y118.93 E.01687
G1 X108.124 Y91.07 E1.24075
G1 X107.589 Y91.07 E.01687
M73 P16 R17
G1 X135.449 Y118.93 E1.24075
G1 X134.913 Y118.93 E.01687
M73 Q16 S17
G1 X107.053 Y91.07 E1.24075
G1 X106.517 Y91.07 E.01687
G1 X134.378 Y118.93 E1.24075
G1 X133.842 Y118.93 E.01687
M73 P17 R17
M73 Q17 S17
G1 X105.982 Y91.07 E1.24075
G1 X105.446 Y91.07 E.01687
G1 X133.306 Y118.93 E1.24075
G1 X132.771 Y118.93 E.01687
G1 X104.911 Y91.07 E1.24075
G1 X104.375 Y91.07 E.01687
G1 X132.235 Y118.93 E1.24075
G1 X131.7 Y118.93 E.01687
G1 X103.839 Y91.07 E1.24075
G1 X103.304 Y91.07 E.01687
G1 X131.164 Y118.93 E1.24075
G1 X130.628 Y118.93 E.01687
G1 X102.768 Y91.07 E1.24075
G1 X102.233 Y91.07 E.01687
M73 P18 R17
M73 Q18 S17
G1 X130.093 Y118.93 E1.24075
G1 X129.557 Y118.93 E.01687
G1 X101.697 Y91.07 E1.24075
G1 X101.161 Y91.07 E.01687
G1 X129.022 Y118.93 E1.24075
G1 X128.486 Y118.93 E.01687
G1 X100.626 Y91.07 E1.24075
G1 X100.09 Y91.07 E.01687
G1 X127.951 Y118.93 E1.24075
G1 X127.415 Y118.93 E.01687
G1 X99.555 Y91.07 E1.24075
G1 X99.019 Y91.07 E.01687
M73 P19 R17
M73 Q19 S17
G1 X126.879 Y118.93 E1.24075
G1 X126.344 Y118.93 E.01687
G1 X98.484 Y91.07 E1.24075
G1 X97.948 Y91.07 E.01687
G1 X125.808 Y118.93 E1.24075
G1 X125.273 Y118.93 E.01687
G1 X97.412 Y91.07 E1.24075
G1 X96.877 Y91.07 E.01687
G1 X124.737 Y118.93 E1.24075
G1 X124.201 Y118.93 E.01687
G1 X96.341 Y91.07 E1.24075
G1 X95.806 Y91.07 E.01687
G1 X123.666 Y118.93 E1.24075
G1 X123.13 Y118.93 E.01687
M73 P20 R17
M73 Q20 S17
G1 X95.27 Y91.07 E1.24075
G1 X94.734 Y91.07 E.01687
G1 X122.595 Y118.93 E1.24075
G1 X122.059 Y118.93 E.01687
G1 X94.199 Y91.07 E1.24075
G1 X93.663 Y91.07 E.01687
G1 X121.523 Y118.93 E1.24075
G1 X120.988 Y118.93 E.01687
G1 X93.128 Y91.07 E1.24075
G1 X92.592 Y91.07 E.01687
G1 X120.452 Y118.93 E1.24075
G1 X119.917 Y118.93 E.01687
M73 P21 R17
M73 Q21 S17
G1 X92.056 Y91.07 E1.24075
G1 X91.521 Y91.07 E.01687
M73 P21 R16
G1 X119.381 Y118.93 E1.24075
G1 X118.845 Y118.93 E.01687
M73 Q21 S16
G1 X90.985 Y91.07 E1.24075
G1 X90.45 Y91.07 E.01687
G1 X118.31 Y118.93 E1.24075
G1 X117.774 Y118.93 E.01687
G1 X89.914 Y91.07 E1.24075
G1 X89.378 Y91.07 E.01687
G1 X117.239 Y118.93 E1.24075
G1 X116.703 Y118.93 E.01687
M73 P22 R16
G1 X88.843 Y91.07 E1.24075
M73 Q22 S16
G1 X88.307 Y91.07 E.01687
G1 X116.168 Y118.93 E1.24075
G1 X115.632 Y118.93 E.01687
G1 X87.772 Y91.07 E1.24075
G1 X87.236 Y91.07 E.01687
G1 X115.096 Y118.93 E1.24075
G1 X114.561 Y118.93 E.01687
G1 X86.7 Y91.07 E1.24075
G1 X86.165 Y91.07 E.01687
G1 X114.025 Y118.93 E1.24075
G1 X113.49 Y118.93 E.01687
G1 X85.629 Y91.07 E1.24075
G1 X85.094 Y91.07 E.01687
M73 P23 R16
M73 Q23 S16
G1 X112.954 Y118.93 E1.24075
G1 X112.418 Y118.93 E.01687
G1 X84.558 Y91.07 E1.24075
G1 X84.023 Y91.07 E.01687
G1 X111.883 Y118.93 E1.24075
G1 X111.347 Y118.93 E.01687
G1 X83.487 Y91.07 E1.24075
G1 X83.07 Y91.07 E.01313
G1 X83.07 Y91.188 E.00373
G1 X110.812 Y118.93 E1.23547
G1 X110.276 Y118.93 E.01687
G1 X83.07 Y91.724 E1.21162
G1 X83.07 Y92.26 E.01687
M73 P24 R16
M73 Q24 S16
G1 X109.74 Y118.93 E1.18776
G1 X109.205 Y118.93 E.01687
G1 X83.07 Y92.795 E1.16391
G1 X83.07 Y93.331 E.01687
G1 X108.669 Y118.93 E1.14006
G1 X108.134 Y118.93 E.01687
G1 X83.07 Y93.866 E1.11621
G1 X83.07 Y94.402 E.01687
G1 X107.598 Y118.93 E1.09235
G1 X107.062 Y118.93 E.01687
G1 X83.07 Y94.938 E1.0685
G1 X83.07 Y95.473 E.01687
G1 X106.527 Y118.93 E1.04465
G1 X105.991 Y118.93 E.01687
G1 X83.07 Y96.009 E1.0208
M73 P25 R16
G1 X83.07 Y96.544 E.01687
M73 Q25 S16
G1 X105.456 Y118.93 E.99694
G1 X104.92 Y118.93 E.01687
G1 X83.07 Y97.08 E.97309
G1 X83.07 Y97.616 E.01687
G1 X104.384 Y118.93 E.94924
G1 X103.849 Y118.93 E.01687
G1 X83.07 Y98.151 E.92539
G1 X83.07 Y98.687 E.01687
G1 X103.313 Y118.93 E.90153
G1 X102.778 Y118.93 E.01687
G1 X83.07 Y99.222 E.87768
G1 X83.07 Y99.758 E.01687
M73 P25 R15
G1 X102.242 Y118.93 E.85383
G1 X101.707 Y118.93 E.01687
G1 X83.07 Y100.293 E.82998
G1 X83.07 Y100.829 E.01687
M73 P26 R15
M73 Q26 S15
G1 X101.171 Y118.93 E.80612
G1 X100.635 Y118.93 E.01687
G1 X83.07 Y101.365 E.78227
G1 X83.07 Y101.9 E.01687
G1 X100.1 Y118.93 E.75842
G1 X99.564 Y118.93 E.01687
G1 X83.07 Y102.436 E.73457
G1 X83.07 Y102.971 E.01687
G1 X99.029 Y118.93 E.71071
G1 X98.493 Y118.93 E.01687
G1 X83.07 Y103.507 E.68686
G1 X83.07 Y104.043 E.01687
G1 X97.957 Y118.93 E.66301
G1 X97.422 Y118.93 E.01687
G1 X83.07 Y104.578 E.63916
G1 X83.07 Y105.114 E.01687
G1 X96.886 Y118.93 E.6153
G1 X96.351 Y118.93 E.01687
G1 X83.07 Y105.649 E.59145
G1 X83.07 Y106.185 E.01687
G1 X95.815 Y118.93 E.5676
G1 X95.279 Y118.93 E.01687
M73 P27 R15
G1 X83.07 Y106.721 E.54375
M73 Q27 S15
G1 X83.07 Y107.256 E.01687
G1 X94.744 Y118.93 E.5199
G1 X94.208 Y118.93 E.01687
G1 X83.07 Y107.792 E.49604
G1 X83.07 Y108.327 E.01687
G1 X93.673 Y118.93 E.47219
G1 X93.137 Y118.93 E.01687
G1 X83.07 Y108.863 E.44834
G1 X83.07 Y109.399 E.01687
G1 X92.601 Y118.93 E.42449
G1 X92.066 Y118.93 E.01687
G1 X83.07 Y109.934 E.40063
G1 X83.07 Y110.47 E.01687
G1 X91.53 Y118.93 E.37678
G1 X90.995 Y118.93 E.01687
G1 X83.07 Y111.005 E.35293
G1 X83.07 Y111.541 E.01687
G1 X90.459 Y118.93 E.32908
G1 X89.923 Y118.93 E.01687
G1 X83.07 Y112.077 E.30522
G1 X83.07 Y112.612 E.01687
G1 X89.388 Y118.93 E.28137
G1 X88.852 Y118.93 E.01687
G1 X83.07 Y113.148 E.25752
G1 X83.07 Y113.683 E.01687
G1 X88.317 Y118.93 E.23367
G1 X87.781 Y118.93 E.01687
G1 X83.07 Y114.219 E.20981
G1 X83.07 Y114.754 E.01687
G1 X87.246 Y118.93 E.18596
G1 X86.71 Y118.93 E.01687
G1 X83.07 Y115.29 E.16211
G1 X83.07 Y115.826 E.01687
G1 X86.174 Y118.93 E.13826
G1 X85.639 Y118.93 E.01687
G1 X83.07 Y116.361 E.1144
G1 X83.07 Y116.897 E.01687
G1 X85.103 Y118.93 E.09055
G1 X84.568 Y118.93 E.01687
G1 X83.07 Y117.432 E.0667
G1 X83.07 Y117.968 E.01687
G1 X84.032 Y118.93 E.04285
G1 X83.496 Y118.93 E.01687
G1 X82.9 Y118.334 E.02655
M204 S1000
; stop printing object camera-stand.stl id:0 copy 0
M106 S84.15
;LAYER_CHANGE
;Z:0.5
;HEIGHT:0.3
;BEFORE_LAYER_CHANGE
G92 E0.0
;0.5


;WIPE_START
G1 F8640
G1 X83.496 Y118.93 E-.19468
G1 X84.032 Y118.93 E-.12367
G1 X83.07 Y117.968 E-.31417
G1 X83.07 Y117.432 E-.12367
G1 X83.082 Y117.444 E-.00381
;WIPE_END
G1 E-.04 F2100
G1 Z.6 F720
;AFTER_LAYER_CHANGE
;0.5
G1 X79.623 Y117.444 F10800
G1 Z.5 F720
G1 E.8 F2100
;TYPE:Skirt/Brim
;WIDTH:0.42
G1 F2700
G1 X79.623 Y90 E1.21728
G1 X80.015 Y88.693 E.06052
G1 X81.06 Y87.817 E.06052
G1 X82 Y87.623 E.04256
G1 X168 Y87.623 E3.81451
G1 X169.307 Y88.015 E.06052
M73 P28 R15
M73 Q28 S15
G1 X170.183 Y89.06 E.06052
G1 X170.377 Y90 E.04256
G1 X170.377 Y120 E1.33064
G1 X169.985 Y121.307 E.06052
G1 X168.94 Y122.183 E.06052
G1 X168 Y122.377 E.04256
G1 X82 Y122.377 E3.81451
G1 X80.693 Y121.985 E.06052
G1 X79.817 Y120.94 E.06052
G1 X79.623 Y120 E.04256
