; generated by PrusaSlicer 2.4.0+x64 on 2022-03-14 at 15:59:41 UTC

; 

; external perimeters extrusion width = 0.60mm
; perimeters extrusion width = 0.50mm
; infill extrusion width = 0.50mm
; solid infill extrusion width = 0.50mm
; top infill extrusion width = 0.45mm
; support material extrusion width = 0.38mm
; first layer extrusion width = 0.42mm

M73 P0 R118
M73 Q0 S119
M201 X1000 Y1000 Z200 E5000 ; sets maximum accelerations, mm/sec^2
M203 X200 Y200 Z12 E120 ; sets maximum feedrates, mm/sec
M204 P1250 R1250 T1250 ; sets acceleration (P, T) and retract acceleration (R), mm/sec^2
M205 X8.00 Y8.00 Z0.40 E4.50 ; sets the jerk limits, mm/sec
M205 S0 T0 ; sets the minimum extruding and travel feed rate, mm/sec
M107
;TYPE:Custom
M862.3 P "MK3S" ; printer model check
M862.1 P0.4 ; nozzle diameter check
M115 U3.10.0 ; tell printer latest fw version
G90 ; use absolute coordinates
M83 ; extruder relative mode
M104 S215 ; set extruder temp
M140 S60 ; set bed temp
M190 S60 ; wait for bed temp
M109 S215 ; wait for extruder temp
G28 W ; home all without mesh bed level
G80 ; mesh bed leveling
G1 Z0.2 F720
G1 Y-3 F1000 ; go outside print area
G92 E0
G1 X60 E9 F1000 ; intro line
G1 X100 E12.5 F1000 ; intro line
G92 E0
M221 S95

; Don't change E values below. Excessive value can damage the printer.

M907 E538 ; set extruder motor current
G21 ; set units to millimeters
G90 ; use absolute coordinates
M83 ; use relative distances for extrusion
M900 K0.05 ; Filament gcode LA 1.5
M900 K30 ; Filament gcode LA 1.0
M107
;LAYER_CHANGE
;Z:0.2
;HEIGHT:0.2
;BEFORE_LAYER_CHANGE
G92 E0.0
;0.2


G1 E-.8 F2100
G1 Z.4 F720
;AFTER_LAYER_CHANGE
;0.2
G1 X67.415 Y44.193 F10800
G1 Z.2 F720
G1 E.8 F2100
M204 S800
;TYPE:Skirt/Brim
;WIDTH:0.42
G1 F1200
G1 X68.46 Y43.317 E.04278
G1 X69.4 Y43.123 E.03008
G1 X180.6 Y43.123 E3.4866
G1 X181.907 Y43.515 E.04278
G1 X182.783 Y44.56 E.04278
G1 X182.977 Y45.5 E.03008
G1 X182.977 Y164.5 E3.73116
G1 X182.585 Y165.807 E.04278
M73 Q0 S118
G1 X181.54 Y166.683 E.04278
G1 X180.6 Y166.877 E.03008
G1 X69.4 Y166.877 E3.4866
G1 X68.093 Y166.485 E.04278
G1 X67.217 Y165.44 E.04278
G1 X67.023 Y164.5 E.03008
G1 X67.023 Y45.5 E3.73116
G1 X67.397 Y44.25 E.0409
M204 S1000
; printing object camera-stand.stl id:0 copy 0
;WIPE_START
G1 F8640
G1 X68.46 Y43.317 E-.32671
G1 X69.4 Y43.123 E-.22155
G1 X70.317 Y43.123 E-.21174
;WIPE_END
G1 E-.04 F2100
G1 Z.6 F720
G1 X70.587 Y46.287 F10800
G1 Z.2 F720
G1 E.8 F2100
M204 S800
;TYPE:Perimeter
G1 F1200
G1 X179.813 Y46.287 E3.4247
G1 X179.813 Y163.713 E3.6818
G1 X177.387 Y163.713 E.07606
G1 X177.387 Y78.713 E2.66512
G1 X172.213 Y78.713 E.16223
G1 X172.213 Y84.713 E.18813
G1 X161.213 Y84.713 E.3449
G1 X161.213 Y163.713 E2.47699
G1 X88.787 Y163.713 E2.27086
G1 X88.787 Y84.713 E2.47699
M73 P0 R117
G1 X77.787 Y84.713 E.3449
G1 X77.787 Y78.713 E.18813
G1 X72.613 Y78.713 E.16223
G1 X72.613 Y163.713 E2.66512
G1 X70.187 Y163.713 E.07606
G1 X70.187 Y46.287 E3.6818
G1 X70.527 Y46.287 E.01066
M204 S1000
G1 X69.81 Y45.91 F10800
M204 S800
;TYPE:External perimeter
G1 F1200
G1 X180.19 Y45.91 E3.46089
G1 X180.19 Y164.09 E3.70545
M73 P1 R117
M73 Q1 S117
G1 X177.01 Y164.09 E.09971
G1 X177.01 Y79.09 E2.66512
G1 X172.59 Y79.09 E.13859
G1 X172.59 Y85.09 E.18813
G1 X161.59 Y85.09 E.3449
G1 X161.59 Y164.09 E2.47699
G1 X88.41 Y164.09 E2.29451
G1 X88.41 Y85.09 E2.47699
G1 X77.41 Y85.09 E.3449
G1 X77.41 Y79.09 E.18813
G1 X72.99 Y79.09 E.13859
G1 X72.99 Y164.09 E2.66512
G1 X69.81 Y164.09 E.09971
G1 X69.81 Y45.97 E3.70357
M204 S1000
G1 X70.158 Y46.107 F10800
;WIPE_START
G1 F8640
G1 X73.101 Y45.968 E-.76
;WIPE_END
G1 E-.04 F2100
G1 Z.6 F720
G1 X179.7 Y47.163 F10800
G1 Z.2 F720
G1 E.8 F2100
M204 S800
;TYPE:Solid infill
;WIDTH:0.420056
G1 F1200
G1 X179.107 Y46.57 E.02629
G1 X178.574 Y46.57 E.01673
G1 X179.53 Y47.526 E.04241
G1 X179.53 Y48.06 E.01673
G1 X178.04 Y46.57 E.06607
G1 X177.507 Y46.57 E.01673
G1 X179.53 Y48.593 E.08972
G1 X179.53 Y49.126 E.01673
G1 X176.974 Y46.57 E.11337
G1 X176.44 Y46.57 E.01673
G1 X179.53 Y49.66 E.13703
G1 X179.53 Y50.193 E.01673
G1 X175.907 Y46.57 E.16068
G1 X175.374 Y46.57 E.01673
M73 P1 R116
G1 X179.53 Y50.726 E.18433
G1 X179.53 Y51.26 E.01673
G1 X174.84 Y46.57 E.20799
G1 X174.307 Y46.57 E.01673
G1 X179.53 Y51.793 E.23164
G1 X179.53 Y52.326 E.01673
G1 X173.774 Y46.57 E.25529
G1 X173.24 Y46.57 E.01673
G1 X179.53 Y52.86 E.27895
G1 X179.53 Y53.393 E.01673
G1 X172.707 Y46.57 E.3026
G1 X172.174 Y46.57 E.01673
G1 X179.53 Y53.926 E.32625
G1 X179.53 Y54.46 E.01673
G1 X171.64 Y46.57 E.34991
G1 X171.107 Y46.57 E.01673
G1 X179.53 Y54.993 E.37356
G1 X179.53 Y55.527 E.01673
G1 X170.573 Y46.57 E.39721
G1 X170.04 Y46.57 E.01673
G1 X179.53 Y56.06 E.42086
G1 X179.53 Y56.593 E.01673
G1 X169.507 Y46.57 E.44452
G1 X168.973 Y46.57 E.01673
G1 X179.53 Y57.127 E.46817
G1 X179.53 Y57.66 E.01673
G1 X168.44 Y46.57 E.49182
G1 X167.907 Y46.57 E.01673
G1 X179.53 Y58.193 E.51548
G1 X179.53 Y58.727 E.01673
G1 X167.373 Y46.57 E.53913
G1 X166.84 Y46.57 E.01673
G1 X179.53 Y59.26 E.56278
G1 X179.53 Y59.793 E.01673
G1 X166.307 Y46.57 E.58644
G1 X165.773 Y46.57 E.01673
G1 X179.53 Y60.327 E.61009
G1 X179.53 Y60.86 E.01673
G1 X165.24 Y46.57 E.63374
G1 X164.707 Y46.57 E.01673
G1 X179.53 Y61.393 E.6574
G1 X179.53 Y61.927 E.01673
G1 X164.173 Y46.57 E.68105
G1 X163.64 Y46.57 E.01673
G1 X179.53 Y62.46 E.7047
G1 X179.53 Y62.993 E.01673
G1 X163.107 Y46.57 E.72836
G1 X162.573 Y46.57 E.01673
G1 X179.53 Y63.527 E.75201
G1 X179.53 Y64.06 E.01673
M73 Q1 S116
G1 X162.04 Y46.57 E.77566
G1 X161.507 Y46.57 E.01673
G1 X179.53 Y64.593 E.79932
G1 X179.53 Y65.127 E.01673
G1 X160.973 Y46.57 E.82297
G1 X160.44 Y46.57 E.01673
G1 X179.53 Y65.66 E.84662
G1 X179.53 Y66.194 E.01673
G1 X159.906 Y46.57 E.87028
G1 X159.373 Y46.57 E.01673
G1 X179.53 Y66.727 E.89393
G1 X179.53 Y67.26 E.01673
G1 X158.84 Y46.57 E.91758
G1 X158.306 Y46.57 E.01673
M73 P2 R116
M73 Q2 S116
G1 X179.53 Y67.794 E.94124
G1 X179.53 Y68.327 E.01673
G1 X157.773 Y46.57 E.96489
G1 X157.24 Y46.57 E.01673
G1 X179.53 Y68.86 E.98854
G1 X179.53 Y69.394 E.01673
G1 X156.706 Y46.57 E1.01219
G1 X156.173 Y46.57 E.01673
G1 X179.53 Y69.927 E1.03585
G1 X179.53 Y70.46 E.01673
G1 X155.64 Y46.57 E1.0595
G1 X155.106 Y46.57 E.01673
G1 X179.53 Y70.994 E1.08315
G1 X179.53 Y71.527 E.01673
G1 X154.573 Y46.57 E1.10681
G1 X154.04 Y46.57 E.01673
G1 X179.53 Y72.06 E1.13046
G1 X179.53 Y72.594 E.01673
G1 X153.506 Y46.57 E1.15411
G1 X152.973 Y46.57 E.01673
G1 X179.53 Y73.127 E1.17777
G1 X179.53 Y73.66 E.01673
G1 X152.44 Y46.57 E1.20142
G1 X151.906 Y46.57 E.01673
G1 X179.53 Y74.194 E1.22507
G1 X179.53 Y74.727 E.01673
G1 X151.373 Y46.57 E1.24873
G1 X150.84 Y46.57 E.01673
G1 X179.53 Y75.26 E1.27238
G1 X179.53 Y75.794 E.01673
G1 X150.306 Y46.57 E1.29603
G1 X149.773 Y46.57 E.01673
G1 X179.53 Y76.327 E1.31969
G1 X179.53 Y76.861 E.01673
M73 P2 R115
G1 X149.239 Y46.57 E1.34334
G1 X148.706 Y46.57 E.01673
G1 X179.53 Y77.394 E1.36699
G1 X179.53 Y77.927 E.01673
G1 X148.173 Y46.57 E1.39065
G1 X147.639 Y46.57 E.01673
G1 X179.53 Y78.461 E1.4143
G1 X179.53 Y78.994 E.01673
G1 X147.106 Y46.57 E1.43795
G1 X146.573 Y46.57 E.01673
G1 X179.53 Y79.527 E1.46161
G1 X179.53 Y80.061 E.01673
G1 X146.039 Y46.57 E1.48526
G1 X145.506 Y46.57 E.01673
G1 X179.53 Y80.594 E1.50891
G1 X179.53 Y81.127 E.01673
G1 X177.67 Y79.267 E.0825
G1 X177.67 Y79.8 E.01673
M73 Q2 S115
G1 X179.53 Y81.661 E.0825
G1 X179.53 Y82.194 E.01673
G1 X177.67 Y80.334 E.0825
G1 X177.67 Y80.867 E.01673
G1 X179.53 Y82.727 E.0825
G1 X179.53 Y83.261 E.01673
G1 X177.67 Y81.401 E.0825
G1 X177.67 Y81.934 E.01673
G1 X179.53 Y83.794 E.0825
G1 X179.53 Y84.327 E.01673
G1 X177.67 Y82.467 E.0825
G1 X177.67 Y83.001 E.01673
G1 X179.53 Y84.861 E.0825
G1 X179.53 Y85.394 E.01673
G1 X177.67 Y83.534 E.0825
G1 X177.67 Y84.067 E.01673
G1 X179.53 Y85.928 E.0825
G1 X179.53 Y86.461 E.01673
G1 X177.67 Y84.601 E.0825
G1 X177.67 Y85.134 E.01673
G1 X179.53 Y86.994 E.0825
G1 X179.53 Y87.528 E.01673
G1 X177.67 Y85.667 E.0825
G1 X177.67 Y86.201 E.01673
G1 X179.53 Y88.061 E.0825
G1 X179.53 Y88.594 E.01673
G1 X177.67 Y86.734 E.0825
G1 X177.67 Y87.267 E.01673
G1 X179.53 Y89.128 E.0825
G1 X179.53 Y89.661 E.01673
G1 X177.67 Y87.801 E.0825
G1 X177.67 Y88.334 E.01673
G1 X179.53 Y90.194 E.0825
G1 X179.53 Y90.728 E.01673
G1 X177.67 Y88.867 E.0825
G1 X177.67 Y89.401 E.01673
G1 X179.53 Y91.261 E.0825
G1 X179.53 Y91.794 E.01673
G1 X177.67 Y89.934 E.0825
G1 X177.67 Y90.467 E.01673
G1 X179.53 Y92.328 E.0825
G1 X179.53 Y92.861 E.01673
G1 X177.67 Y91.001 E.0825
G1 X177.67 Y91.534 E.01673
G1 X179.53 Y93.394 E.0825
G1 X179.53 Y93.928 E.01673
G1 X177.67 Y92.068 E.0825
G1 X177.67 Y92.601 E.01673
G1 X179.53 Y94.461 E.0825
G1 X179.53 Y94.994 E.01673
G1 X177.67 Y93.134 E.0825
G1 X177.67 Y93.668 E.01673
G1 X179.53 Y95.528 E.0825
G1 X179.53 Y96.061 E.01673
G1 X177.67 Y94.201 E.0825
G1 X177.67 Y94.734 E.01673
G1 X179.53 Y96.595 E.0825
G1 X179.53 Y97.128 E.01673
G1 X177.67 Y95.268 E.0825
G1 X177.67 Y95.801 E.01673
G1 X179.53 Y97.661 E.0825
G1 X179.53 Y98.195 E.01673
G1 X177.67 Y96.334 E.0825
G1 X177.67 Y96.868 E.01673
G1 X179.53 Y98.728 E.0825
G1 X179.53 Y99.261 E.01673
G1 X177.67 Y97.401 E.0825
G1 X177.67 Y97.934 E.01673
G1 X179.53 Y99.795 E.0825
G1 X179.53 Y100.328 E.01673
G1 X177.67 Y98.468 E.0825
G1 X177.67 Y99.001 E.01673
G1 X179.53 Y100.861 E.0825
G1 X179.53 Y101.395 E.01673
G1 X177.67 Y99.534 E.0825
G1 X177.67 Y100.068 E.01673
G1 X179.53 Y101.928 E.0825
G1 X179.53 Y102.461 E.01673
G1 X177.67 Y100.601 E.0825
G1 X177.67 Y101.134 E.01673
G1 X179.53 Y102.995 E.0825
G1 X179.53 Y103.528 E.01673
G1 X177.67 Y101.668 E.0825
G1 X177.67 Y102.201 E.01673
G1 X179.53 Y104.061 E.0825
G1 X179.53 Y104.595 E.01673
G1 X177.67 Y102.735 E.0825
G1 X177.67 Y103.268 E.01673
G1 X179.53 Y105.128 E.0825
G1 X179.53 Y105.661 E.01673
G1 X177.67 Y103.801 E.0825
G1 X177.67 Y104.335 E.01673
G1 X179.53 Y106.195 E.0825
G1 X179.53 Y106.728 E.01673
G1 X177.67 Y104.868 E.0825
G1 X177.67 Y105.401 E.01673
G1 X179.53 Y107.262 E.0825
G1 X179.53 Y107.795 E.01673
G1 X177.67 Y105.935 E.0825
G1 X177.67 Y106.468 E.01673
G1 X179.53 Y108.328 E.0825
G1 X179.53 Y108.862 E.01673
G1 X177.67 Y107.001 E.0825
G1 X177.67 Y107.535 E.01673
G1 X179.53 Y109.395 E.0825
G1 X179.53 Y109.928 E.01673
G1 X177.67 Y108.068 E.0825
G1 X177.67 Y108.601 E.01673
G1 X179.53 Y110.462 E.0825
G1 X179.53 Y110.995 E.01673
G1 X177.67 Y109.135 E.0825
G1 X177.67 Y109.668 E.01673
G1 X179.53 Y111.528 E.0825
G1 X179.53 Y112.062 E.01673
G1 X177.67 Y110.201 E.0825
G1 X177.67 Y110.735 E.01673
G1 X179.53 Y112.595 E.0825
G1 X179.53 Y113.128 E.01673
G1 X177.67 Y111.268 E.0825
G1 X177.67 Y111.802 E.01673
G1 X179.53 Y113.662 E.0825
G1 X179.53 Y114.195 E.01673
G1 X177.67 Y112.335 E.0825
G1 X177.67 Y112.868 E.01673
G1 X179.53 Y114.728 E.0825
G1 X179.53 Y115.262 E.01673
G1 X177.67 Y113.402 E.0825
G1 X177.67 Y113.935 E.01673
G1 X179.53 Y115.795 E.0825
G1 X179.53 Y116.329 E.01673
G1 X177.67 Y114.468 E.0825
G1 X177.67 Y115.002 E.01673
G1 X179.53 Y116.862 E.0825
G1 X179.53 Y117.395 E.01673
G1 X177.67 Y115.535 E.0825
G1 X177.67 Y116.068 E.01673
G1 X179.53 Y117.929 E.0825
G1 X179.53 Y118.462 E.01673
G1 X177.67 Y116.602 E.0825
G1 X177.67 Y117.135 E.01673
G1 X179.53 Y118.995 E.0825
G1 X179.53 Y119.529 E.01673
G1 X177.67 Y117.668 E.0825
G1 X177.67 Y118.202 E.01673
G1 X179.53 Y120.062 E.0825
G1 X179.53 Y120.595 E.01673
G1 X177.67 Y118.735 E.0825
G1 X177.67 Y119.268 E.01673
G1 X179.53 Y121.129 E.0825
G1 X179.53 Y121.662 E.01673
G1 X177.67 Y119.802 E.0825
G1 X177.67 Y120.335 E.01673
G1 X179.53 Y122.195 E.0825
G1 X179.53 Y122.729 E.01673
G1 X177.67 Y120.868 E.0825
G1 X177.67 Y121.402 E.01673
G1 X179.53 Y123.262 E.0825
G1 X179.53 Y123.795 E.01673
G1 X177.67 Y121.935 E.0825
G1 X177.67 Y122.469 E.01673
G1 X179.53 Y124.329 E.0825
G1 X179.53 Y124.862 E.01673
G1 X177.67 Y123.002 E.0825
G1 X177.67 Y123.535 E.01673
G1 X179.53 Y125.395 E.0825
G1 X179.53 Y125.929 E.01673
G1 X177.67 Y124.069 E.0825
G1 X177.67 Y124.602 E.01673
G1 X179.53 Y126.462 E.0825
G1 X179.53 Y126.996 E.01673
G1 X177.67 Y125.135 E.0825
G1 X177.67 Y125.669 E.01673
G1 X179.53 Y127.529 E.0825
G1 X179.53 Y128.062 E.01673
G1 X177.67 Y126.202 E.0825
G1 X177.67 Y126.735 E.01673
G1 X179.53 Y128.596 E.0825
G1 X179.53 Y129.129 E.01673
G1 X177.67 Y127.269 E.0825
G1 X177.67 Y127.802 E.01673
G1 X179.53 Y129.662 E.0825
G1 X179.53 Y130.196 E.01673
G1 X177.67 Y128.335 E.0825
G1 X177.67 Y128.869 E.01673
G1 X179.53 Y130.729 E.0825
G1 X179.53 Y131.262 E.01673
G1 X177.67 Y129.402 E.0825
G1 X177.67 Y129.935 E.01673
G1 X179.53 Y131.796 E.0825
G1 X179.53 Y132.329 E.01673
G1 X177.67 Y130.469 E.0825
G1 X177.67 Y131.002 E.01673
G1 X179.53 Y132.862 E.0825
G1 X179.53 Y133.396 E.01673
G1 X177.67 Y131.535 E.0825
G1 X177.67 Y132.069 E.01673
G1 X179.53 Y133.929 E.0825
G1 X179.53 Y134.462 E.01673
G1 X177.67 Y132.602 E.0825
G1 X177.67 Y133.136 E.01673
G1 X179.53 Y134.996 E.0825
G1 X179.53 Y135.529 E.01673
G1 X177.67 Y133.669 E.0825
G1 X177.67 Y134.202 E.01673
G1 X179.53 Y136.062 E.0825
G1 X179.53 Y136.596 E.01673
G1 X177.67 Y134.736 E.0825
G1 X177.67 Y135.269 E.01673
G1 X179.53 Y137.129 E.0825
G1 X179.53 Y137.663 E.01673
G1 X177.67 Y135.802 E.0825
G1 X177.67 Y136.336 E.01673
G1 X179.53 Y138.196 E.0825
G1 X179.53 Y138.729 E.01673
G1 X177.67 Y136.869 E.0825
G1 X177.67 Y137.402 E.01673
G1 X179.53 Y139.263 E.0825
G1 X179.53 Y139.796 E.01673
G1 X177.67 Y137.936 E.0825
G1 X177.67 Y138.469 E.01673
G1 X179.53 Y140.329 E.0825
G1 X179.53 Y140.863 E.01673
G1 X177.67 Y139.002 E.0825
G1 X177.67 Y139.536 E.01673
G1 X179.53 Y141.396 E.0825
G1 X179.53 Y141.929 E.01673
G1 X177.67 Y140.069 E.0825
G1 X177.67 Y140.602 E.01673
G1 X179.53 Y142.463 E.0825
G1 X179.53 Y142.996 E.01673
G1 X177.67 Y141.136 E.0825
G1 X177.67 Y141.669 E.01673
G1 X179.53 Y143.529 E.0825
G1 X179.53 Y144.063 E.01673
G1 X177.67 Y142.203 E.0825
G1 X177.67 Y142.736 E.01673
G1 X179.53 Y144.596 E.0825
G1 X179.53 Y145.129 E.01673
G1 X177.67 Y143.269 E.0825
G1 X177.67 Y143.803 E.01673
G1 X179.53 Y145.663 E.0825
G1 X179.53 Y146.196 E.01673
G1 X177.67 Y144.336 E.0825
G1 X177.67 Y144.869 E.01673
G1 X179.53 Y146.73 E.0825
G1 X179.53 Y147.263 E.01673
G1 X177.67 Y145.403 E.0825
G1 X177.67 Y145.936 E.01673
M73 P3 R115
G1 X179.53 Y147.796 E.0825
M73 Q3 S115
G1 X179.53 Y148.33 E.01673
G1 X177.67 Y146.469 E.0825
G1 X177.67 Y147.003 E.01673
G1 X179.53 Y148.863 E.0825
G1 X179.53 Y149.396 E.01673
G1 X177.67 Y147.536 E.0825
G1 X177.67 Y148.069 E.01673
G1 X179.53 Y149.93 E.0825
G1 X179.53 Y150.463 E.01673
G1 X177.67 Y148.603 E.0825
G1 X177.67 Y149.136 E.01673
G1 X179.53 Y150.996 E.0825
G1 X179.53 Y151.53 E.01673
G1 X177.67 Y149.669 E.0825
G1 X177.67 Y150.203 E.01673
G1 X179.53 Y152.063 E.0825
G1 X179.53 Y152.596 E.01673
G1 X177.67 Y150.736 E.0825
G1 X177.67 Y151.269 E.01673
G1 X179.53 Y153.13 E.0825
G1 X179.53 Y153.663 E.01673
G1 X177.67 Y151.803 E.0825
G1 X177.67 Y152.336 E.01673
G1 X179.53 Y154.196 E.0825
G1 X179.53 Y154.73 E.01673
G1 X177.67 Y152.87 E.0825
G1 X177.67 Y153.403 E.01673
G1 X179.53 Y155.263 E.0825
G1 X179.53 Y155.796 E.01673
G1 X177.67 Y153.936 E.0825
G1 X177.67 Y154.47 E.01673
G1 X179.53 Y156.33 E.0825
G1 X179.53 Y156.863 E.01673
G1 X177.67 Y155.003 E.0825
G1 X177.67 Y155.536 E.01673
G1 X179.53 Y157.397 E.0825
G1 X179.53 Y157.93 E.01673
G1 X177.67 Y156.07 E.0825
G1 X177.67 Y156.603 E.01673
G1 X179.53 Y158.463 E.0825
G1 X179.53 Y158.997 E.01673
G1 X177.67 Y157.136 E.0825
G1 X177.67 Y157.67 E.01673
G1 X179.53 Y159.53 E.0825
G1 X179.53 Y160.063 E.01673
G1 X177.67 Y158.203 E.0825
G1 X177.67 Y158.736 E.01673
G1 X179.53 Y160.597 E.0825
G1 X179.53 Y161.13 E.01673
G1 X177.67 Y159.27 E.0825
G1 X177.67 Y159.803 E.01673
G1 X179.53 Y161.663 E.0825
G1 X179.53 Y162.197 E.01673
G1 X177.67 Y160.336 E.0825
G1 X177.67 Y160.87 E.01673
G1 X179.53 Y162.73 E.0825
G1 X179.53 Y163.263 E.01673
G1 X177.67 Y161.403 E.0825
G1 X177.67 Y161.936 E.01673
G1 X179.164 Y163.43 E.06624
G1 X178.63 Y163.43 E.01673
G1 X177.67 Y162.47 E.04259
G1 X177.67 Y163.003 E.01673
G1 X178.267 Y163.6 E.02646
M204 S1000
;WIPE_START
G1 F8640
G1 X177.67 Y163.003 E-.19482
G1 X177.67 Y162.47 E-.12315
G1 X178.63 Y163.43 E-.31358
G1 X179.164 Y163.43 E-.12315
G1 X179.147 Y163.414 E-.00529
;WIPE_END
