; generated by PrusaSlicer 2.4.1+x64 on 2022-03-18 at 13:30:03 UTC

; 

; external perimeters extrusion width = 0.60mm
; perimeters extrusion width = 0.50mm
; infill extrusion width = 0.50mm
; solid infill extrusion width = 0.50mm
; top infill extrusion width = 0.45mm
; first layer extrusion width = 0.42mm

M73 P0 R223
M73 Q0 S224
M201 X1000 Y1000 Z200 E5000 ; sets maximum accelerations, mm/sec^2
M203 X200 Y200 Z12 E120 ; sets maximum feedrates, mm / sec
M204 P1250 R1250 T1250 ; sets acceleration (P, T) and retract acceleration (R), mm/sec^2
M205 X8.00 Y8.00 Z0.40 E4.50 ; sets the jerk limits, mm/sec
M205 S0 T0 ; sets the minimum extruding and travel feed rate, mm/sec
M107
;TYPE:Custom
M862.3 P "MK3S" ; printer model check
M862.1 P0.4 ; nozzle diameter check
M115 U3.10.1 ; tell printer latest fw version
G90 ; use absolute coordinates
M83 ; extruder relative mode
M104 S215 ; set extruder temp
M140 S60 ; set bed temp
M190 S60 ; wait for bed temp
M109 S215 ; wait for extruder temp
G28 W ; home all without mesh bed level
G80 ; mesh bed leveling
G1 Z0.2 F720
G1 Y-3 F1000 ; go outside print area
G92 E0
G1 X60 E9 F1000 ; intro line
G1 X100 E12.5 F1000 ; intro line
G92 E0
M221 S95

; Don't change E values below. Excessive value can damage the printer.

M907 E538 ; set extruder motor current
G21 ; set units to millimeters
G90 ; use absolute coordinates
M83 ; use relative distances for extrusion
M900 K0.05 ; Filament gcode LA 1.5
M900 K30 ; Filament gcode LA 1.0
M107
;LAYER_CHANGE
;Z:0.2
;HEIGHT:0.2
;BEFORE_LAYER_CHANGE
G92 E0.0
;0.2


G1 E-.8 F2100
G1 Z.4 F720
;AFTER_LAYER_CHANGE
;0.2
G1 X68.46 Y82.817 F10800
G1 Z.2 F720
G1 E.8 F2100
M204 S800
;TYPE:Skirt/Brim
;WIDTH:0.42
G1 F1200
G1 X69.4 Y82.623 E.03008
G1 X180.6 Y82.623 E3.4866
G1 X181.907 Y83.015 E.04278
M73 Q0 S223
G1 X182.783 Y84.06 E.04278
G1 X182.977 Y85 E.03008
G1 X182.977 Y125 E1.25417
G1 X182.585 Y126.307 E.04278
G1 X181.54 Y127.183 E.04278
G1 X180.6 Y127.377 E.03008
G1 X69.4 Y127.377 E3.4866
G1 X68.093 Y126.985 E.04278
G1 X67.217 Y125.94 E.04278
G1 X67.023 Y125 E.03008
G1 X67.023 Y85 E1.25417
G1 X67.415 Y83.693 E.04278
G1 X68.414 Y82.855 E.0409
M204 S1000
; printing object camera-stand.stl id:0 copy 0
;WIPE_START
G1 F8640
G1 X69.4 Y82.623 E-.23384
G1 X71.679 Y82.623 E-.52616
;WIPE_END
G1 E-.04 F2100
G1 Z.6 F720
G1 X70.187 Y85.787 F10800
G1 Z.2 F720
G1 E.8 F2100
M204 S800
;TYPE:Perimeter
G1 F1200
G1 X88.613 Y85.787 E.57773
G1 X88.613 Y95.939 E.3183
G1 X87.179 Y96.98 E.05557
G1 X85.67 Y98.657 E.07073
G1 X84.542 Y100.611 E.07074
G1 X83.844 Y102.756 E.07074
G1 X83.609 Y105 E.07074
G1 X83.844 Y107.244 E.07074
G1 X84.542 Y109.389 E.07074
G1 X85.67 Y111.343 E.07074
G1 X87.179 Y113.02 E.07074
G1 X89.004 Y114.346 E.07074
G1 X91.065 Y115.263 E.07074
G1 X93.272 Y115.732 E.07074
G1 X95.528 Y115.732 E.07074
G1 X97.735 Y115.263 E.07074
G1 X99.796 Y114.346 E.07074
G1 X101.621 Y113.02 E.07074
G1 X103.13 Y111.343 E.07074
G1 X104.258 Y109.389 E.07074
G1 X104.956 Y107.244 E.07074
G1 X105.191 Y105 E.07074
G1 X104.956 Y102.756 E.07074
G1 X104.258 Y100.611 E.07074
G1 X103.13 Y98.657 E.07074
G1 X101.621 Y96.98 E.07073
G1 X100.187 Y95.939 E.05557
G1 X100.187 Y85.787 E.3183
G1 X179.813 Y85.787 E2.49661
G1 X179.813 Y124.213 E1.20482
G1 X70.187 Y124.213 E3.43724
M73 P0 R222
G1 X70.187 Y85.847 E1.20293
M204 S1000
G1 X69.81 Y85.41 F10800
M204 S800
;TYPE:External perimeter
G1 F1200
G1 X88.99 Y85.41 E.60138
G1 X88.99 Y96.131 E.33614
G1 X87.433 Y97.262 E.06035
G1 X85.976 Y98.88 E.06825
G1 X84.888 Y100.765 E.06825
G1 X84.215 Y102.835 E.06825
G1 X83.988 Y105 E.06825
G1 X84.215 Y107.165 E.06825
G1 X84.888 Y109.235 E.06825
G1 X85.976 Y111.12 E.06825
G1 X87.433 Y112.738 E.06825
G1 X89.194 Y114.017 E.06825
G1 X91.182 Y114.903 E.06825
G1 X93.312 Y115.355 E.06825
G1 X95.488 Y115.355 E.06825
G1 X97.618 Y114.903 E.06825
G1 X99.606 Y114.017 E.06825
G1 X101.367 Y112.738 E.06825
G1 X102.824 Y111.12 E.06825
G1 X103.912 Y109.235 E.06825
G1 X104.585 Y107.165 E.06825
G1 X104.812 Y105 E.06825
G1 X104.585 Y102.835 E.06825
G1 X103.912 Y100.765 E.06825
G1 X102.824 Y98.88 E.06825
G1 X101.367 Y97.262 E.06825
G1 X99.81 Y96.131 E.06035
G1 X99.81 Y85.41 E.33614
G1 X180.19 Y85.41 E2.52026
G1 X180.19 Y124.59 E1.22846
G1 X69.81 Y124.59 E3.46089
G1 X69.81 Y85.47 E1.22658
M204 S1000
G1 X70.207 Y85.455 F10800
;WIPE_START
G1 F8640
G1 X73.101 Y85.46 E-.76
;WIPE_END
G1 E-.04 F2100
G1 Z.6 F720
G1 X178.935 Y85.9 F10800
G1 Z.2 F720
G1 E.8 F2100
M204 S800
;TYPE:Solid infill
;WIDTH:0.421259
G1 F1200
G1 X179.53 Y86.495 E.02648
G1 X179.53 Y87.03 E.01683
G1 X178.57 Y86.07 E.04274
G1 X178.034 Y86.07 E.01683
G1 X179.53 Y87.566 E.06654
G1 X179.53 Y88.101 E.01683
G1 X177.499 Y86.07 E.09035
G1 X176.964 Y86.07 E.01683
G1 X179.53 Y88.636 E.11415
G1 X179.53 Y89.171 E.01683
G1 X176.429 Y86.07 E.13796
G1 X175.894 Y86.07 E.01683
G1 X179.53 Y89.706 E.16176
G1 X179.53 Y90.241 E.01683
G1 X175.359 Y86.07 E.18556
G1 X174.824 Y86.07 E.01683
G1 X179.53 Y90.776 E.20937
G1 X179.53 Y91.311 E.01683
G1 X174.289 Y86.07 E.23317
G1 X173.754 Y86.07 E.01683
G1 X179.53 Y91.846 E.25698
G1 X179.53 Y92.381 E.01683
G1 X173.219 Y86.07 E.28078
G1 X172.684 Y86.07 E.01683
G1 X179.53 Y92.916 E.30459
G1 X179.53 Y93.451 E.01683
G1 X172.149 Y86.07 E.32839
G1 X171.614 Y86.07 E.01683
G1 X179.53 Y93.986 E.35219
G1 X179.53 Y94.521 E.01683
G1 X171.079 Y86.07 E.376
G1 X170.544 Y86.07 E.01683
G1 X179.53 Y95.056 E.3998
G1 X179.53 Y95.591 E.01683
G1 X170.009 Y86.07 E.42361
G1 X169.474 Y86.07 E.01683
G1 X179.53 Y96.126 E.44741
G1 X179.53 Y96.661 E.01683
M73 Q0 S222
G1 X168.939 Y86.07 E.47122
G1 X168.404 Y86.07 E.01683
G1 X179.53 Y97.196 E.49502
G1 X179.53 Y97.732 E.01683
G1 X167.868 Y86.07 E.51882
G1 X167.333 Y86.07 E.01683
G1 X179.53 Y98.267 E.54263
G1 X179.53 Y98.802 E.01683
G1 X166.798 Y86.07 E.56643
G1 X166.263 Y86.07 E.01683
G1 X179.53 Y99.337 E.59024
G1 X179.53 Y99.872 E.01683
G1 X165.728 Y86.07 E.61404
G1 X165.193 Y86.07 E.01683
G1 X179.53 Y100.407 E.63785
G1 X179.53 Y100.942 E.01683
G1 X164.658 Y86.07 E.66165
G1 X164.123 Y86.07 E.01683
G1 X179.53 Y101.477 E.68546
G1 X179.53 Y102.012 E.01683
G1 X163.588 Y86.07 E.70926
G1 X163.053 Y86.07 E.01683
G1 X179.53 Y102.547 E.73306
G1 X179.53 Y103.082 E.01683
G1 X162.518 Y86.07 E.75687
G1 X161.983 Y86.07 E.01683
G1 X179.53 Y103.617 E.78067
G1 X179.53 Y104.152 E.01683
G1 X161.448 Y86.07 E.80448
G1 X160.913 Y86.07 E.01683
G1 X179.53 Y104.687 E.82828
G1 X179.53 Y105.222 E.01683
G1 X160.378 Y86.07 E.85209
G1 X159.843 Y86.07 E.01683
G1 X179.53 Y105.757 E.87589
G1 X179.53 Y106.292 E.01683
G1 X159.308 Y86.07 E.89969
G1 X158.773 Y86.07 E.01683
G1 X179.53 Y106.827 E.9235
G1 X179.53 Y107.362 E.01683
G1 X158.238 Y86.07 E.9473
G1 X157.702 Y86.07 E.01683
M73 P0 R221
G1 X179.53 Y107.898 E.97111
G1 X179.53 Y108.433 E.01683
G1 X157.167 Y86.07 E.99491
G1 X156.632 Y86.07 E.01683
G1 X179.53 Y108.968 E1.01872
G1 X179.53 Y109.503 E.01683
G1 X156.097 Y86.07 E1.04252
G1 X155.562 Y86.07 E.01683
G1 X179.53 Y110.038 E1.06632
G1 X179.53 Y110.573 E.01683
G1 X155.027 Y86.07 E1.09013
G1 X154.492 Y86.07 E.01683
G1 X179.53 Y111.108 E1.11393
G1 X179.53 Y111.643 E.01683
G1 X153.957 Y86.07 E1.13774
G1 X153.422 Y86.07 E.01683
G1 X179.53 Y112.178 E1.16154
G1 X179.53 Y112.713 E.01683
G1 X152.887 Y86.07 E1.18535
G1 X152.352 Y86.07 E.01683
G1 X179.53 Y113.248 E1.20915
G1 X179.53 Y113.783 E.01683
G1 X151.817 Y86.07 E1.23296
G1 X151.282 Y86.07 E.01683
G1 X179.53 Y114.318 E1.25676
G1 X179.53 Y114.853 E.01683
G1 X150.747 Y86.07 E1.28056
G1 X150.212 Y86.07 E.01683
G1 X179.53 Y115.388 E1.30437
G1 X179.53 Y115.923 E.01683
G1 X149.677 Y86.07 E1.32817
G1 X149.142 Y86.07 E.01683
G1 X179.53 Y116.458 E1.35198
G1 X179.53 Y116.993 E.01683
G1 X148.607 Y86.07 E1.37578
G1 X148.072 Y86.07 E.01683
G1 X179.53 Y117.528 E1.39959
G1 X179.53 Y118.064 E.01683
M73 Q0 S221
G1 X147.536 Y86.07 E1.42339
G1 X147.001 Y86.07 E.01683
G1 X179.53 Y118.599 E1.44719
G1 X179.53 Y119.134 E.01683
M73 P1 R221
M73 Q1 S221
G1 X146.466 Y86.07 E1.471
G1 X145.931 Y86.07 E.01683
G1 X179.53 Y119.669 E1.4948
G1 X179.53 Y120.204 E.01683
G1 X145.396 Y86.07 E1.51861
G1 X144.861 Y86.07 E.01683
G1 X179.53 Y120.739 E1.54241
G1 X179.53 Y121.274 E.01683
G1 X144.326 Y86.07 E1.56622
G1 X143.791 Y86.07 E.01683
G1 X179.53 Y121.809 E1.59002
G1 X179.53 Y122.344 E.01683
G1 X143.256 Y86.07 E1.61382
G1 X142.721 Y86.07 E.01683
G1 X179.53 Y122.879 E1.63763
G1 X179.53 Y123.414 E.01683
M73 P1 R220
G1 X142.186 Y86.07 E1.66143
G1 X141.651 Y86.07 E.01683
G1 X179.511 Y123.93 E1.68439
G1 X178.976 Y123.93 E.01683
G1 X141.116 Y86.07 E1.68439
G1 X140.581 Y86.07 E.01683
G1 X178.441 Y123.93 E1.68439
G1 X177.906 Y123.93 E.01683
G1 X140.046 Y86.07 E1.68439
G1 X139.511 Y86.07 E.01683
G1 X177.371 Y123.93 E1.68439
G1 X176.836 Y123.93 E.01683
G1 X138.976 Y86.07 E1.68439
G1 X138.441 Y86.07 E.01683
G1 X176.301 Y123.93 E1.68439
G1 X175.766 Y123.93 E.01683
G1 X137.906 Y86.07 E1.68439
G1 X137.37 Y86.07 E.01683
G1 X175.231 Y123.93 E1.68439
G1 X174.696 Y123.93 E.01683
G1 X136.835 Y86.07 E1.68439
G1 X136.3 Y86.07 E.01683
G1 X174.161 Y123.93 E1.68439
G1 X173.626 Y123.93 E.01683
G1 X135.765 Y86.07 E1.68439
G1 X135.23 Y86.07 E.01683
M73 Q1 S220
G1 X173.091 Y123.93 E1.68439
G1 X172.555 Y123.93 E.01683
G1 X134.695 Y86.07 E1.68439
G1 X134.16 Y86.07 E.01683
G1 X172.02 Y123.93 E1.68439
G1 X171.485 Y123.93 E.01683
G1 X133.625 Y86.07 E1.68439
G1 X133.09 Y86.07 E.01683
G1 X170.95 Y123.93 E1.68439
G1 X170.415 Y123.93 E.01683
G1 X132.555 Y86.07 E1.68439
G1 X132.02 Y86.07 E.01683
G1 X169.88 Y123.93 E1.68439
G1 X169.345 Y123.93 E.01683
G1 X131.485 Y86.07 E1.68439
G1 X130.95 Y86.07 E.01683
G1 X168.81 Y123.93 E1.68439
G1 X168.275 Y123.93 E.01683
M73 P1 R219
G1 X130.415 Y86.07 E1.68439
G1 X129.88 Y86.07 E.01683
G1 X167.74 Y123.93 E1.68439
G1 X167.205 Y123.93 E.01683
G1 X129.345 Y86.07 E1.68439
G1 X128.81 Y86.07 E.01683
G1 X166.67 Y123.93 E1.68439
G1 X166.135 Y123.93 E.01683
G1 X128.275 Y86.07 E1.68439
G1 X127.74 Y86.07 E.01683
G1 X165.6 Y123.93 E1.68439
G1 X165.065 Y123.93 E.01683
G1 X127.204 Y86.07 E1.68439
G1 X126.669 Y86.07 E.01683
G1 X164.53 Y123.93 E1.68439
G1 X163.995 Y123.93 E.01683
G1 X126.134 Y86.07 E1.68439
G1 X125.599 Y86.07 E.01683
G1 X163.46 Y123.93 E1.68439
G1 X162.925 Y123.93 E.01683
G1 X125.064 Y86.07 E1.68439
G1 X124.529 Y86.07 E.01683
G1 X162.389 Y123.93 E1.68439
G1 X161.854 Y123.93 E.01683
G1 X123.994 Y86.07 E1.68439
G1 X123.459 Y86.07 E.01683
M73 Q1 S219
G1 X161.319 Y123.93 E1.68439
G1 X160.784 Y123.93 E.01683
G1 X122.924 Y86.07 E1.68439
G1 X122.389 Y86.07 E.01683
G1 X160.249 Y123.93 E1.68439
G1 X159.714 Y123.93 E.01683
G1 X121.854 Y86.07 E1.68439
G1 X121.319 Y86.07 E.01683
G1 X159.179 Y123.93 E1.68439
G1 X158.644 Y123.93 E.01683
G1 X120.784 Y86.07 E1.68439
G1 X120.249 Y86.07 E.01683
G1 X158.109 Y123.93 E1.68439
G1 X157.574 Y123.93 E.01683
M73 P2 R219
M73 Q2 S219
G1 X119.714 Y86.07 E1.68439
G1 X119.179 Y86.07 E.01683
G1 X157.039 Y123.93 E1.68439
G1 X156.504 Y123.93 E.01683
M73 P2 R218
G1 X118.644 Y86.07 E1.68439
G1 X118.109 Y86.07 E.01683
G1 X155.969 Y123.93 E1.68439
G1 X155.434 Y123.93 E.01683
G1 X117.574 Y86.07 E1.68439
G1 X117.039 Y86.07 E.01683
G1 X154.899 Y123.93 E1.68439
G1 X154.364 Y123.93 E.01683
G1 X116.503 Y86.07 E1.68439
G1 X115.968 Y86.07 E.01683
G1 X153.829 Y123.93 E1.68439
G1 X153.294 Y123.93 E.01683
G1 X115.433 Y86.07 E1.68439
G1 X114.898 Y86.07 E.01683
G1 X152.759 Y123.93 E1.68439
G1 X152.223 Y123.93 E.01683
G1 X114.363 Y86.07 E1.68439
G1 X113.828 Y86.07 E.01683
G1 X151.688 Y123.93 E1.68439
G1 X151.153 Y123.93 E.01683
G1 X113.293 Y86.07 E1.68439
G1 X112.758 Y86.07 E.01683
G1 X150.618 Y123.93 E1.68439
G1 X150.083 Y123.93 E.01683
G1 X112.223 Y86.07 E1.68439
G1 X111.688 Y86.07 E.01683
M73 Q2 S218
G1 X149.548 Y123.93 E1.68439
G1 X149.013 Y123.93 E.01683
G1 X111.153 Y86.07 E1.68439
G1 X110.618 Y86.07 E.01683
G1 X148.478 Y123.93 E1.68439
G1 X147.943 Y123.93 E.01683
G1 X110.083 Y86.07 E1.68439
G1 X109.548 Y86.07 E.01683
G1 X147.408 Y123.93 E1.68439
G1 X146.873 Y123.93 E.01683
G1 X109.013 Y86.07 E1.68439
G1 X108.478 Y86.07 E.01683
G1 X146.338 Y123.93 E1.68439
G1 X145.803 Y123.93 E.01683
G1 X107.943 Y86.07 E1.68439
G1 X107.408 Y86.07 E.01683
G1 X145.268 Y123.93 E1.68439
G1 X144.733 Y123.93 E.01683
M73 P2 R217
G1 X106.873 Y86.07 E1.68439
G1 X106.337 Y86.07 E.01683
G1 X144.198 Y123.93 E1.68439
G1 X143.663 Y123.93 E.01683
G1 X105.802 Y86.07 E1.68439
G1 X105.267 Y86.07 E.01683
G1 X143.128 Y123.93 E1.68439
G1 X142.593 Y123.93 E.01683
G1 X104.732 Y86.07 E1.68439
G1 X104.197 Y86.07 E.01683
G1 X142.058 Y123.93 E1.68439
G1 X141.522 Y123.93 E.01683
G1 X103.662 Y86.07 E1.68439
G1 X103.127 Y86.07 E.01683
G1 X140.987 Y123.93 E1.68439
G1 X140.452 Y123.93 E.01683
G1 X102.592 Y86.07 E1.68439
G1 X102.057 Y86.07 E.01683
G1 X139.917 Y123.93 E1.68439
G1 X139.382 Y123.93 E.01683
G1 X101.522 Y86.07 E1.68439
G1 X100.987 Y86.07 E.01683
G1 X138.847 Y123.93 E1.68439
G1 X138.312 Y123.93 E.01683
G1 X100.47 Y86.088 E1.68359
G1 X100.47 Y86.623 E.01683
M73 Q2 S217
G1 X137.777 Y123.93 E1.65979
G1 X137.242 Y123.93 E.01683
G1 X100.47 Y87.158 E1.63598
G1 X100.47 Y87.693 E.01683
G1 X136.707 Y123.93 E1.61218
G1 X136.172 Y123.93 E.01683
G1 X100.47 Y88.228 E1.58838
G1 X100.47 Y88.763 E.01683
G1 X135.637 Y123.93 E1.56457
G1 X135.102 Y123.93 E.01683
G1 X100.47 Y89.298 E1.54077
G1 X100.47 Y89.833 E.01683
G1 X134.567 Y123.93 E1.51696
G1 X134.032 Y123.93 E.01683
G1 X100.47 Y90.368 E1.49316
G1 X100.47 Y90.903 E.01683
G1 X133.497 Y123.93 E1.46935
G1 X132.962 Y123.93 E.01683
G1 X100.47 Y91.438 E1.44555
G1 X100.47 Y91.973 E.01683
M73 P2 R216
G1 X132.427 Y123.93 E1.42175
G1 X131.892 Y123.93 E.01683
G1 X100.47 Y92.508 E1.39794
G1 X100.47 Y93.044 E.01683
G1 X131.356 Y123.93 E1.37414
G1 X130.821 Y123.93 E.01683
G1 X100.47 Y93.579 E1.35033
G1 X100.47 Y94.114 E.01683
M73 P3 R216
M73 Q3 S217
G1 X130.286 Y123.93 E1.32653
G1 X129.751 Y123.93 E.01683
G1 X100.47 Y94.649 E1.30272
G1 X100.47 Y95.184 E.01683
G1 X129.216 Y123.93 E1.27892
G1 X128.681 Y123.93 E.01683
G1 X103.524 Y98.773 E1.11924
G1 X103.361 Y98.49 E.01029
G1 X101.811 Y96.769 E.07284
G1 X100.747 Y95.996 E.04138
G1 X100.3 Y95.549 E.01988
M204 S1000
;WIPE_START
G1 F8640
G1 X100.747 Y95.996 E-.14594
G1 X101.811 Y96.769 E-.30369
G1 X102.711 Y97.768 E-.31037
;WIPE_END
G1 E-.04 F2100
G1 Z.6 F720
G1 X103.791 Y99.575 F10800
G1 Z.2 F720
G1 E.8 F2100
M204 S800
G1 F1200
G1 X128.146 Y123.93 E1.08354
G1 X127.611 Y123.93 E.01683
G1 X104.683 Y101.002 E1.02007
G1 X104.94 Y101.795 E.02622
G1 X127.076 Y123.93 E.98481
G1 X126.541 Y123.93 E.01683
G1 X105.198 Y102.587 E.94954
G1 X105.234 Y102.697 E.00364
G1 X105.288 Y103.212 E.01629
G1 X126.006 Y123.93 E.92174
G1 X125.471 Y123.93 E.01683
G1 X105.351 Y103.81 E.89514
G1 X105.414 Y104.408 E.01891
G1 X124.936 Y123.93 E.86854
G1 X124.401 Y123.93 E.01683
G1 X105.475 Y105.005 E.84199
G1 X105.424 Y105.489 E.01532
G1 X123.866 Y123.93 E.82045
G1 X123.331 Y123.93 E.01683
G1 X105.374 Y105.973 E.79891
G1 X105.323 Y106.457 E.01532
G1 X122.796 Y123.93 E.77737
G1 X122.261 Y123.93 E.01683
M73 Q3 S216
G1 X105.272 Y106.941 E.75583
G1 X105.234 Y107.303 E.01143
G1 X105.201 Y107.405 E.00339
G1 X121.726 Y123.93 E.73519
G1 X121.19 Y123.93 E.01683
G1 X105.069 Y107.809 E.71723
G1 X104.938 Y108.213 E.01336
G1 X120.655 Y123.93 E.69926
G1 X120.12 Y123.93 E.01683
G1 X104.807 Y108.617 E.68129
G1 X104.676 Y109.02 E.01336
G1 X119.585 Y123.93 E.66333
G1 X119.05 Y123.93 E.01683
G1 X104.544 Y109.424 E.64536
G1 X104.518 Y109.505 E.00267
G1 X104.362 Y109.776 E.00986
G1 X118.515 Y123.93 E.62969
G1 X117.98 Y123.93 E.01683
G1 X104.166 Y110.116 E.6146
G1 X103.97 Y110.455 E.01232
G1 X117.445 Y123.93 E.59951
G1 X116.91 Y123.93 E.01683
G1 X103.774 Y110.794 E.58442
G1 X103.578 Y111.133 E.01232
G1 X116.375 Y123.93 E.56933
G1 X115.84 Y123.93 E.01683
G1 X103.382 Y111.472 E.55424
G1 X103.135 Y111.76 E.01194
G1 X115.305 Y123.93 E.54143
G1 X114.77 Y123.93 E.01683
G1 X102.882 Y112.042 E.5289
G1 X102.628 Y112.324 E.01192
G1 X114.235 Y123.93 E.51638
G1 X113.7 Y123.93 E.01683
G1 X102.375 Y112.605 E.50385
G1 X102.121 Y112.887 E.01192
G1 X113.165 Y123.93 E.49132
G1 X112.63 Y123.93 E.01683
G1 X101.868 Y113.168 E.4788
G1 X101.811 Y113.231 E.00266
