; generated by PrusaSlicer 2.4.0+x64 on 2022-03-13 at 19:03:57 UTC

; 

; external perimeters extrusion width = 0.60mm
; perimeters extrusion width = 0.50mm
; infill extrusion width = 0.50mm
; solid infill extrusion width = 0.50mm
; top infill extrusion width = 0.45mm
; first layer extrusion width = 0.42mm

M73 P0 R67
M73 Q0 S67
M201 X1000 Y1000 Z200 E5000 ; sets maximum accelerations, mm/sec^2
M203 X200 Y200 Z12 E120 ; sets maximum feedrates, mm/sec
M204 P1250 R1250 T1250 ; sets acceleration (P, T) and retract acceleration (R), mm/sec^2
M205 X8.00 Y8.00 Z0.40 E4.50 ; sets the jerk limits, mm/sec
M205 S0 T0 ; sets the minimum extruding and travel feed rate, mm/sec
M107
;TYPE:Custom
M862.3 P "MK3S" ; printer model check
M862.1 P0.4 ; nozzle diameter check
M115 U3.10.0 ; tell printer latest fw version
G90 ; use absolute coordinates
M83 ; extruder relative mode
M104 S215 ; set extruder temp
M140 S60 ; set bed temp
M190 S60 ; wait for bed temp
M109 S215 ; wait for extruder temp
G28 W ; home all without mesh bed level
G80 ; mesh bed leveling
G1 Z0.2 F720
G1 Y-3 F1000 ; go outside print area
G92 E0
G1 X60 E9 F1000 ; intro line
G1 X100 E12.5 F1000 ; intro line
G92 E0
M221 S95

; Don't change E values below. Excessive value can damage the printer.

M907 E538 ; set extruder motor current
G21 ; set units to millimeters
G90 ; use absolute coordinates
M83 ; use relative distances for extrusion
M900 K0.05 ; Filament gcode LA 1.5
M900 K30 ; Filament gcode LA 1.0
M107
;LAYER_CHANGE
;Z:0.2
;HEIGHT:0.2
;BEFORE_LAYER_CHANGE
G92 E0.0
;0.2


G1 E-.8 F2100
G1 Z.4 F720
;AFTER_LAYER_CHANGE
;0.2
G1 X65.907 Y93.419 F10800
G1 Z.2 F720
G1 E.8 F2100
M204 S800
;TYPE:Skirt/Brim
;WIDTH:0.42
G1 F1200
G1 X67.588 Y92.723 E.05704
G1 X182.412 Y92.723 E3.60026
G1 X184.093 Y93.419 E.05704
M73 P0 R66
G1 X187.081 Y96.407 E.13247
G1 X187.777 Y98.088 E.05704
G1 X187.777 Y111.912 E.43347
G1 X187.081 Y113.593 E.05704
G1 X184.093 Y116.581 E.13247
G1 X182.412 Y117.277 E.05704
G1 X67.588 Y117.277 E3.60026
G1 X65.907 Y116.581 E.05704
G1 X62.919 Y113.593 E.13247
G1 X62.223 Y111.912 E.05704
G1 X62.223 Y98.088 E.43347
G1 X62.919 Y96.407 E.05704
G1 X65.864 Y93.462 E.13059
M204 S1000
;WIPE_START
G1 F8640
G1 X67.588 Y92.723 E-.43292
G1 X69.004 Y92.723 E-.32708
;WIPE_END
G1 E-.04 F2100
G1 Z.6 F720
G1 X67.465 Y95.919 F10800
G1 Z.2 F720
G1 E.8 F2100
M204 S800
G1 F1200
G1 X69.254 Y95.387 E.05853
G1 X180.689 Y95.39 E3.49398
G1 X181.709 Y95.584 E.03256
G1 X182.688 Y96 E.03333
G1 X183.812 Y96.896 E.04508
G1 X184.705 Y98.234 E.05044
G1 X185.114 Y99.784 E.05028
G1 X185.043 Y110.7 E.34226
G1 X184.61 Y111.972 E.04212
G1 X183.953 Y112.948 E.03688
G1 X183.302 Y113.572 E.0283
G1 X182.535 Y114.081 E.02884
G1 X180.746 Y114.613 E.05853
G1 X69.28 Y114.613 E3.49494
G1 X67.795 Y114.233 E.04806
M73 Q0 S66
G1 X66.459 Y113.375 E.04979
G1 X65.926 Y112.799 E.02461
G1 X65.497 Y112.195 E.02321
G1 X64.886 Y110.241 E.06422
G1 X64.957 Y99.3 E.34305
G1 X65.39 Y98.028 E.04212
G1 X66.047 Y97.052 E.03688
G1 X66.698 Y96.428 E.0283
G1 X67.415 Y95.952 E.02696
M204 S1000
G1 X67.602 Y96.272 F10800
M204 S800
G1 F1200
G1 X69.282 Y95.764 E.05504
G1 X180.671 Y95.767 E3.49252
G1 X181.617 Y95.95 E.03023
M73 P1 R66
M73 Q1 S66
G1 X182.515 Y96.336 E.03062
G1 X183.553 Y97.171 E.0418
G1 X184.349 Y98.362 E.0449
G1 X184.737 Y99.808 E.04695
G1 X184.676 Y110.609 E.33867
G1 X184.282 Y111.783 E.0388
G1 X183.652 Y112.72 E.03541
G1 X183.053 Y113.288 E.02588
G1 X182.398 Y113.728 E.02475
G1 X180.718 Y114.236 E.05504
G1 X69.305 Y114.236 E3.49329
G1 X67.92 Y113.876 E.04486
G1 X66.72 Y113.101 E.04479
G1 X66.211 Y112.552 E.02347
G1 X65.823 Y112.002 E.02111
G1 X65.263 Y110.214 E.05876
G1 X65.324 Y99.391 E.33935
G1 X65.718 Y98.217 E.0388
G1 X66.348 Y97.28 E.03541
G1 X66.947 Y96.712 E.02588
G1 X67.552 Y96.305 E.02287
M204 S1000
G1 X67.741 Y96.623 F10800
M204 S800
G1 F1200
G1 X69.311 Y96.141 E.05149
G1 X180.652 Y96.144 E3.49104
G1 X181.524 Y96.316 E.02786
G1 X182.34 Y96.671 E.02791
G1 X183.293 Y97.445 E.03848
G1 X184.017 Y98.543 E.04126
G1 X184.359 Y99.831 E.04178
G1 X184.308 Y110.52 E.33515
G1 X183.955 Y111.594 E.03545
G1 X183.351 Y112.491 E.0339
G1 X182.806 Y113.003 E.02346
G1 X182.259 Y113.377 E.02076
G1 X180.69 Y113.859 E.05149
G1 X69.328 Y113.859 E3.49165
G1 X68.097 Y113.542 E.03986
G1 X66.98 Y112.827 E.0416
G1 X66.496 Y112.305 E.0223
G1 X66.148 Y111.81 E.019
G1 X65.64 Y110.186 E.05333
G1 X65.692 Y99.48 E.33569
G1 X66.045 Y98.406 E.03545
G1 X66.649 Y97.509 E.0339
G1 X67.194 Y96.997 E.02346
G1 X67.691 Y96.657 E.01888
M204 S1000
G1 X67.882 Y96.974 F10800
M204 S800
G1 F1200
G1 X69.34 Y96.518 E.04788
G1 X180.633 Y96.521 E3.48953
G1 X181.429 Y96.681 E.02545
G1 X182.164 Y97.005 E.02518
G1 X183.03 Y97.717 E.03516
G1 X183.685 Y98.723 E.03763
G1 X183.982 Y99.854 E.03668
G1 X183.941 Y110.433 E.33169
G1 X183.627 Y111.406 E.03207
G1 X183.051 Y112.262 E.03235
G1 X182.559 Y112.718 E.02103
G1 X182.118 Y113.026 E.01687
G1 X180.66 Y113.482 E.04788
G1 X69.353 Y113.482 E3.48997
G1 X68.223 Y113.185 E.03665
M73 P1 R65
G1 X67.24 Y112.554 E.03661
G1 X66.782 Y112.059 E.02115
G1 X66.474 Y111.618 E.01687
G1 X66.018 Y110.159 E.04793
G1 X66.059 Y99.567 E.33209
G1 X66.373 Y98.594 E.03207
G1 X66.949 Y97.738 E.03235
G1 X67.441 Y97.282 E.02103
G1 X67.833 Y97.008 E.01499
M204 S1000
G1 X68.048 Y97.318 F10800
M204 S800
G1 F1200
G1 X69.368 Y96.895 E.04347
G1 X180.614 Y96.898 E3.48804
G1 X181.296 Y97.035 E.02178
M73 P2 R65
M73 Q2 S66
G1 X181.987 Y97.339 E.02369
G1 X182.767 Y97.988 E.03181
G1 X183.329 Y98.85 E.03225
G1 X183.605 Y99.879 E.0334
G1 X183.573 Y110.345 E.32816
G1 X183.276 Y111.265 E.03031
G1 X182.779 Y112 E.02783
G1 X182.313 Y112.432 E.01994
G1 X181.927 Y112.7 E.01473
G1 X180.632 Y113.105 E.04254
G1 X69.377 Y113.105 E3.48832
G1 X68.399 Y112.851 E.03167
G1 X67.5 Y112.279 E.03341
G1 X67.068 Y111.813 E.01994
G1 X66.8 Y111.427 E.01473
G1 X66.395 Y110.131 E.04257
G1 X66.427 Y99.655 E.32846
G1 X66.724 Y98.735 E.03031
G1 X67.221 Y98 E.02783
G1 X67.687 Y97.568 E.01994
G1 X67.999 Y97.352 E.01187
M204 S1000
G1 X68.212 Y97.662 F10800
M204 S800
G1 F1200
G1 X68.263 Y97.627 E.00196
G1 X69.397 Y97.272 E.03724
G1 X180.595 Y97.276 E3.48653
G1 X181.199 Y97.4 E.01933
M73 Q2 S65
G1 X181.808 Y97.672 E.02093
G1 X182.501 Y98.257 E.02843
G1 X182.995 Y99.028 E.0287
G1 X183.228 Y99.902 E.02838
G1 X183.204 Y110.26 E.32475
G1 X182.947 Y111.079 E.02692
G1 X182.506 Y111.739 E.02489
G1 X182.067 Y112.146 E.01878
G1 X181.737 Y112.373 E.01256
G1 X180.603 Y112.728 E.03724
G1 X69.402 Y112.728 E3.48663
G1 X68.525 Y112.494 E.02845
G1 X67.76 Y112.005 E.02846
G1 X67.354 Y111.567 E.01876
G1 X67.127 Y111.237 E.01256
G1 X66.772 Y110.103 E.03725
G1 X66.796 Y99.74 E.32491
G1 X67.053 Y98.921 E.02692
G1 X67.494 Y98.261 E.02489
G1 X67.933 Y97.854 E.01878
G1 X68.163 Y97.696 E.00872
M204 S1000
G1 X68.374 Y98.007 F10800
M204 S800
G1 F1200
G1 X68.452 Y97.954 E.00296
G1 X69.426 Y97.649 E.03198
G1 X180.574 Y97.653 E3.48499
G1 X181.099 Y97.764 E.01682
G1 X181.627 Y98.004 E.01817
G1 X182.234 Y98.525 E.0251
G1 X182.639 Y99.156 E.02351
G1 X182.851 Y99.928 E.02511
G1 X182.836 Y110.177 E.32136
G1 X182.617 Y110.895 E.02353
G1 X182.233 Y111.478 E.02189
G1 X181.821 Y111.86 E.0176
G1 X181.548 Y112.046 E.01037
G1 X180.574 Y112.351 E.03198
G1 X69.428 Y112.351 E3.48492
G1 X68.654 Y112.139 E.02517
G1 X68.021 Y111.732 E.02358
G1 X67.64 Y111.321 E.01756
G1 X67.454 Y111.048 E.01037
G1 X67.149 Y110.074 E.03199
G1 X67.164 Y99.823 E.32143
G1 X67.383 Y99.105 E.02353
G1 X67.767 Y98.522 E.02189
G1 X68.179 Y98.14 E.0176
G1 X68.325 Y98.041 E.00553
M204 S1000
G1 X68.534 Y98.353 F10800
M204 S800
G1 F1200
G1 X68.64 Y98.282 E.00398
G1 X69.455 Y98.026 E.02679
G1 X180.553 Y98.03 E3.48342
G1 X180.997 Y98.127 E.01424
G1 X181.443 Y98.334 E.01541
G1 X181.966 Y98.791 E.02178
G1 X182.285 Y99.286 E.01847
G1 X182.474 Y99.955 E.02179
G1 X182.466 Y110.098 E.31802
G1 X182.285 Y110.715 E.02017
G1 X181.959 Y111.218 E.01881
G1 X181.576 Y111.573 E.01636
G1 X181.36 Y111.718 E.00814
G1 X180.545 Y111.974 E.02678
G1 X69.455 Y111.974 E3.48317
M73 P3 R65
G1 X68.785 Y111.784 E.02184
M73 Q3 S65
G1 X68.282 Y111.459 E.01878
G1 X67.927 Y111.076 E.01636
G1 X67.782 Y110.86 E.00814
G1 X67.526 Y110.046 E.02678
G1 X67.534 Y99.902 E.31803
G1 X67.715 Y99.285 E.02017
G1 X68.041 Y98.782 E.01881
G1 X68.485 Y98.387 E.01862
M204 S1000
G1 X68.691 Y98.7 F10800
M204 S800
G1 F1200
G1 X68.825 Y98.612 E.00502
G1 X69.484 Y98.403 E.02167
G1 X180.531 Y98.407 E3.48181
G1 X180.891 Y98.49 E.01157
M73 P3 R64
G1 X181.256 Y98.662 E.01266
G1 X181.696 Y99.054 E.01848
G1 X181.931 Y99.42 E.01362
G1 X182.097 Y99.983 E.01841
G1 X182.097 Y110.017 E.31462
G1 X181.931 Y110.581 E.01844
G1 X181.686 Y110.957 E.01407
G1 X181.332 Y111.285 E.01513
G1 X181.175 Y111.388 E.00588
G1 X180.516 Y111.597 E.02167
G1 X69.483 Y111.597 E3.48138
G1 X68.919 Y111.431 E.01844
G1 X68.543 Y111.186 E.01407
G1 X68.215 Y110.832 E.01513
G1 X68.112 Y110.675 E.00588
G1 X67.903 Y110.016 E.02167
G1 X67.903 Y99.983 E.31459
G1 X68.069 Y99.419 E.01844
G1 X68.314 Y99.043 E.01407
G1 X68.645 Y98.737 E.01411
M204 S1000
G1 X68.901 Y99.014 F10800
M204 S800
G1 F1200
G1 X69.007 Y98.943 E.00401
G1 X69.513 Y98.78 E.01667
G1 X180.509 Y98.784 E3.4802
G1 X180.747 Y98.839 E.00767
G1 X181.068 Y98.991 E.01111
G1 X181.423 Y99.315 E.01508
G1 X181.579 Y99.557 E.00902
G1 X181.72 Y100.012 E.01495
G1 X181.72 Y109.988 E.31277
G1 X181.579 Y110.443 E.01495
G1 X181.413 Y110.696 E.00948
G1 X181.088 Y110.996 E.01387
G1 X180.993 Y111.057 E.00355
G1 X180.487 Y111.22 E.01667
G1 X69.512 Y111.22 E3.47952
G1 X69.057 Y111.079 E.01495
G1 X68.804 Y110.913 E.00948
G1 X68.504 Y110.588 E.01387
G1 X68.443 Y110.493 E.00355
G1 X68.28 Y109.987 E.01667
G1 X68.28 Y100.012 E.31274
G1 X68.421 Y99.557 E.01495
G1 X68.587 Y99.304 E.00948
G1 X68.857 Y99.055 E.01153
M204 S1000
G1 X69.113 Y99.331 F10800
M204 S800
G1 F1200
G1 X69.183 Y99.276 E.00278
G1 X69.544 Y99.157 E.01193
G1 X180.487 Y99.161 E3.47854
G1 X180.604 Y99.188 E.00377
M73 Q3 S64
G1 X180.878 Y99.318 E.0095
G1 X181.147 Y99.573 E.0116
G1 X181.23 Y99.7 E.00476
G1 X181.343 Y100.044 E.01136
G1 X181.343 Y109.956 E.31078
G1 X181.23 Y110.299 E.01134
G1 X181.14 Y110.434 E.00506
G1 X180.817 Y110.724 E.01361
G1 X180.456 Y110.843 E.01193
G1 X69.544 Y110.843 E3.47756
G1 X69.201 Y110.73 E.01134
M73 P4 R64
M73 Q4 S64
G1 X69.066 Y110.64 E.00506
G1 X68.776 Y110.317 E.01361
G1 X68.657 Y109.956 E.01193
G1 X68.657 Y100.044 E.31078
G1 X68.77 Y99.701 E.01134
G1 X68.86 Y99.566 E.00506
G1 X69.069 Y99.372 E.00896
M204 S1000
G1 X69.325 Y99.649 F10800
M204 S800
G1 F1200
G1 X69.366 Y99.611 E.00175
G1 X69.579 Y99.534 E.00709
G1 X180.435 Y99.534 E3.47581
G1 X180.685 Y99.644 E.00856
G1 X180.866 Y99.825 E.00802
G1 X180.966 Y100.079 E.00856
G1 X180.966 Y109.921 E.30858
G1 X180.868 Y110.172 E.00845
G1 X180.634 Y110.389 E.01002
G1 X180.421 Y110.466 E.00709
G1 X69.579 Y110.466 E3.47536
G1 X69.328 Y110.368 E.00845
G1 X69.111 Y110.134 E.01002
G1 X69.034 Y109.921 E.00709
G1 X69.034 Y100.079 E.30858
G1 X69.116 Y99.852 E.00757
G1 X69.281 Y99.689 E.00727
M204 S1000
G1 X69.542 Y99.95 F10800
M204 S800
G1 F1200
G1 X69.621 Y99.911 E.00276
G1 X180.379 Y99.911 E3.47273
G1 X180.448 Y99.94 E.00235
G1 X180.56 Y100.052 E.00495
G1 X180.589 Y100.121 E.00235
G1 X180.589 Y109.879 E.30595
G1 X180.56 Y109.948 E.00235
G1 X180.448 Y110.06 E.00495
G1 X180.379 Y110.089 E.00235
G1 X69.621 Y110.089 E3.47273
G1 X69.552 Y110.06 E.00235
G1 X69.44 Y109.948 E.00495
G1 X69.411 Y109.879 E.00235
G1 X69.411 Y100.121 E.30595
G1 X69.44 Y100.052 E.00235
M73 P4 R63
G1 X69.5 Y99.992 E.00263
M204 S1000
; printing object camera-stand.stl id:0 copy 0
;WIPE_START
G1 F8640
G1 X69.621 Y99.911 E-.0337
G1 X72.767 Y99.911 E-.7263
;WIPE_END
G1 E-.04 F2100
G1 Z.6 F720
G1 X70.687 Y100.787 F10800
G1 Z.2 F720
G1 E.8 F2100
M204 S800
;TYPE:Perimeter
G1 F1200
G1 X179.713 Y100.787 E3.41843
G1 X179.713 Y109.213 E.26419
G1 X70.287 Y109.213 E3.43097
G1 X70.287 Y100.787 E.26419
G1 X70.627 Y100.787 E.01066
M204 S1000
G1 X69.91 Y100.41 F10800
M204 S800
;TYPE:External perimeter
G1 F1200
G1 X180.09 Y100.41 E3.45462
G1 X180.09 Y109.59 E.28783
M73 P5 R63
M73 Q5 S64
G1 X69.91 Y109.59 E3.45462
G1 X69.91 Y100.47 E.28595
M204 S1000
M73 Q5 S63
G1 X70.31 Y100.421 F10800
;WIPE_START
G1 F8640
G1 X73.201 Y100.468 E-.76
;WIPE_END
G1 E-.04 F2100
G1 Z.6 F720
G1 X178.836 Y100.9 F10800
G1 Z.2 F720
G1 E.8 F2100
M204 S800
;TYPE:Solid infill
;WIDTH:0.420497
G1 F1200
G1 X179.43 Y101.494 E.02636
G1 X179.43 Y102.028 E.01676
G1 X178.472 Y101.07 E.04253
G1 X177.938 Y101.07 E.01676
G1 X179.43 Y102.562 E.06624
G1 X179.43 Y103.096 E.01676
G1 X177.404 Y101.07 E.08995
G1 X176.87 Y101.07 E.01676
G1 X179.43 Y103.63 E.11366
G1 X179.43 Y104.164 E.01676
G1 X176.336 Y101.07 E.13737
G1 X175.802 Y101.07 E.01676
G1 X179.43 Y104.698 E.16107
G1 X179.43 Y105.232 E.01676
G1 X175.268 Y101.07 E.18478
G1 X174.734 Y101.07 E.01676
G1 X179.43 Y105.766 E.20849
G1 X179.43 Y106.3 E.01676
G1 X174.2 Y101.07 E.2322
G1 X173.666 Y101.07 E.01676
G1 X179.43 Y106.834 E.25591
G1 X179.43 Y107.368 E.01676
G1 X173.132 Y101.07 E.27962
G1 X172.598 Y101.07 E.01676
G1 X179.43 Y107.902 E.30333
G1 X179.43 Y108.435 E.01676
G1 X172.065 Y101.07 E.32703
G1 X171.531 Y101.07 E.01676
G1 X179.391 Y108.93 E.349
G1 X178.857 Y108.93 E.01676
G1 X170.997 Y101.07 E.349
G1 X170.463 Y101.07 E.01676
G1 X178.323 Y108.93 E.349
G1 X177.789 Y108.93 E.01676
G1 X169.929 Y101.07 E.349
G1 X169.395 Y101.07 E.01676
G1 X177.255 Y108.93 E.349
G1 X176.721 Y108.93 E.01676
G1 X168.861 Y101.07 E.349
G1 X168.327 Y101.07 E.01676
G1 X176.187 Y108.93 E.349
G1 X175.653 Y108.93 E.01676
G1 X167.793 Y101.07 E.349
G1 X167.259 Y101.07 E.01676
G1 X175.119 Y108.93 E.349
G1 X174.585 Y108.93 E.01676
G1 X166.725 Y101.07 E.349
G1 X166.191 Y101.07 E.01676
G1 X174.051 Y108.93 E.349
G1 X173.517 Y108.93 E.01676
G1 X165.657 Y101.07 E.349
G1 X165.123 Y101.07 E.01676
G1 X172.983 Y108.93 E.349
G1 X172.449 Y108.93 E.01676
G1 X164.589 Y101.07 E.349
G1 X164.055 Y101.07 E.01676
G1 X171.915 Y108.93 E.349
G1 X171.381 Y108.93 E.01676
G1 X163.521 Y101.07 E.349
G1 X162.987 Y101.07 E.01676
G1 X170.847 Y108.93 E.349
G1 X170.313 Y108.93 E.01676
G1 X162.453 Y101.07 E.349
G1 X161.919 Y101.07 E.01676
G1 X169.779 Y108.93 E.349
G1 X169.245 Y108.93 E.01676
G1 X161.385 Y101.07 E.349
G1 X160.851 Y101.07 E.01676
G1 X168.711 Y108.93 E.349
G1 X168.177 Y108.93 E.01676
G1 X160.317 Y101.07 E.349
G1 X159.783 Y101.07 E.01676
G1 X167.643 Y108.93 E.349
G1 X167.109 Y108.93 E.01676
G1 X159.249 Y101.07 E.349
G1 X158.715 Y101.07 E.01676
G1 X166.575 Y108.93 E.349
G1 X166.041 Y108.93 E.01676
G1 X158.181 Y101.07 E.349
G1 X157.647 Y101.07 E.01676
G1 X165.507 Y108.93 E.349
G1 X164.973 Y108.93 E.01676
G1 X157.113 Y101.07 E.349
G1 X156.579 Y101.07 E.01676
G1 X164.439 Y108.93 E.349
G1 X163.906 Y108.93 E.01676
G1 X156.045 Y101.07 E.349
G1 X155.511 Y101.07 E.01676
G1 X163.372 Y108.93 E.349
G1 X162.838 Y108.93 E.01676
G1 X154.977 Y101.07 E.349
G1 X154.443 Y101.07 E.01676
G1 X162.304 Y108.93 E.349
G1 X161.77 Y108.93 E.01676
G1 X153.909 Y101.07 E.349
G1 X153.375 Y101.07 E.01676
G1 X161.236 Y108.93 E.349
G1 X160.702 Y108.93 E.01676
G1 X152.841 Y101.07 E.349
G1 X152.307 Y101.07 E.01676
G1 X160.168 Y108.93 E.349
G1 X159.634 Y108.93 E.01676
G1 X151.773 Y101.07 E.349
G1 X151.239 Y101.07 E.01676
G1 X159.1 Y108.93 E.349
G1 X158.566 Y108.93 E.01676
M73 P6 R63
G1 X150.706 Y101.07 E.349
G1 X150.172 Y101.07 E.01676
M73 Q6 S63
G1 X158.032 Y108.93 E.349
G1 X157.498 Y108.93 E.01676
G1 X149.638 Y101.07 E.349
G1 X149.104 Y101.07 E.01676
G1 X156.964 Y108.93 E.349
G1 X156.43 Y108.93 E.01676
G1 X148.57 Y101.07 E.349
G1 X148.036 Y101.07 E.01676
G1 X155.896 Y108.93 E.349
G1 X155.362 Y108.93 E.01676
G1 X147.502 Y101.07 E.349
G1 X146.968 Y101.07 E.01676
G1 X154.828 Y108.93 E.349
G1 X154.294 Y108.93 E.01676
G1 X146.434 Y101.07 E.349
G1 X145.9 Y101.07 E.01676
G1 X153.76 Y108.93 E.349
G1 X153.226 Y108.93 E.01676
G1 X145.366 Y101.07 E.349
G1 X144.832 Y101.07 E.01676
G1 X152.692 Y108.93 E.349
G1 X152.158 Y108.93 E.01676
M73 P6 R62
G1 X144.298 Y101.07 E.349
G1 X143.764 Y101.07 E.01676
G1 X151.624 Y108.93 E.349
G1 X151.09 Y108.93 E.01676
G1 X143.23 Y101.07 E.349
G1 X142.696 Y101.07 E.01676
