; generated by PrusaSlicer 2.4.0+x64 on 2022-03-14 at 15:11:56 UTC

; 

; external perimeters extrusion width = 0.60mm
; perimeters extrusion width = 0.50mm
; infill extrusion width = 0.50mm
; solid infill extrusion width = 0.50mm
; top infill extrusion width = 0.45mm
; first layer extrusion width = 0.42mm

M73 P0 R35
M73 Q0 S35
M201 X1000 Y1000 Z200 E5000 ; sets maximum accelerations, mm/sec^2
M203 X200 Y200 Z12 E120 ; sets maximum feedrates, mm/sec
M204 P1250 R1250 T1250 ; sets acceleration (P, T) and retract acceleration (R), mm/sec^2
M205 X8.00 Y8.00 Z0.40 E4.50 ; sets the jerk limits, mm/sec
M205 S0 T0 ; sets the minimum extruding and travel feed rate, mm/sec
M107
;TYPE:Custom
M862.3 P "MK3S" ; printer model check
M862.1 P0.4 ; nozzle diameter check
M115 U3.10.0 ; tell printer latest fw version
G90 ; use absolute coordinates
M83 ; extruder relative mode
M104 S215 ; set extruder temp
M140 S60 ; set bed temp
M190 S60 ; wait for bed temp
M109 S215 ; wait for extruder temp
G28 W ; home all without mesh bed level
G80 ; mesh bed leveling
G1 Z0.2 F720
G1 Y-3 F1000 ; go outside print area
G92 E0
G1 X60 E9 F1000 ; intro line
G1 X100 E12.5 F1000 ; intro line
G92 E0
M221 S95

; Don't change E values below. Excessive value can damage the printer.

M907 E538 ; set extruder motor current
G21 ; set units to millimeters
G90 ; use absolute coordinates
M83 ; use relative distances for extrusion
M900 K0.05 ; Filament gcode LA 1.5
M900 K30 ; Filament gcode LA 1.0
M107
;LAYER_CHANGE
;Z:0.2
;HEIGHT:0.2
;BEFORE_LAYER_CHANGE
G92 E0.0
;0.2


M73 P0 R34
G1 Z.2 F720
;AFTER_LAYER_CHANGE
;0.2
M73 Q0 S34
G1 E-.8 F2100
G1 Z.6 F720
G1 X67.415 Y44.193 F10800
G1 Z.2 F720
G1 E.8 F2100
M204 S800
;TYPE:Skirt/Brim
;WIDTH:0.42
G1 F1200
G1 X68.46 Y43.317 E.04278
G1 X69.4 Y43.123 E.03008
G1 X180.6 Y43.123 E3.4866
G1 X181.907 Y43.515 E.04278
G1 X182.783 Y44.56 E.04278
G1 X182.977 Y45.5 E.03008
G1 X182.977 Y164.5 E3.73116
G1 X182.585 Y165.807 E.04278
G1 X181.54 Y166.683 E.04278
G1 X180.6 Y166.877 E.03008
G1 X69.4 Y166.877 E3.4866
G1 X68.093 Y166.485 E.04278
M73 P1 R34
M73 Q1 S34
G1 X67.217 Y165.44 E.04278
G1 X67.023 Y164.5 E.03008
G1 X67.023 Y45.5 E3.73116
G1 X67.397 Y44.25 E.0409
M204 S1000
; printing object camera-stand.stl id:0 copy 0
;WIPE_START
G1 F8640
G1 X68.46 Y43.317 E-.32671
G1 X69.4 Y43.123 E-.22155
G1 X70.317 Y43.123 E-.21174
;WIPE_END
G1 E-.04 F2100
G1 Z.6 F720
G1 X69.81 Y45.91 F10800
G1 Z.2 F720
G1 E.8 F2100
M204 S800
;TYPE:External perimeter
G1 F1200
G1 X180.19 Y45.91 E3.46089
G1 X180.19 Y164.09 E3.70545
G1 X177.01 Y164.09 E.09971
M73 P2 R34
M73 Q2 S34
G1 X177.01 Y79.09 E2.66512
G1 X172.59 Y79.09 E.13859
G1 X172.59 Y85.09 E.18813
G1 X161.59 Y85.09 E.3449
G1 X161.59 Y164.09 E2.47699
G1 X88.41 Y164.09 E2.29451
G1 X88.41 Y85.09 E2.47699
G1 X77.41 Y85.09 E.3449
G1 X77.41 Y79.09 E.18813
G1 X72.99 Y79.09 E.13859
G1 X72.99 Y164.09 E2.66512
G1 X69.81 Y164.09 E.09971
M73 P3 R33
M73 Q3 S33
G1 X69.81 Y45.97 E3.70357
M204 S1000
;WIPE_START
G1 F8640
G1 X73.101 Y45.968 E-.76
;WIPE_END
G1 E-.04 F2100
G1 Z.6 F720
G1 X179.313 Y46.023 F10800
G1 Z.2 F720
G1 E.8 F2100
M204 S800
;TYPE:Solid infill
;WIDTH:0.420788
G1 F1200
G1 X179.907 Y46.617 E.02641
G1 X179.907 Y47.152 E.01679
G1 X178.948 Y46.193 E.04261
G1 X178.414 Y46.193 E.01679
G1 X179.907 Y47.686 E.06636
G1 X179.907 Y48.221 E.01679
G1 X177.879 Y46.193 E.0901
G1 X177.345 Y46.193 E.01679
G1 X179.907 Y48.755 E.11385
G1 X179.907 Y49.289 E.01679
G1 X176.811 Y46.193 E.13759
G1 X176.276 Y46.193 E.01679
G1 X179.907 Y49.824 E.16134
G1 X179.907 Y50.358 E.01679
G1 X175.742 Y46.193 E.18508
G1 X175.208 Y46.193 E.01679
G1 X179.907 Y50.892 E.20883
G1 X179.907 Y51.427 E.01679
G1 X174.673 Y46.193 E.23257
G1 X174.139 Y46.193 E.01679
G1 X179.907 Y51.961 E.25632
G1 X179.907 Y52.496 E.01679
G1 X173.604 Y46.193 E.28006
G1 X173.07 Y46.193 E.01679
G1 X179.907 Y53.03 E.30381
G1 X179.907 Y53.564 E.01679
G1 X172.536 Y46.193 E.32755
G1 X172.001 Y46.193 E.01679
G1 X179.907 Y54.099 E.3513
G1 X179.907 Y54.633 E.01679
G1 X171.467 Y46.193 E.37504
G1 X170.932 Y46.193 E.01679
G1 X179.907 Y55.168 E.39879
G1 X179.907 Y55.702 E.01679
G1 X170.398 Y46.193 E.42253
G1 X169.864 Y46.193 E.01679
G1 X179.907 Y56.236 E.44628
G1 X179.907 Y56.771 E.01679
G1 X169.329 Y46.193 E.47002
G1 X168.795 Y46.193 E.01679
G1 X179.907 Y57.305 E.49377
G1 X179.907 Y57.839 E.01679
G1 X168.261 Y46.193 E.51751
G1 X167.726 Y46.193 E.01679
G1 X179.907 Y58.374 E.54126
G1 X179.907 Y58.908 E.01679
G1 X167.192 Y46.193 E.565
G1 X166.657 Y46.193 E.01679
M73 P4 R33
M73 Q4 S33
G1 X179.907 Y59.443 E.58875
G1 X179.907 Y59.977 E.01679
G1 X166.123 Y46.193 E.61249
G1 X165.589 Y46.193 E.01679
G1 X179.907 Y60.511 E.63624
G1 X179.907 Y61.046 E.01679
G1 X165.054 Y46.193 E.65998
G1 X164.52 Y46.193 E.01679
G1 X179.907 Y61.58 E.68373
G1 X179.907 Y62.115 E.01679
G1 X163.985 Y46.193 E.70747
G1 X163.451 Y46.193 E.01679
G1 X179.907 Y62.649 E.73122
G1 X179.907 Y63.183 E.01679
G1 X162.917 Y46.193 E.75496
G1 X162.382 Y46.193 E.01679
G1 X179.907 Y63.718 E.77871
G1 X179.907 Y64.252 E.01679
G1 X161.848 Y46.193 E.80245
G1 X161.314 Y46.193 E.01679
G1 X179.907 Y64.786 E.8262
G1 X179.907 Y65.321 E.01679
G1 X160.779 Y46.193 E.84994
G1 X160.245 Y46.193 E.01679
G1 X179.907 Y65.855 E.87369
G1 X179.907 Y66.39 E.01679
G1 X159.71 Y46.193 E.89743
G1 X159.176 Y46.193 E.01679
G1 X179.907 Y66.924 E.92118
G1 X179.907 Y67.458 E.01679
G1 X158.642 Y46.193 E.94493
G1 X158.107 Y46.193 E.01679
G1 X179.907 Y67.993 E.96867
G1 X179.907 Y68.527 E.01679
M73 P5 R33
M73 Q5 S33
G1 X157.573 Y46.193 E.99242
G1 X157.038 Y46.193 E.01679
G1 X179.907 Y69.062 E1.01616
G1 X179.907 Y69.596 E.01679
G1 X156.504 Y46.193 E1.03991
G1 X155.97 Y46.193 E.01679
G1 X179.907 Y70.13 E1.06365
G1 X179.907 Y70.665 E.01679
G1 X155.435 Y46.193 E1.0874
G1 X154.901 Y46.193 E.01679
G1 X179.907 Y71.199 E1.11114
G1 X179.907 Y71.734 E.01679
G1 X154.366 Y46.193 E1.13489
G1 X153.832 Y46.193 E.01679
G1 X179.907 Y72.268 E1.15863
G1 X179.907 Y72.802 E.01679
G1 X153.298 Y46.193 E1.18238
G1 X152.763 Y46.193 E.01679
G1 X179.907 Y73.337 E1.20612
G1 X179.907 Y73.871 E.01679
M73 P5 R32
G1 X152.229 Y46.193 E1.22987
G1 X151.695 Y46.193 E.01679
M73 Q6 S32
G1 X179.907 Y74.405 E1.25361
G1 X179.907 Y74.94 E.01679
M73 P6 R32
G1 X151.16 Y46.193 E1.27736
G1 X150.626 Y46.193 E.01679
G1 X179.907 Y75.474 E1.3011
G1 X179.907 Y76.009 E.01679
G1 X150.091 Y46.193 E1.32485
G1 X149.557 Y46.193 E.01679
G1 X179.907 Y76.543 E1.34859
G1 X179.907 Y77.077 E.01679
G1 X149.023 Y46.193 E1.37234
G1 X148.488 Y46.193 E.01679
G1 X179.907 Y77.612 E1.39608
G1 X179.907 Y78.146 E.01679
G1 X147.954 Y46.193 E1.41983
G1 X147.419 Y46.193 E.01679
G1 X179.907 Y78.681 E1.44357
G1 X179.907 Y79.215 E.01679
G1 X146.885 Y46.193 E1.46732
G1 X146.351 Y46.193 E.01679
M73 P7 R32
M73 Q7 S32
G1 X179.907 Y79.749 E1.49106
G1 X179.907 Y80.284 E.01679
G1 X145.816 Y46.193 E1.51481
G1 X145.282 Y46.193 E.01679
G1 X179.907 Y80.818 E1.53855
G1 X179.907 Y81.352 E.01679
G1 X144.748 Y46.193 E1.5623
G1 X144.213 Y46.193 E.01679
G1 X176.828 Y78.807 E1.4492
G1 X177.293 Y78.807 E.01462
G1 X177.293 Y79.272 E.01462
G1 X179.907 Y81.887 E.11617
G1 X179.907 Y82.421 E.01679
G1 X177.293 Y79.807 E.11617
G1 X177.293 Y80.341 E.01679
G1 X179.907 Y82.956 E.11617
G1 X179.907 Y83.49 E.01679
G1 X177.293 Y80.876 E.11617
G1 X177.293 Y81.41 E.01679
G1 X179.907 Y84.024 E.11617
G1 X179.907 Y84.559 E.01679
G1 X177.293 Y81.944 E.11617
G1 X177.293 Y82.479 E.01679
G1 X179.907 Y85.093 E.11617
G1 X179.907 Y85.628 E.01679
G1 X177.293 Y83.013 E.11617
G1 X177.293 Y83.548 E.01679
G1 X179.907 Y86.162 E.11617
G1 X179.907 Y86.696 E.01679
G1 X177.293 Y84.082 E.11617
G1 X177.293 Y84.616 E.01679
G1 X179.907 Y87.231 E.11617
G1 X179.907 Y87.765 E.01679
G1 X177.293 Y85.151 E.11617
G1 X177.293 Y85.685 E.01679
G1 X179.907 Y88.299 E.11617
G1 X179.907 Y88.834 E.01679
G1 X177.293 Y86.219 E.11617
G1 X177.293 Y86.754 E.01679
G1 X179.907 Y89.368 E.11617
G1 X179.907 Y89.903 E.01679
G1 X177.293 Y87.288 E.11617
G1 X177.293 Y87.823 E.01679
G1 X179.907 Y90.437 E.11617
G1 X179.907 Y90.971 E.01679
G1 X177.293 Y88.357 E.11617
G1 X177.293 Y88.891 E.01679
G1 X179.907 Y91.506 E.11617
G1 X179.907 Y92.04 E.01679
G1 X177.293 Y89.426 E.11617
G1 X177.293 Y89.96 E.01679
G1 X179.907 Y92.575 E.11617
G1 X179.907 Y93.109 E.01679
G1 X177.293 Y90.495 E.11617
G1 X177.293 Y91.029 E.01679
G1 X179.907 Y93.643 E.11617
G1 X179.907 Y94.178 E.01679
G1 X177.293 Y91.563 E.11617
G1 X177.293 Y92.098 E.01679
G1 X179.907 Y94.712 E.11617
G1 X179.907 Y95.247 E.01679
G1 X177.293 Y92.632 E.11617
G1 X177.293 Y93.166 E.01679
G1 X179.907 Y95.781 E.11617
G1 X179.907 Y96.315 E.01679
G1 X177.293 Y93.701 E.11617
G1 X177.293 Y94.235 E.01679
G1 X179.907 Y96.85 E.11617
G1 X179.907 Y97.384 E.01679
G1 X177.293 Y94.77 E.11617
G1 X177.293 Y95.304 E.01679
G1 X179.907 Y97.918 E.11617
G1 X179.907 Y98.453 E.01679
G1 X177.293 Y95.838 E.11617
G1 X177.293 Y96.373 E.01679
G1 X179.907 Y98.987 E.11617
G1 X179.907 Y99.522 E.01679
G1 X177.293 Y96.907 E.11617
G1 X177.293 Y97.442 E.01679
M73 Q8 S32
G1 X179.907 Y100.056 E.11617
G1 X179.907 Y100.59 E.01679
G1 X177.293 Y97.976 E.11617
G1 X177.293 Y98.51 E.01679
M73 P8 R32
G1 X179.907 Y101.125 E.11617
G1 X179.907 Y101.659 E.01679
G1 X177.293 Y99.045 E.11617
G1 X177.293 Y99.579 E.01679
G1 X179.907 Y102.194 E.11617
G1 X179.907 Y102.728 E.01679
G1 X177.293 Y100.114 E.11617
G1 X177.293 Y100.648 E.01679
G1 X179.907 Y103.262 E.11617
G1 X179.907 Y103.797 E.01679
G1 X177.293 Y101.182 E.11617
G1 X177.293 Y101.717 E.01679
G1 X179.907 Y104.331 E.11617
G1 X179.907 Y104.865 E.01679
G1 X177.293 Y102.251 E.11617
G1 X177.293 Y102.785 E.01679
G1 X179.907 Y105.4 E.11617
G1 X179.907 Y105.934 E.01679
G1 X177.293 Y103.32 E.11617
G1 X177.293 Y103.854 E.01679
G1 X179.907 Y106.469 E.11617
G1 X179.907 Y107.003 E.01679
G1 X177.293 Y104.389 E.11617
G1 X177.293 Y104.923 E.01679
G1 X179.907 Y107.537 E.11617
G1 X179.907 Y108.072 E.01679
G1 X177.293 Y105.457 E.11617
G1 X177.293 Y105.992 E.01679
G1 X179.907 Y108.606 E.11617
G1 X179.907 Y109.141 E.01679
G1 X177.293 Y106.526 E.11617
G1 X177.293 Y107.061 E.01679
G1 X179.907 Y109.675 E.11617
G1 X179.907 Y110.209 E.01679
G1 X177.293 Y107.595 E.11617
G1 X177.293 Y108.129 E.01679
G1 X179.907 Y110.744 E.11617
G1 X179.907 Y111.278 E.01679
G1 X177.293 Y108.664 E.11617
G1 X177.293 Y109.198 E.01679
G1 X179.907 Y111.812 E.11617
G1 X179.907 Y112.347 E.01679
G1 X177.293 Y109.732 E.11617
G1 X177.293 Y110.267 E.01679
G1 X179.907 Y112.881 E.11617
G1 X179.907 Y113.416 E.01679
G1 X177.293 Y110.801 E.11617
G1 X177.293 Y111.336 E.01679
G1 X179.907 Y113.95 E.11617
G1 X179.907 Y114.484 E.01679
G1 X177.293 Y111.87 E.11617
G1 X177.293 Y112.404 E.01679
G1 X179.907 Y115.019 E.11617
G1 X179.907 Y115.553 E.01679
G1 X177.293 Y112.939 E.11617
G1 X177.293 Y113.473 E.01679
G1 X179.907 Y116.088 E.11617
G1 X179.907 Y116.622 E.01679
G1 X177.293 Y114.008 E.11617
G1 X177.293 Y114.542 E.01679
G1 X179.907 Y117.156 E.11617
G1 X179.907 Y117.691 E.01679
G1 X177.293 Y115.076 E.11617
G1 X177.293 Y115.611 E.01679
G1 X179.907 Y118.225 E.11617
G1 X179.907 Y118.759 E.01679
G1 X177.293 Y116.145 E.11617
G1 X177.293 Y116.679 E.01679
G1 X179.907 Y119.294 E.11617
G1 X179.907 Y119.828 E.01679
G1 X177.293 Y117.214 E.11617
G1 X177.293 Y117.748 E.01679
G1 X179.907 Y120.363 E.11617
G1 X179.907 Y120.897 E.01679
G1 X177.293 Y118.283 E.11617
G1 X177.293 Y118.817 E.01679
G1 X179.907 Y121.431 E.11617
G1 X179.907 Y121.966 E.01679
G1 X177.293 Y119.351 E.11617
G1 X177.293 Y119.886 E.01679
G1 X179.907 Y122.5 E.11617
G1 X179.907 Y123.035 E.01679
G1 X177.293 Y120.42 E.11617
G1 X177.293 Y120.955 E.01679
G1 X179.907 Y123.569 E.11617
G1 X179.907 Y124.103 E.01679
G1 X177.293 Y121.489 E.11617
G1 X177.293 Y122.023 E.01679
G1 X179.907 Y124.638 E.11617
G1 X179.907 Y125.172 E.01679
G1 X177.293 Y122.558 E.11617
G1 X177.293 Y123.092 E.01679
G1 X179.907 Y125.707 E.11617
G1 X179.907 Y126.241 E.01679
G1 X177.293 Y123.626 E.11617
G1 X177.293 Y124.161 E.01679
G1 X179.907 Y126.775 E.11617
G1 X179.907 Y127.31 E.01679
G1 X177.293 Y124.695 E.11617
G1 X177.293 Y125.23 E.01679
G1 X179.907 Y127.844 E.11617
G1 X179.907 Y128.378 E.01679
G1 X177.293 Y125.764 E.11617
G1 X177.293 Y126.298 E.01679
G1 X179.907 Y128.913 E.11617
G1 X179.907 Y129.447 E.01679
G1 X177.293 Y126.833 E.11617
G1 X177.293 Y127.367 E.01679
G1 X179.907 Y129.982 E.11617
G1 X179.907 Y130.516 E.01679
G1 X177.293 Y127.902 E.11617
G1 X177.293 Y128.436 E.01679
G1 X179.907 Y131.05 E.11617
G1 X179.907 Y131.585 E.01679
G1 X177.293 Y128.97 E.11617
G1 X177.293 Y129.505 E.01679
G1 X179.907 Y132.119 E.11617
G1 X179.907 Y132.654 E.01679
G1 X177.293 Y130.039 E.11617
G1 X177.293 Y130.574 E.01679
G1 X179.907 Y133.188 E.11617
G1 X179.907 Y133.722 E.01679
G1 X177.293 Y131.108 E.11617
G1 X177.293 Y131.642 E.01679
G1 X179.907 Y134.257 E.11617
G1 X179.907 Y134.791 E.01679
G1 X177.293 Y132.177 E.11617
G1 X177.293 Y132.711 E.01679
G1 X179.907 Y135.325 E.11617
G1 X179.907 Y135.86 E.01679
G1 X177.293 Y133.245 E.11617
G1 X177.293 Y133.78 E.01679
G1 X179.907 Y136.394 E.11617
G1 X179.907 Y136.929 E.01679
G1 X177.293 Y134.314 E.11617
G1 X177.293 Y134.849 E.01679
G1 X179.907 Y137.463 E.11617
G1 X179.907 Y137.997 E.01679
M73 P8 R31
G1 X177.293 Y135.383 E.11617
G1 X177.293 Y135.917 E.01679
G1 X179.907 Y138.532 E.11617
G1 X179.907 Y139.066 E.01679
G1 X177.293 Y136.452 E.11617
M73 Q8 S31
G1 X177.293 Y136.986 E.01679
G1 X179.907 Y139.601 E.11617
G1 X179.907 Y140.135 E.01679
G1 X177.293 Y137.521 E.11617
G1 X177.293 Y138.055 E.01679
G1 X179.907 Y140.669 E.11617
G1 X179.907 Y141.204 E.01679
G1 X177.293 Y138.589 E.11617
G1 X177.293 Y139.124 E.01679
G1 X179.907 Y141.738 E.11617
G1 X179.907 Y142.272 E.01679
G1 X177.293 Y139.658 E.11617
G1 X177.293 Y140.192 E.01679
G1 X179.907 Y142.807 E.11617
G1 X179.907 Y143.341 E.01679
G1 X177.293 Y140.727 E.11617
G1 X177.293 Y141.261 E.01679
G1 X179.907 Y143.876 E.11617
G1 X179.907 Y144.41 E.01679
G1 X177.293 Y141.796 E.11617
G1 X177.293 Y142.33 E.01679
G1 X179.907 Y144.944 E.11617
G1 X179.907 Y145.479 E.01679
G1 X177.293 Y142.864 E.11617
G1 X177.293 Y143.399 E.01679
G1 X179.907 Y146.013 E.11617
G1 X179.907 Y146.548 E.01679
G1 X177.293 Y143.933 E.11617
G1 X177.293 Y144.468 E.01679
G1 X179.907 Y147.082 E.11617
G1 X179.907 Y147.616 E.01679
G1 X177.293 Y145.002 E.11617
G1 X177.293 Y145.536 E.01679
G1 X179.907 Y148.151 E.11617
G1 X179.907 Y148.685 E.01679
G1 X177.293 Y146.071 E.11617
G1 X177.293 Y146.605 E.01679
G1 X179.907 Y149.219 E.11617
G1 X179.907 Y149.754 E.01679
G1 X177.293 Y147.139 E.11617
G1 X177.293 Y147.674 E.01679
M73 Q9 S31
G1 X179.907 Y150.288 E.11617
G1 X179.907 Y150.823 E.01679
M73 P9 R31
G1 X177.293 Y148.208 E.11617
G1 X177.293 Y148.743 E.01679
G1 X179.907 Y151.357 E.11617
G1 X179.907 Y151.891 E.01679
G1 X177.293 Y149.277 E.11617
G1 X177.293 Y149.811 E.01679
G1 X179.907 Y152.426 E.11617
G1 X179.907 Y152.96 E.01679
G1 X177.293 Y150.346 E.11617
G1 X177.293 Y150.88 E.01679
G1 X179.907 Y153.495 E.11617
G1 X179.907 Y154.029 E.01679
G1 X177.293 Y151.415 E.11617
G1 X177.293 Y151.949 E.01679
G1 X179.907 Y154.563 E.11617
G1 X179.907 Y155.098 E.01679
G1 X177.293 Y152.483 E.11617
G1 X177.293 Y153.018 E.01679
G1 X179.907 Y155.632 E.11617
G1 X179.907 Y156.167 E.01679
G1 X177.293 Y153.552 E.11617
G1 X177.293 Y154.086 E.01679
G1 X179.907 Y156.701 E.11617
G1 X179.907 Y157.235 E.01679
G1 X177.293 Y154.621 E.11617
G1 X177.293 Y155.155 E.01679
G1 X179.907 Y157.77 E.11617
G1 X179.907 Y158.304 E.01679
G1 X177.293 Y155.69 E.11617
G1 X177.293 Y156.224 E.01679
G1 X179.907 Y158.838 E.11617
G1 X179.907 Y159.373 E.01679
G1 X177.293 Y156.758 E.11617
G1 X177.293 Y157.293 E.01679
G1 X179.907 Y159.907 E.11617
G1 X179.907 Y160.442 E.01679
G1 X177.293 Y157.827 E.11617
G1 X177.293 Y158.362 E.01679
G1 X179.907 Y160.976 E.11617
G1 X179.907 Y161.51 E.01679
G1 X177.293 Y158.896 E.11617
G1 X177.293 Y159.43 E.01679
G1 X179.907 Y162.045 E.11617
G1 X179.907 Y162.579 E.01679
G1 X177.293 Y159.965 E.11617
G1 X177.293 Y160.499 E.01679
G1 X179.907 Y163.114 E.11617
G1 X179.907 Y163.648 E.01679
G1 X177.293 Y161.034 E.11617
G1 X177.293 Y161.568 E.01679
G1 X179.532 Y163.807 E.0995
G1 X178.998 Y163.807 E.01679
