; generated by PrusaSlicer 2.4.0+x64 on 2022-03-13 at 21:13:57 UTC

; 

; external perimeters extrusion width = 0.60mm
; perimeters extrusion width = 0.50mm
; infill extrusion width = 0.50mm
; solid infill extrusion width = 0.50mm
; top infill extrusion width = 0.45mm
; first layer extrusion width = 0.42mm

M73 P0 R64
M73 Q0 S64
M201 X1000 Y1000 Z200 E5000 ; sets maximum accelerations, mm/sec^2
M203 X200 Y200 Z12 E120 ; sets maximum feedrates, mm/sec
M204 P1250 R1250 T1250 ; sets acceleration (P, T) and retract acceleration (R), mm/sec^2
M205 X8.00 Y8.00 Z0.40 E4.50 ; sets the jerk limits, mm/sec
M205 S0 T0 ; sets the minimum extruding and travel feed rate, mm/sec
M107
;TYPE:Custom
M862.3 P "MK3S" ; printer model check
M862.1 P0.4 ; nozzle diameter check
M115 U3.10.0 ; tell printer latest fw version
G90 ; use absolute coordinates
M83 ; extruder relative mode
M104 S215 ; set extruder temp
M140 S60 ; set bed temp
M190 S60 ; wait for bed temp
M109 S215 ; wait for extruder temp
G28 W ; home all without mesh bed level
G80 ; mesh bed leveling
G1 Z0.2 F720
G1 Y-3 F1000 ; go outside print area
G92 E0
G1 X60 E9 F1000 ; intro line
G1 X100 E12.5 F1000 ; intro line
G92 E0
M221 S95

; Don't change E values below. Excessive value can damage the printer.

M907 E538 ; set extruder motor current
G21 ; set units to millimeters
G90 ; use absolute coordinates
M83 ; use relative distances for extrusion
M900 K0.05 ; Filament gcode LA 1.5
M900 K30 ; Filament gcode LA 1.0
M107
;LAYER_CHANGE
;Z:0.2
;HEIGHT:0.2
;BEFORE_LAYER_CHANGE
G92 E0.0
;0.2


G1 E-.8 F2100
G1 Z.4 F720
;AFTER_LAYER_CHANGE
;0.2
G1 X65.407 Y93.419 F10800
G1 Z.2 F720
G1 E.8 F2100
M204 S800
;TYPE:Skirt/Brim
;WIDTH:0.42
G1 F1200
G1 X67.088 Y92.723 E.05704
G1 X182.912 Y92.723 E3.63161
G1 X184.593 Y93.419 E.05704
G1 X187.581 Y96.407 E.13247
G1 X188.277 Y98.088 E.05704
G1 X188.277 Y111.912 E.43347
G1 X187.581 Y113.593 E.05704
G1 X184.593 Y116.581 E.13247
G1 X182.912 Y117.277 E.05704
G1 X67.088 Y117.277 E3.63161
G1 X65.407 Y116.581 E.05704
G1 X62.419 Y113.593 E.13247
G1 X61.723 Y111.912 E.05704
G1 X61.723 Y98.088 E.43347
G1 X62.419 Y96.407 E.05704
G1 X65.364 Y93.462 E.13059
M204 S1000
;WIPE_START
G1 F8640
G1 X67.088 Y92.723 E-.43292
G1 X68.504 Y92.723 E-.32708
;WIPE_END
G1 E-.04 F2100
G1 Z.6 F720
G1 X66.965 Y95.919 F10800
G1 Z.2 F720
G1 E.8 F2100
M204 S800
G1 F1200
G1 X68.754 Y95.387 E.05853
G1 X181.189 Y95.39 E3.52533
G1 X182.209 Y95.584 E.03256
G1 X183.188 Y96 E.03333
G1 X184.312 Y96.896 E.04508
G1 X185.205 Y98.234 E.05044
G1 X185.614 Y99.784 E.05028
G1 X185.543 Y110.7 E.34226
G1 X185.11 Y111.972 E.04212
G1 X184.453 Y112.948 E.03688
G1 X183.802 Y113.572 E.0283
G1 X183.035 Y114.081 E.02884
G1 X181.246 Y114.613 E.05853
G1 X68.78 Y114.613 E3.52629
G1 X67.295 Y114.233 E.04806
M73 P0 R63
G1 X65.959 Y113.375 E.04979
G1 X65.426 Y112.799 E.02461
G1 X64.997 Y112.195 E.02321
G1 X64.386 Y110.241 E.06422
G1 X64.457 Y99.3 E.34305
G1 X64.89 Y98.028 E.04212
G1 X65.547 Y97.052 E.03688
G1 X66.198 Y96.428 E.0283
G1 X66.915 Y95.952 E.02696
M204 S1000
G1 X67.102 Y96.272 F10800
M204 S800
G1 F1200
G1 X68.782 Y95.764 E.05504
G1 X181.171 Y95.767 E3.52388
G1 X182.117 Y95.95 E.03023
M73 P1 R63
M73 Q1 S64
G1 X183.015 Y96.336 E.03062
G1 X184.053 Y97.171 E.0418
G1 X184.849 Y98.362 E.0449
G1 X185.237 Y99.808 E.04695
G1 X185.176 Y110.609 E.33867
G1 X184.782 Y111.783 E.0388
G1 X184.152 Y112.72 E.03541
G1 X183.553 Y113.288 E.02588
G1 X182.898 Y113.728 E.02475
G1 X181.218 Y114.236 E.05504
G1 X68.805 Y114.236 E3.52465
G1 X67.42 Y113.876 E.04486
G1 X66.22 Y113.101 E.04479
G1 X65.711 Y112.552 E.02347
G1 X65.323 Y112.002 E.02111
G1 X64.763 Y110.214 E.05876
G1 X64.824 Y99.391 E.33935
G1 X65.218 Y98.217 E.0388
G1 X65.848 Y97.28 E.03541
G1 X66.447 Y96.712 E.02588
G1 X67.052 Y96.305 E.02287
M204 S1000
G1 X67.241 Y96.623 F10800
M204 S800
G1 F1200
G1 X68.811 Y96.141 E.05149
G1 X181.152 Y96.144 E3.52239
G1 X182.024 Y96.316 E.02786
G1 X182.84 Y96.671 E.02791
G1 X183.793 Y97.445 E.03848
G1 X184.517 Y98.543 E.04126
G1 X184.859 Y99.831 E.04178
G1 X184.808 Y110.52 E.33515
G1 X184.455 Y111.594 E.03545
G1 X183.851 Y112.491 E.0339
G1 X183.306 Y113.003 E.02346
G1 X182.759 Y113.377 E.02076
G1 X181.19 Y113.859 E.05149
G1 X68.828 Y113.859 E3.52301
G1 X67.597 Y113.542 E.03986
M73 Q1 S63
G1 X66.48 Y112.827 E.0416
G1 X65.996 Y112.305 E.0223
G1 X65.648 Y111.81 E.019
G1 X65.14 Y110.186 E.05333
G1 X65.192 Y99.48 E.33569
G1 X65.545 Y98.406 E.03545
G1 X66.149 Y97.509 E.0339
G1 X66.694 Y96.997 E.02346
G1 X67.191 Y96.657 E.01888
M204 S1000
G1 X67.382 Y96.974 F10800
M204 S800
G1 F1200
G1 X68.84 Y96.518 E.04788
G1 X181.133 Y96.521 E3.52088
G1 X181.929 Y96.681 E.02545
G1 X182.664 Y97.005 E.02518
G1 X183.53 Y97.717 E.03516
G1 X184.185 Y98.723 E.03763
G1 X184.482 Y99.854 E.03668
G1 X184.441 Y110.433 E.33169
G1 X184.127 Y111.406 E.03207
G1 X183.551 Y112.262 E.03235
G1 X183.059 Y112.718 E.02103
G1 X182.618 Y113.026 E.01687
G1 X181.16 Y113.482 E.04788
G1 X68.853 Y113.482 E3.52132
G1 X67.723 Y113.185 E.03665
G1 X66.74 Y112.554 E.03661
G1 X66.282 Y112.059 E.02115
G1 X65.974 Y111.618 E.01687
G1 X65.518 Y110.159 E.04793
G1 X65.559 Y99.567 E.33209
G1 X65.873 Y98.594 E.03207
G1 X66.449 Y97.738 E.03235
G1 X66.941 Y97.282 E.02103
G1 X67.333 Y97.008 E.01499
M204 S1000
G1 X67.548 Y97.318 F10800
M204 S800
G1 F1200
G1 X68.868 Y96.895 E.04347
G1 X181.114 Y96.898 E3.5194
G1 X181.796 Y97.035 E.02178
M73 P2 R63
M73 Q2 S63
G1 X182.487 Y97.339 E.02369
G1 X183.267 Y97.988 E.03181
G1 X183.829 Y98.85 E.03225
G1 X184.105 Y99.879 E.0334
G1 X184.073 Y110.345 E.32816
G1 X183.776 Y111.265 E.03031
G1 X183.279 Y112 E.02783
G1 X182.813 Y112.432 E.01994
G1 X182.427 Y112.7 E.01473
G1 X181.132 Y113.105 E.04254
G1 X68.877 Y113.105 E3.51968
G1 X67.899 Y112.851 E.03167
G1 X67 Y112.279 E.03341
G1 X66.568 Y111.813 E.01994
G1 X66.3 Y111.427 E.01473
G1 X65.895 Y110.131 E.04257
G1 X65.927 Y99.655 E.32846
G1 X66.224 Y98.735 E.03031
G1 X66.721 Y98 E.02783
G1 X67.187 Y97.568 E.01994
G1 X67.499 Y97.352 E.01187
M204 S1000
G1 X67.712 Y97.662 F10800
M204 S800
G1 F1200
G1 X67.763 Y97.627 E.00196
G1 X68.897 Y97.272 E.03724
G1 X181.095 Y97.276 E3.51788
G1 X181.699 Y97.4 E.01933
M73 P2 R62
G1 X182.308 Y97.672 E.02093
G1 X183.001 Y98.257 E.02843
G1 X183.495 Y99.028 E.0287
G1 X183.728 Y99.902 E.02838
G1 X183.704 Y110.26 E.32475
G1 X183.447 Y111.079 E.02692
G1 X183.006 Y111.739 E.02489
G1 X182.567 Y112.146 E.01878
G1 X182.237 Y112.373 E.01256
G1 X181.103 Y112.728 E.03724
G1 X68.902 Y112.728 E3.51799
G1 X68.025 Y112.494 E.02845
G1 X67.26 Y112.005 E.02846
G1 X66.854 Y111.567 E.01876
G1 X66.627 Y111.237 E.01256
G1 X66.272 Y110.103 E.03725
G1 X66.296 Y99.74 E.32491
G1 X66.553 Y98.921 E.02692
G1 X66.994 Y98.261 E.02489
G1 X67.433 Y97.854 E.01878
G1 X67.663 Y97.696 E.00872
M204 S1000
G1 X67.874 Y98.007 F10800
M204 S800
G1 F1200
G1 X67.952 Y97.954 E.00296
G1 X68.926 Y97.649 E.03198
G1 X181.074 Y97.653 E3.51634
G1 X181.599 Y97.764 E.01682
G1 X182.127 Y98.004 E.01817
G1 X182.734 Y98.525 E.0251
G1 X183.139 Y99.156 E.02351
G1 X183.351 Y99.928 E.02511
G1 X183.336 Y110.177 E.32136
G1 X183.117 Y110.895 E.02353
G1 X182.733 Y111.478 E.02189
G1 X182.321 Y111.86 E.0176
G1 X182.048 Y112.046 E.01037
G1 X181.074 Y112.351 E.03198
G1 X68.928 Y112.351 E3.51627
G1 X68.154 Y112.139 E.02517
G1 X67.521 Y111.732 E.02358
G1 X67.14 Y111.321 E.01756
G1 X66.954 Y111.048 E.01037
G1 X66.649 Y110.074 E.03199
G1 X66.664 Y99.823 E.32143
G1 X66.883 Y99.105 E.02353
G1 X67.267 Y98.522 E.02189
G1 X67.679 Y98.14 E.0176
G1 X67.825 Y98.041 E.00553
M204 S1000
G1 X68.034 Y98.353 F10800
M204 S800
G1 F1200
G1 X68.14 Y98.282 E.00398
G1 X68.955 Y98.026 E.02679
G1 X181.053 Y98.03 E3.51477
G1 X181.497 Y98.127 E.01424
M73 P3 R62
M73 Q3 S62
G1 X181.943 Y98.334 E.01541
G1 X182.466 Y98.791 E.02178
G1 X182.785 Y99.286 E.01847
G1 X182.974 Y99.955 E.02179
G1 X182.966 Y110.098 E.31802
G1 X182.785 Y110.715 E.02017
G1 X182.459 Y111.218 E.01881
G1 X182.076 Y111.573 E.01636
G1 X181.86 Y111.718 E.00814
G1 X181.045 Y111.974 E.02678
G1 X68.955 Y111.974 E3.51452
G1 X68.285 Y111.784 E.02184
G1 X67.782 Y111.459 E.01878
G1 X67.427 Y111.076 E.01636
G1 X67.282 Y110.86 E.00814
G1 X67.026 Y110.046 E.02678
G1 X67.034 Y99.902 E.31803
G1 X67.215 Y99.285 E.02017
G1 X67.541 Y98.782 E.01881
G1 X67.985 Y98.387 E.01862
M204 S1000
G1 X68.191 Y98.7 F10800
M204 S800
G1 F1200
G1 X68.325 Y98.612 E.00502
G1 X68.984 Y98.403 E.02167
G1 X181.031 Y98.407 E3.51316
G1 X181.391 Y98.49 E.01157
G1 X181.756 Y98.662 E.01266
G1 X182.196 Y99.054 E.01848
G1 X182.431 Y99.42 E.01362
G1 X182.597 Y99.983 E.01841
G1 X182.597 Y110.017 E.31462
G1 X182.431 Y110.581 E.01844
G1 X182.186 Y110.957 E.01407
G1 X181.832 Y111.285 E.01513
G1 X181.675 Y111.388 E.00588
G1 X181.016 Y111.597 E.02167
G1 X68.983 Y111.597 E3.51273
G1 X68.419 Y111.431 E.01844
G1 X68.043 Y111.186 E.01407
G1 X67.715 Y110.832 E.01513
G1 X67.612 Y110.675 E.00588
G1 X67.403 Y110.016 E.02167
G1 X67.403 Y99.983 E.31459
G1 X67.569 Y99.419 E.01844
G1 X67.814 Y99.043 E.01407
G1 X68.145 Y98.737 E.01411
M204 S1000
G1 X68.401 Y99.014 F10800
M204 S800
G1 F1200
G1 X68.507 Y98.943 E.00401
G1 X69.013 Y98.78 E.01667
G1 X181.009 Y98.784 E3.51155
G1 X181.247 Y98.839 E.00767
G1 X181.568 Y98.991 E.01111
G1 X181.923 Y99.315 E.01508
G1 X182.079 Y99.557 E.00902
G1 X182.22 Y100.012 E.01495
G1 X182.22 Y109.988 E.31277
G1 X182.079 Y110.443 E.01495
G1 X181.913 Y110.696 E.00948
G1 X181.588 Y110.996 E.01387
G1 X181.493 Y111.057 E.00355
G1 X180.987 Y111.22 E.01667
G1 X69.012 Y111.22 E3.51087
G1 X68.557 Y111.079 E.01495
G1 X68.304 Y110.913 E.00948
G1 X68.004 Y110.588 E.01387
G1 X67.943 Y110.493 E.00355
G1 X67.78 Y109.987 E.01667
G1 X67.78 Y100.012 E.31274
G1 X67.921 Y99.557 E.01495
M73 P3 R61
G1 X68.087 Y99.304 E.00948
G1 X68.357 Y99.055 E.01153
M204 S1000
G1 X68.613 Y99.331 F10800
M204 S800
G1 F1200
G1 X68.683 Y99.276 E.00278
G1 X69.044 Y99.157 E.01193
G1 X180.987 Y99.161 E3.50989
G1 X181.104 Y99.188 E.00377
M73 P4 R61
M73 Q4 S62
G1 X181.378 Y99.318 E.0095
G1 X181.647 Y99.573 E.0116
G1 X181.73 Y99.7 E.00476
G1 X181.843 Y100.044 E.01136
G1 X181.843 Y109.956 E.31078
G1 X181.73 Y110.299 E.01134
G1 X181.64 Y110.434 E.00506
G1 X181.317 Y110.724 E.01361
G1 X180.956 Y110.843 E.01193
G1 X69.044 Y110.843 E3.50891
G1 X68.701 Y110.73 E.01134
G1 X68.566 Y110.64 E.00506
G1 X68.276 Y110.317 E.01361
G1 X68.157 Y109.956 E.01193
G1 X68.157 Y100.044 E.31078
G1 X68.27 Y99.701 E.01134
G1 X68.36 Y99.566 E.00506
G1 X68.569 Y99.372 E.00896
M204 S1000
G1 X68.825 Y99.649 F10800
M204 S800
G1 F1200
G1 X68.866 Y99.611 E.00175
G1 X69.079 Y99.534 E.00709
G1 X180.935 Y99.534 E3.50716
G1 X181.185 Y99.644 E.00856
G1 X181.366 Y99.825 E.00802
G1 X181.466 Y100.079 E.00856
G1 X181.466 Y109.921 E.30858
G1 X181.368 Y110.172 E.00845
G1 X181.134 Y110.389 E.01002
G1 X180.921 Y110.466 E.00709
G1 X69.079 Y110.466 E3.50672
G1 X68.828 Y110.368 E.00845
G1 X68.611 Y110.134 E.01002
G1 X68.534 Y109.921 E.00709
G1 X68.534 Y100.079 E.30858
G1 X68.616 Y99.852 E.00757
M73 Q4 S61
G1 X68.781 Y99.689 E.00727
M204 S1000
G1 X69.042 Y99.95 F10800
M204 S800
G1 F1200
G1 X69.121 Y99.911 E.00276
G1 X180.879 Y99.911 E3.50409
G1 X180.948 Y99.94 E.00235
G1 X181.06 Y100.052 E.00495
G1 X181.089 Y100.121 E.00235
G1 X181.089 Y109.879 E.30595
G1 X181.06 Y109.948 E.00235
G1 X180.948 Y110.06 E.00495
G1 X180.879 Y110.089 E.00235
G1 X69.121 Y110.089 E3.50409
G1 X69.052 Y110.06 E.00235
G1 X68.94 Y109.948 E.00495
G1 X68.911 Y109.879 E.00235
G1 X68.911 Y100.121 E.30595
G1 X68.94 Y100.052 E.00235
G1 X69 Y99.992 E.00263
M204 S1000
; printing object camera-stand.stl id:0 copy 0
G1 X69.41 Y100.41 F10800
M204 S800
;TYPE:External perimeter
G1 F1200
G1 X180.59 Y100.41 E3.48597
G1 X180.59 Y109.59 E.28783
M73 P5 R61
M73 Q5 S61
G1 X69.41 Y109.59 E3.48597
G1 X69.41 Y100.47 E.28595
M204 S1000
G1 X69.81 Y100.421 F10800
;WIPE_START
G1 F8640
G1 X72.701 Y100.468 E-.76
;WIPE_END
G1 E-.04 F2100
G1 Z.6 F720
G1 X180.213 Y109.213 F10800
G1 Z.2 F720
G1 E.8 F2100
M204 S800
;TYPE:Perimeter
G1 F1200
G1 X69.787 Y109.213 E3.46232
G1 X69.787 Y100.787 E.26419
G1 X180.213 Y100.787 E3.46232
G1 X180.213 Y109.153 E.26231
M204 S1000
;WIPE_START
M73 P5 R60
G1 F8640
G1 X176.921 Y109.155 E-.76
;WIPE_END
G1 E-.04 F2100
G1 Z.6 F720
G1 X179.337 Y100.9 F10800
G1 Z.2 F720
G1 E.8 F2100
M204 S800
;TYPE:Solid infill
;WIDTH:0.420281
G1 F1200
G1 X179.93 Y101.493 E.02632
G1 X179.93 Y102.027 E.01675
G1 X178.973 Y101.07 E.04247
G1 X178.439 Y101.07 E.01675
G1 X179.93 Y102.561 E.06616
G1 X179.93 Y103.094 E.01675
G1 X177.906 Y101.07 E.08984
G1 X177.372 Y101.07 E.01675
G1 X179.93 Y103.628 E.11352
G1 X179.93 Y104.162 E.01675
G1 X176.838 Y101.07 E.1372
G1 X176.305 Y101.07 E.01675
G1 X179.93 Y104.695 E.16088
G1 X179.93 Y105.229 E.01675
G1 X175.771 Y101.07 E.18456
G1 X175.237 Y101.07 E.01675
G1 X179.93 Y105.763 E.20824
G1 X179.93 Y106.296 E.01675
G1 X174.704 Y101.07 E.23193
G1 X174.17 Y101.07 E.01675
G1 X179.93 Y106.83 E.25561
G1 X179.93 Y107.364 E.01675
G1 X173.636 Y101.07 E.27929
G1 X173.103 Y101.07 E.01675
G1 X179.93 Y107.897 E.30297
G1 X179.93 Y108.431 E.01675
G1 X172.569 Y101.07 E.32665
G1 X172.035 Y101.07 E.01675
G1 X179.896 Y108.93 E.3488
G1 X179.362 Y108.93 E.01675
G1 X171.502 Y101.07 E.3488
G1 X170.968 Y101.07 E.01675
G1 X178.828 Y108.93 E.3488
G1 X178.295 Y108.93 E.01675
G1 X170.434 Y101.07 E.3488
G1 X169.901 Y101.07 E.01675
G1 X177.761 Y108.93 E.3488
G1 X177.227 Y108.93 E.01675
G1 X169.367 Y101.07 E.3488
G1 X168.833 Y101.07 E.01675
G1 X176.693 Y108.93 E.3488
G1 X176.16 Y108.93 E.01675
G1 X168.3 Y101.07 E.3488
G1 X167.766 Y101.07 E.01675
G1 X175.626 Y108.93 E.3488
G1 X175.092 Y108.93 E.01675
G1 X167.232 Y101.07 E.3488
G1 X166.699 Y101.07 E.01675
G1 X174.559 Y108.93 E.3488
G1 X174.025 Y108.93 E.01675
G1 X166.165 Y101.07 E.3488
G1 X165.631 Y101.07 E.01675
G1 X173.491 Y108.93 E.3488
G1 X172.958 Y108.93 E.01675
G1 X165.098 Y101.07 E.3488
G1 X164.564 Y101.07 E.01675
G1 X172.424 Y108.93 E.3488
G1 X171.89 Y108.93 E.01675
G1 X164.03 Y101.07 E.3488
G1 X163.497 Y101.07 E.01675
G1 X171.357 Y108.93 E.3488
G1 X170.823 Y108.93 E.01675
G1 X162.963 Y101.07 E.3488
G1 X162.429 Y101.07 E.01675
G1 X170.289 Y108.93 E.3488
G1 X169.756 Y108.93 E.01675
G1 X161.896 Y101.07 E.3488
G1 X161.362 Y101.07 E.01675
G1 X169.222 Y108.93 E.3488
M73 P6 R60
G1 X168.688 Y108.93 E.01675
G1 X160.828 Y101.07 E.3488
G1 X160.295 Y101.07 E.01675
M73 Q6 S61
G1 X168.155 Y108.93 E.3488
G1 X167.621 Y108.93 E.01675
G1 X159.761 Y101.07 E.3488
G1 X159.227 Y101.07 E.01675
G1 X167.087 Y108.93 E.3488
G1 X166.554 Y108.93 E.01675
G1 X158.694 Y101.07 E.3488
G1 X158.16 Y101.07 E.01675
G1 X166.02 Y108.93 E.3488
G1 X165.486 Y108.93 E.01675
G1 X157.626 Y101.07 E.3488
G1 X157.093 Y101.07 E.01675
G1 X164.953 Y108.93 E.3488
G1 X164.419 Y108.93 E.01675
M73 Q6 S60
G1 X156.559 Y101.07 E.3488
G1 X156.025 Y101.07 E.01675
G1 X163.885 Y108.93 E.3488
G1 X163.352 Y108.93 E.01675
G1 X155.492 Y101.07 E.3488
G1 X154.958 Y101.07 E.01675
G1 X162.818 Y108.93 E.3488
G1 X162.284 Y108.93 E.01675
G1 X154.424 Y101.07 E.3488
G1 X153.891 Y101.07 E.01675
G1 X161.751 Y108.93 E.3488
G1 X161.217 Y108.93 E.01675
G1 X153.357 Y101.07 E.3488
G1 X152.823 Y101.07 E.01675
G1 X160.683 Y108.93 E.3488
G1 X160.15 Y108.93 E.01675
G1 X152.29 Y101.07 E.3488
G1 X151.756 Y101.07 E.01675
G1 X159.616 Y108.93 E.3488
G1 X159.082 Y108.93 E.01675
G1 X151.222 Y101.07 E.3488
G1 X150.689 Y101.07 E.01675
G1 X158.549 Y108.93 E.3488
G1 X158.015 Y108.93 E.01675
G1 X150.155 Y101.07 E.3488
G1 X149.621 Y101.07 E.01675
G1 X157.481 Y108.93 E.3488
G1 X156.948 Y108.93 E.01675
G1 X149.087 Y101.07 E.3488
G1 X148.554 Y101.07 E.01675
G1 X156.414 Y108.93 E.3488
G1 X155.88 Y108.93 E.01675
G1 X148.02 Y101.07 E.3488
G1 X147.486 Y101.07 E.01675
G1 X155.347 Y108.93 E.3488
G1 X154.813 Y108.93 E.01675
G1 X146.953 Y101.07 E.3488
G1 X146.419 Y101.07 E.01675
G1 X154.279 Y108.93 E.3488
G1 X153.746 Y108.93 E.01675
G1 X145.885 Y101.07 E.3488
G1 X145.352 Y101.07 E.01675
G1 X153.212 Y108.93 E.3488
G1 X152.678 Y108.93 E.01675
G1 X144.818 Y101.07 E.3488
G1 X144.284 Y101.07 E.01675
G1 X152.145 Y108.93 E.3488
G1 X151.611 Y108.93 E.01675
G1 X143.751 Y101.07 E.3488
G1 X143.217 Y101.07 E.01675
G1 X151.077 Y108.93 E.3488
