; generated by PrusaSlicer 2.4.1+x64 on 2022-07-12 at 19:43:16 UTC

; 

; external perimeters extrusion width = 0.60mm
; perimeters extrusion width = 0.50mm
; infill extrusion width = 0.50mm
; solid infill extrusion width = 0.50mm
; top infill extrusion width = 0.45mm
; first layer extrusion width = 0.42mm

M73 P0 R253
M73 Q0 S255
M201 X1000 Y1000 Z200 E5000 ; sets maximum accelerations, mm/sec^2
M203 X200 Y200 Z12 E120 ; sets maximum feedrates, mm / sec
M204 P1250 R1250 T1250 ; sets acceleration (P, T) and retract acceleration (R), mm/sec^2
M205 X8.00 Y8.00 Z0.40 E4.50 ; sets the jerk limits, mm/sec
M205 S0 T0 ; sets the minimum extruding and travel feed rate, mm/sec
M107
;TYPE:Custom
M862.3 P "MK3S" ; printer model check
M862.1 P0.4 ; nozzle diameter check
M115 U3.10.1 ; tell printer latest fw version
G90 ; use absolute coordinates
M83 ; extruder relative mode
M104 S215 ; set extruder temp
M140 S60 ; set bed temp
M190 S60 ; wait for bed temp
M109 S215 ; wait for extruder temp
G28 W ; home all without mesh bed level
G80 ; mesh bed leveling
G1 Z0.2 F720
G1 Y-3 F1000 ; go outside print area
G92 E0
G1 X60 E9 F1000 ; intro line
G1 X100 E12.5 F1000 ; intro line
G92 E0
M221 S95

; Don't change E values below. Excessive value can damage the printer.

M907 E538 ; set extruder motor current
G21 ; set units to millimeters
G90 ; use absolute coordinates
M83 ; use relative distances for extrusion
M900 K0.05 ; Filament gcode LA 1.5
M900 K30 ; Filament gcode LA 1.0
M107
;LAYER_CHANGE
;Z:0.2
;HEIGHT:0.2
;BEFORE_LAYER_CHANGE
G92 E0.0
;0.2


G1 E-.8 F2100
G1 Z.4 F720
;AFTER_LAYER_CHANGE
;0.2
G1 X67.415 Y68.343 F10800
G1 Z.2 F720
G1 E.8 F2100
M204 S800
;TYPE:Skirt/Brim
;WIDTH:0.42
G1 F1200
G1 X68.46 Y67.467 E.04278
G1 X69.4 Y67.273 E.03008
G1 X180.6 Y67.273 E3.4866
G1 X181.907 Y67.665 E.04278
G1 X182.783 Y68.71 E.04278
G1 X182.977 Y69.65 E.03008
G1 X182.977 Y140.35 E2.21675
G1 X182.585 Y141.657 E.04278
M73 Q0 S254
G1 X181.54 Y142.533 E.04278
G1 X180.6 Y142.727 E.03008
G1 X69.4 Y142.727 E3.4866
G1 X68.093 Y142.335 E.04278
G1 X67.217 Y141.29 E.04278
G1 X67.023 Y140.35 E.03008
G1 X67.023 Y69.65 E2.21675
G1 X67.397 Y68.4 E.0409
M204 S1000
; printing object camera-stand.stl id:0 copy 0
;WIPE_START
G1 F8640
G1 X68.46 Y67.467 E-.32671
G1 X69.4 Y67.273 E-.22155
G1 X70.317 Y67.273 E-.21174
;WIPE_END
G1 E-.04 F2100
G1 Z.6 F720
G1 X150.187 Y116.437 F10800
G1 Z.2 F720
G1 E.8 F2100
M204 S800
;TYPE:Perimeter
G1 F1200
G1 X179.813 Y116.437 E.9289
G1 X179.813 Y139.563 E.72509
G1 X150.187 Y139.563 E.9289
G1 X150.187 Y116.497 E.72321
M204 S1000
G1 X149.81 Y116.06 F10800
M204 S800
;TYPE:External perimeter
G1 F1200
G1 X180.19 Y116.06 E.95254
G1 X180.19 Y139.94 E.74874
G1 X149.81 Y139.94 E.95254
G1 X149.81 Y116.12 E.74686
M204 S1000
G1 X150.2 Y116.148 F10800
;WIPE_START
G1 F8640
G1 X153.101 Y116.113 E-.76
;WIPE_END
G1 E-.04 F2100
G1 Z.6 F720
G1 X178.936 Y116.55 F10800
G1 Z.2 F720
G1 E.8 F2100
M204 S800
;TYPE:Solid infill
;WIDTH:0.420822
G1 F1200
G1 X179.53 Y117.145 E.02641
G1 X179.53 Y117.679 E.01679
G1 X178.571 Y116.72 E.04262
G1 X178.037 Y116.72 E.01679
G1 X179.53 Y118.213 E.06637
G1 X179.53 Y118.748 E.01679
G1 X177.502 Y116.72 E.09012
G1 X176.968 Y116.72 E.01679
G1 X179.53 Y119.282 E.11387
G1 X179.53 Y119.817 E.01679
G1 X176.433 Y116.72 E.13762
G1 X175.899 Y116.72 E.01679
G1 X179.53 Y120.351 E.16137
G1 X179.53 Y120.886 E.01679
G1 X175.364 Y116.72 E.18512
G1 X174.83 Y116.72 E.01679
G1 X179.53 Y121.42 E.20887
G1 X179.53 Y121.954 E.01679
G1 X174.296 Y116.72 E.23262
G1 X173.761 Y116.72 E.01679
G1 X179.53 Y122.489 E.25636
G1 X179.53 Y123.023 E.01679
G1 X173.227 Y116.72 E.28011
G1 X172.692 Y116.72 E.01679
G1 X179.53 Y123.558 E.30386
G1 X179.53 Y124.092 E.01679
G1 X172.158 Y116.72 E.32761
G1 X171.623 Y116.72 E.01679
G1 X179.53 Y124.627 E.35136
G1 X179.53 Y125.161 E.01679
G1 X171.089 Y116.72 E.37511
G1 X170.555 Y116.72 E.01679
G1 X179.53 Y125.695 E.39886
G1 X179.53 Y126.23 E.01679
M73 P0 R252
G1 X170.02 Y116.72 E.42261
G1 X169.486 Y116.72 E.01679
G1 X179.53 Y126.764 E.44636
G1 X179.53 Y127.299 E.01679
G1 X168.951 Y116.72 E.47011
G1 X168.417 Y116.72 E.01679
G1 X179.53 Y127.833 E.49386
G1 X179.53 Y128.368 E.01679
G1 X167.882 Y116.72 E.51761
G1 X167.348 Y116.72 E.01679
G1 X179.53 Y128.902 E.54136
G1 X179.53 Y129.436 E.01679
G1 X166.814 Y116.72 E.56511
G1 X166.279 Y116.72 E.01679
G1 X179.53 Y129.971 E.58886
G1 X179.53 Y130.505 E.01679
G1 X165.745 Y116.72 E.61261
G1 X165.21 Y116.72 E.01679
G1 X179.53 Y131.04 E.63635
G1 X179.53 Y131.574 E.01679
G1 X164.676 Y116.72 E.6601
G1 X164.141 Y116.72 E.01679
G1 X179.53 Y132.109 E.68385
G1 X179.53 Y132.643 E.01679
G1 X163.607 Y116.72 E.7076
G1 X163.072 Y116.72 E.01679
G1 X179.53 Y133.178 E.73135
G1 X179.53 Y133.712 E.01679
G1 X162.538 Y116.72 E.7551
G1 X162.004 Y116.72 E.01679
G1 X179.53 Y134.246 E.77885
G1 X179.53 Y134.781 E.01679
G1 X161.469 Y116.72 E.8026
G1 X160.935 Y116.72 E.01679
G1 X179.53 Y135.315 E.82635
G1 X179.53 Y135.85 E.01679
G1 X160.4 Y116.72 E.8501
G1 X159.866 Y116.72 E.01679
G1 X179.53 Y136.384 E.87385
G1 X179.53 Y136.919 E.01679
G1 X159.331 Y116.72 E.8976
G1 X158.797 Y116.72 E.01679
G1 X179.53 Y137.453 E.92135
G1 X179.53 Y137.987 E.01679
G1 X158.263 Y116.72 E.9451
G1 X157.728 Y116.72 E.01679
G1 X179.53 Y138.522 E.96885
G1 X179.53 Y139.056 E.01679
G1 X157.194 Y116.72 E.9926
G1 X156.659 Y116.72 E.01679
G1 X179.22 Y139.28 E1.00254
G1 X178.685 Y139.28 E.01679
G1 X156.125 Y116.72 E1.00254
G1 X155.59 Y116.72 E.01679
M73 Q0 S253
G1 X178.151 Y139.28 E1.00254
G1 X177.616 Y139.28 E.01679
G1 X155.056 Y116.72 E1.00254
G1 X154.522 Y116.72 E.01679
G1 X177.082 Y139.28 E1.00254
G1 X176.547 Y139.28 E.01679
G1 X153.987 Y116.72 E1.00254
G1 X153.453 Y116.72 E.01679
G1 X176.013 Y139.28 E1.00254
G1 X175.478 Y139.28 E.01679
G1 X152.918 Y116.72 E1.00254
G1 X152.384 Y116.72 E.01679
G1 X174.944 Y139.28 E1.00254
G1 X174.41 Y139.28 E.01679
G1 X151.849 Y116.72 E1.00254
G1 X151.315 Y116.72 E.01679
G1 X173.875 Y139.28 E1.00254
G1 X173.341 Y139.28 E.01679
G1 X150.78 Y116.72 E1.00254
G1 X150.47 Y116.72 E.00976
G1 X150.47 Y116.944 E.00703
G1 X172.806 Y139.28 E.9926
G1 X172.272 Y139.28 E.01679
G1 X150.47 Y117.478 E.96885
G1 X150.47 Y118.013 E.01679
G1 X171.737 Y139.28 E.9451
G1 X171.203 Y139.28 E.01679
G1 X150.47 Y118.547 E.92135
G1 X150.47 Y119.081 E.01679
G1 X170.669 Y139.28 E.8976
G1 X170.134 Y139.28 E.01679
G1 X150.47 Y119.616 E.87385
G1 X150.47 Y120.15 E.01679
G1 X169.6 Y139.28 E.8501
G1 X169.065 Y139.28 E.01679
G1 X150.47 Y120.685 E.82635
G1 X150.47 Y121.219 E.01679
M73 P0 R251
G1 X168.531 Y139.28 E.8026
G1 X167.996 Y139.28 E.01679
G1 X150.47 Y121.754 E.77885
G1 X150.47 Y122.288 E.01679
G1 X167.462 Y139.28 E.7551
G1 X166.928 Y139.28 E.01679
G1 X150.47 Y122.822 E.73135
G1 X150.47 Y123.357 E.01679
G1 X166.393 Y139.28 E.7076
G1 X165.859 Y139.28 E.01679
G1 X150.47 Y123.891 E.68385
G1 X150.47 Y124.426 E.01679
G1 X165.324 Y139.28 E.6601
G1 X164.79 Y139.28 E.01679
G1 X150.47 Y124.96 E.63635
G1 X150.47 Y125.495 E.01679
G1 X164.255 Y139.28 E.61261
G1 X163.721 Y139.28 E.01679
G1 X150.47 Y126.029 E.58886
G1 X150.47 Y126.564 E.01679
G1 X163.186 Y139.28 E.56511
G1 X162.652 Y139.28 E.01679
G1 X150.47 Y127.098 E.54136
G1 X150.47 Y127.632 E.01679
G1 X162.118 Y139.28 E.51761
G1 X161.583 Y139.28 E.01679
G1 X150.47 Y128.167 E.49386
G1 X150.47 Y128.701 E.01679
G1 X161.049 Y139.28 E.47011
G1 X160.514 Y139.28 E.01679
G1 X150.47 Y129.236 E.44636
G1 X150.47 Y129.77 E.01679
G1 X159.98 Y139.28 E.42261
G1 X159.445 Y139.28 E.01679
G1 X150.47 Y130.305 E.39886
G1 X150.47 Y130.839 E.01679
G1 X158.911 Y139.28 E.37511
G1 X158.377 Y139.28 E.01679
G1 X150.47 Y131.373 E.35136
G1 X150.47 Y131.908 E.01679
G1 X157.842 Y139.28 E.32761
G1 X157.308 Y139.28 E.01679
G1 X150.47 Y132.442 E.30386
G1 X150.47 Y132.977 E.01679
G1 X156.773 Y139.28 E.28011
G1 X156.239 Y139.28 E.01679
G1 X150.47 Y133.511 E.25636
G1 X150.47 Y134.046 E.01679
G1 X155.704 Y139.28 E.23261
G1 X155.17 Y139.28 E.01679
G1 X150.47 Y134.58 E.20887
G1 X150.47 Y135.114 E.01679
G1 X154.636 Y139.28 E.18512
G1 X154.101 Y139.28 E.01679
G1 X150.47 Y135.649 E.16137
G1 X150.47 Y136.183 E.01679
G1 X153.567 Y139.28 E.13762
G1 X153.032 Y139.28 E.01679
G1 X150.47 Y136.718 E.11387
G1 X150.47 Y137.252 E.01679
G1 X152.498 Y139.28 E.09012
G1 X151.963 Y139.28 E.01679
G1 X150.47 Y137.787 E.06637
G1 X150.47 Y138.321 E.01679
G1 X151.429 Y139.28 E.04262
G1 X150.895 Y139.28 E.01679
G1 X150.3 Y138.686 E.02641
M204 S1000
;WIPE_START
G1 F8640
G1 X150.895 Y139.28 E-.19408
G1 X151.429 Y139.28 E-.1234
G1 X150.47 Y138.321 E-.31318
G1 X150.47 Y137.787 E-.1234
G1 X150.488 Y137.805 E-.00594
;WIPE_END
G1 E-.04 F2100
G1 Z.6 F720
G1 X100.187 Y131.337 F10800
G1 Z.2 F720
G1 E.8 F2100
M204 S800
;TYPE:Perimeter
;WIDTH:0.42
G1 F1200
G1 X100.187 Y116.437 E.46718
G1 X108.613 Y116.437 E.26419
G1 X108.613 Y139.563 E.72509
G1 X70.187 Y139.563 E1.20482
G1 X70.187 Y131.337 E.25792
G1 X100.127 Y131.337 E.93875
M204 S1000
G1 X99.81 Y130.96 F10800
M204 S800
;TYPE:External perimeter
M73 Q0 S252
G1 F1200
G1 X99.81 Y116.06 E.46718
G1 X108.99 Y116.06 E.28783
G1 X108.99 Y139.94 E.74874
G1 X69.81 Y139.94 E1.22846
G1 X69.81 Y130.96 E.28156
G1 X99.75 Y130.96 E.93875
M204 S1000
G1 X100.208 Y130.921 F10800
;WIPE_START
G1 F8640
G1 X99.763 Y127.669 E-.76
;WIPE_END
G1 E-.04 F2100
G1 Z.6 F720
G1 X107.733 Y116.55 F10800
G1 Z.2 F720
G1 E.8 F2100
M204 S800
;TYPE:Solid infill
;WIDTH:0.422367
G1 F1200
G1 X108.33 Y117.148 E.02667
G1 X108.33 Y117.684 E.01693
G1 X107.366 Y116.72 E.04304
G1 X106.829 Y116.72 E.01693
G1 X108.33 Y118.221 E.06698
G1 X108.33 Y118.758 E.01693
G1 X106.292 Y116.72 E.09093
G1 X105.756 Y116.72 E.01693
G1 X108.33 Y119.294 E.11487
G1 X108.33 Y119.831 E.01693
G1 X105.219 Y116.72 E.13881
G1 X104.682 Y116.72 E.01693
G1 X108.33 Y120.368 E.16276
G1 X108.33 Y120.904 E.01693
G1 X104.146 Y116.72 E.1867
G1 X103.609 Y116.72 E.01693
G1 X108.33 Y121.441 E.21065
G1 X108.33 Y121.977 E.01693
G1 X103.073 Y116.72 E.23459
G1 X102.536 Y116.72 E.01693
G1 X108.33 Y122.514 E.25853
G1 X108.33 Y123.051 E.01693
G1 X101.999 Y116.72 E.28248
G1 X101.463 Y116.72 E.01693
G1 X108.33 Y123.587 E.30642
G1 X108.33 Y124.124 E.01693
G1 X100.926 Y116.72 E.33037
G1 X100.47 Y116.72 E.0144
G1 X100.47 Y116.8 E.00253
G1 X108.33 Y124.66 E.35073
G1 X108.33 Y125.197 E.01693
G1 X100.47 Y117.337 E.35073
G1 X100.47 Y117.873 E.01693
G1 X108.33 Y125.734 E.35073
G1 X108.33 Y126.27 E.01693
G1 X100.47 Y118.41 E.35073
G1 X100.47 Y118.947 E.01693
G1 X108.33 Y126.807 E.35073
G1 X108.33 Y127.344 E.01693
G1 X100.47 Y119.483 E.35073
G1 X100.47 Y120.02 E.01693
G1 X108.33 Y127.88 E.35073
G1 X108.33 Y128.417 E.01693
G1 X100.47 Y120.557 E.35073
G1 X100.47 Y121.093 E.01693
G1 X108.33 Y128.953 E.35073
G1 X108.33 Y129.49 E.01693
M73 P1 R251
M73 Q1 S252
G1 X100.47 Y121.63 E.35073
G1 X100.47 Y122.166 E.01693
G1 X108.33 Y130.027 E.35073
G1 X108.33 Y130.563 E.01693
G1 X100.47 Y122.703 E.35073
G1 X100.47 Y123.24 E.01693
G1 X108.33 Y131.1 E.35073
G1 X108.33 Y131.637 E.01693
G1 X100.47 Y123.776 E.35073
G1 X100.47 Y124.313 E.01693
G1 X108.33 Y132.173 E.35073
G1 X108.33 Y132.71 E.01693
G1 X100.47 Y124.849 E.35073
G1 X100.47 Y125.386 E.01693
G1 X108.33 Y133.246 E.35073
G1 X108.33 Y133.783 E.01693
G1 X100.47 Y125.923 E.35073
G1 X100.47 Y126.459 E.01693
G1 X108.33 Y134.32 E.35073
G1 X108.33 Y134.856 E.01693
G1 X100.47 Y126.996 E.35073
G1 X100.47 Y127.533 E.01693
G1 X108.33 Y135.393 E.35073
G1 X108.33 Y135.929 E.01693
G1 X100.47 Y128.069 E.35073
G1 X100.47 Y128.606 E.01693
G1 X108.33 Y136.466 E.35073
G1 X108.33 Y137.003 E.01693
G1 X100.47 Y129.142 E.35073
G1 X100.47 Y129.679 E.01693
G1 X108.33 Y137.539 E.35073
G1 X108.33 Y138.076 E.01693
G1 X100.47 Y130.216 E.35073
G1 X100.47 Y130.752 E.01693
G1 X108.33 Y138.613 E.35073
G1 X108.33 Y139.149 E.01693
G1 X100.47 Y131.289 E.35073
G1 X100.47 Y131.62 E.01044
G1 X100.264 Y131.62 E.00649
G1 X107.924 Y139.28 E.3418
M73 P1 R250
G1 X107.388 Y139.28 E.01693
G1 X99.728 Y131.62 E.3418
G1 X99.191 Y131.62 E.01693
G1 X106.851 Y139.28 E.3418
G1 X106.315 Y139.28 E.01693
G1 X98.654 Y131.62 E.3418
G1 X98.118 Y131.62 E.01693
G1 X105.778 Y139.28 E.3418
G1 X105.241 Y139.28 E.01693
G1 X97.581 Y131.62 E.3418
G1 X97.044 Y131.62 E.01693
G1 X104.705 Y139.28 E.3418
G1 X104.168 Y139.28 E.01693
G1 X96.508 Y131.62 E.3418
G1 X95.971 Y131.62 E.01693
G1 X103.632 Y139.28 E.3418
G1 X103.095 Y139.28 E.01693
G1 X95.435 Y131.62 E.3418
G1 X94.898 Y131.62 E.01693
G1 X102.558 Y139.28 E.3418
G1 X102.022 Y139.28 E.01693
G1 X94.361 Y131.62 E.3418
G1 X93.825 Y131.62 E.01693
G1 X101.485 Y139.28 E.3418
G1 X100.948 Y139.28 E.01693
G1 X93.288 Y131.62 E.3418
G1 X92.752 Y131.62 E.01693
G1 X100.412 Y139.28 E.3418
G1 X99.875 Y139.28 E.01693
G1 X92.215 Y131.62 E.3418
G1 X91.678 Y131.62 E.01693
G1 X99.339 Y139.28 E.3418
G1 X98.802 Y139.28 E.01693
G1 X91.142 Y131.62 E.3418
G1 X90.605 Y131.62 E.01693
G1 X98.265 Y139.28 E.3418
G1 X97.729 Y139.28 E.01693
G1 X90.068 Y131.62 E.3418
G1 X89.532 Y131.62 E.01693
G1 X97.192 Y139.28 E.3418
G1 X96.655 Y139.28 E.01693
G1 X88.995 Y131.62 E.3418
G1 X88.459 Y131.62 E.01693
G1 X96.119 Y139.28 E.3418
G1 X95.582 Y139.28 E.01693
G1 X87.922 Y131.62 E.3418
G1 X87.385 Y131.62 E.01693
G1 X95.046 Y139.28 E.3418
G1 X94.509 Y139.28 E.01693
G1 X86.849 Y131.62 E.3418
G1 X86.312 Y131.62 E.01693
G1 X93.972 Y139.28 E.3418
G1 X93.436 Y139.28 E.01693
G1 X85.775 Y131.62 E.3418
G1 X85.239 Y131.62 E.01693
G1 X92.899 Y139.28 E.3418
G1 X92.363 Y139.28 E.01693
G1 X84.702 Y131.62 E.3418
G1 X84.166 Y131.62 E.01693
G1 X91.826 Y139.28 E.3418
G1 X91.289 Y139.28 E.01693
G1 X83.629 Y131.62 E.3418
G1 X83.092 Y131.62 E.01693
G1 X90.753 Y139.28 E.3418
G1 X90.216 Y139.28 E.01693
G1 X82.556 Y131.62 E.3418
G1 X82.019 Y131.62 E.01693
G1 X89.679 Y139.28 E.3418
G1 X89.143 Y139.28 E.01693
G1 X81.483 Y131.62 E.3418
G1 X80.946 Y131.62 E.01693
G1 X88.606 Y139.28 E.3418
G1 X88.07 Y139.28 E.01693
G1 X80.409 Y131.62 E.3418
G1 X79.873 Y131.62 E.01693
G1 X87.533 Y139.28 E.3418
G1 X86.996 Y139.28 E.01693
G1 X79.336 Y131.62 E.3418
G1 X78.799 Y131.62 E.01693
G1 X86.46 Y139.28 E.3418
G1 X85.923 Y139.28 E.01693
G1 X78.263 Y131.62 E.3418
G1 X77.726 Y131.62 E.01693
G1 X85.386 Y139.28 E.3418
G1 X84.85 Y139.28 E.01693
G1 X77.19 Y131.62 E.3418
G1 X76.653 Y131.62 E.01693
G1 X84.313 Y139.28 E.3418
G1 X83.777 Y139.28 E.01693
G1 X76.116 Y131.62 E.3418
G1 X75.58 Y131.62 E.01693
G1 X83.24 Y139.28 E.3418
G1 X82.703 Y139.28 E.01693
G1 X75.043 Y131.62 E.3418
G1 X74.506 Y131.62 E.01693
G1 X82.167 Y139.28 E.3418
G1 X81.63 Y139.28 E.01693
G1 X73.97 Y131.62 E.3418
G1 X73.433 Y131.62 E.01693
G1 X81.094 Y139.28 E.3418
G1 X80.557 Y139.28 E.01693
G1 X72.897 Y131.62 E.3418
G1 X72.36 Y131.62 E.01693
G1 X80.02 Y139.28 E.3418
G1 X79.484 Y139.28 E.01693
G1 X71.823 Y131.62 E.3418
G1 X71.287 Y131.62 E.01693
G1 X78.947 Y139.28 E.3418
G1 X78.41 Y139.28 E.01693
M73 Q1 S251
G1 X70.75 Y131.62 E.3418
G1 X70.47 Y131.62 E.00884
G1 X70.47 Y131.876 E.00809
G1 X77.874 Y139.28 E.33036
G1 X77.337 Y139.28 E.01693
G1 X70.47 Y132.413 E.30642
G1 X70.47 Y132.949 E.01693
G1 X76.801 Y139.28 E.28248
G1 X76.264 Y139.28 E.01693
G1 X70.47 Y133.486 E.25853
G1 X70.47 Y134.023 E.01693
G1 X75.727 Y139.28 E.23459
G1 X75.191 Y139.28 E.01693
G1 X70.47 Y134.559 E.21064
G1 X70.47 Y135.096 E.01693
G1 X74.654 Y139.28 E.1867
G1 X74.117 Y139.28 E.01693
G1 X70.47 Y135.633 E.16276
G1 X70.47 Y136.169 E.01693
G1 X73.581 Y139.28 E.13881
G1 X73.044 Y139.28 E.01693
G1 X70.47 Y136.706 E.11487
G1 X70.47 Y137.242 E.01693
G1 X72.508 Y139.28 E.09092
G1 X71.971 Y139.28 E.01693
G1 X70.47 Y137.779 E.06698
G1 X70.47 Y138.316 E.01693
G1 X71.434 Y139.28 E.04304
G1 X70.898 Y139.28 E.01693
G1 X70.3 Y138.683 E.02666
M204 S1000
;WIPE_START
G1 F8640
G1 X70.898 Y139.28 E-.19514
G1 X71.434 Y139.28 E-.12391
G1 X70.47 Y138.316 E-.31496
G1 X70.47 Y137.779 E-.12391
G1 X70.476 Y137.785 E-.00209
;WIPE_END
G1 E-.04 F2100
G1 Z.6 F720
G1 X70.187 Y80.863 F10800
G1 Z.2 F720
G1 E.8 F2100
M204 S800
;TYPE:Perimeter
;WIDTH:0.42
G1 F1200
G1 X70.187 Y70.437 E.32689
G1 X179.813 Y70.437 E3.43724
G1 X179.813 Y80.863 E.32689
G1 X70.247 Y80.863 E3.43536
M204 S1000
G1 X69.81 Y81.24 F10800
M204 S800
;TYPE:External perimeter
G1 F1200
G1 X69.81 Y70.06 E.35054
