; generated by PrusaSlicer 2.4.0+x64 on 2022-03-13 at 16:41:35 UTC

; 

; external perimeters extrusion width = 0.60mm
; perimeters extrusion width = 0.50mm
; infill extrusion width = 0.50mm
; solid infill extrusion width = 0.50mm
; top infill extrusion width = 0.45mm
; first layer extrusion width = 0.42mm

M73 P0 R33
M73 Q0 S33
M201 X1000 Y1000 Z200 E5000 ; sets maximum accelerations, mm/sec^2
M203 X200 Y200 Z12 E120 ; sets maximum feedrates, mm/sec
M204 P1250 R1250 T1250 ; sets acceleration (P, T) and retract acceleration (R), mm/sec^2
M205 X8.00 Y8.00 Z0.40 E4.50 ; sets the jerk limits, mm/sec
M205 S0 T0 ; sets the minimum extruding and travel feed rate, mm/sec
M107
;TYPE:Custom
M862.3 P "MK3S" ; printer model check
M862.1 P0.4 ; nozzle diameter check
M115 U3.10.0 ; tell printer latest fw version
G90 ; use absolute coordinates
M83 ; extruder relative mode
M104 S215 ; set extruder temp
M140 S60 ; set bed temp
M190 S60 ; wait for bed temp
M109 S215 ; wait for extruder temp
G28 W ; home all without mesh bed level
G80 ; mesh bed leveling
G1 Z0.2 F720
G1 Y-3 F1000 ; go outside print area
G92 E0
G1 X60 E9 F1000 ; intro line
G1 X100 E12.5 F1000 ; intro line
G92 E0
M221 S95

; Don't change E values below. Excessive value can damage the printer.

M907 E538 ; set extruder motor current
G21 ; set units to millimeters
G90 ; use absolute coordinates
M83 ; use relative distances for extrusion
M900 K0.05 ; Filament gcode LA 1.5
M900 K30 ; Filament gcode LA 1.0
M107
;LAYER_CHANGE
;Z:0.2
;HEIGHT:0.2
;BEFORE_LAYER_CHANGE
G92 E0.0
;0.2


G1 E-.8 F2100
G1 Z.4 F720
;AFTER_LAYER_CHANGE
;0.2
G1 X68.06 Y97.817 F10800
G1 Z.2 F720
G1 E.8 F2100
M204 S800
;TYPE:Skirt/Brim
;WIDTH:0.42
G1 F1200
G1 X69 Y97.623 E.03008
G1 X181 Y97.623 E3.51168
G1 X182.307 Y98.015 E.04278
G1 X183.183 Y99.06 E.04278
G1 X183.377 Y100 E.03008
G1 X183.377 Y110 E.31354
G1 X182.985 Y111.307 E.04278
G1 X181.94 Y112.183 E.04278
G1 X181 Y112.377 E.03008
G1 X69 Y112.377 E3.51168
G1 X67.693 Y111.985 E.04278
M73 P0 R32
G1 X66.817 Y110.94 E.04278
G1 X66.623 Y110 E.03008
G1 X66.623 Y100 E.31354
G1 X67.015 Y98.693 E.04278
M73 Q1 S33
G1 X68.014 Y97.855 E.0409
M204 S1000
; printing object camera-stand.stl id:0 copy 0
;WIPE_START
M73 P1 R32
G1 F8640
G1 X69 Y97.623 E-.23384
G1 X71.279 Y97.623 E-.52616
;WIPE_END
G1 E-.04 F2100
G1 Z.6 F720
G1 X70.187 Y100.787 F10800
G1 Z.2 F720
G1 E.8 F2100
M204 S800
;TYPE:Perimeter
G1 F1200
G1 X180.213 Y100.787 E3.44978
G1 X180.213 Y109.213 E.26419
G1 X69.787 Y109.213 E3.46232
G1 X69.787 Y100.787 E.26419
G1 X70.127 Y100.787 E.01066
M204 S1000
G1 X69.41 Y100.41 F10800
M204 S800
;TYPE:External perimeter
G1 F1200
G1 X180.59 Y100.41 E3.48597
G1 X180.59 Y109.59 E.28783
G1 X69.41 Y109.59 E3.48597
G1 X69.41 Y100.47 E.28595
M204 S1000
M73 P2 R32
M73 Q2 S32
G1 X69.81 Y100.421 F10800
;WIPE_START
G1 F8640
G1 X72.701 Y100.468 E-.76
;WIPE_END
G1 E-.04 F2100
G1 Z.6 F720
G1 X179.337 Y100.9 F10800
G1 Z.2 F720
G1 E.8 F2100
M204 S800
;TYPE:Solid infill
;WIDTH:0.420281
G1 F1200
G1 X179.93 Y101.493 E.02632
G1 X179.93 Y102.027 E.01675
G1 X178.973 Y101.07 E.04247
G1 X178.439 Y101.07 E.01675
G1 X179.93 Y102.561 E.06616
G1 X179.93 Y103.094 E.01675
G1 X177.906 Y101.07 E.08984
G1 X177.372 Y101.07 E.01675
G1 X179.93 Y103.628 E.11352
G1 X179.93 Y104.162 E.01675
G1 X176.838 Y101.07 E.1372
G1 X176.305 Y101.07 E.01675
G1 X179.93 Y104.695 E.16088
G1 X179.93 Y105.229 E.01675
G1 X175.771 Y101.07 E.18456
G1 X175.237 Y101.07 E.01675
G1 X179.93 Y105.763 E.20824
G1 X179.93 Y106.296 E.01675
G1 X174.704 Y101.07 E.23193
G1 X174.17 Y101.07 E.01675
G1 X179.93 Y106.83 E.25561
G1 X179.93 Y107.364 E.01675
G1 X173.636 Y101.07 E.27929
G1 X173.103 Y101.07 E.01675
G1 X179.93 Y107.897 E.30297
G1 X179.93 Y108.431 E.01675
G1 X172.569 Y101.07 E.32665
G1 X172.035 Y101.07 E.01675
G1 X179.896 Y108.93 E.3488
G1 X179.362 Y108.93 E.01675
G1 X171.502 Y101.07 E.3488
G1 X170.968 Y101.07 E.01675
G1 X178.828 Y108.93 E.3488
G1 X178.295 Y108.93 E.01675
G1 X170.434 Y101.07 E.3488
G1 X169.901 Y101.07 E.01675
G1 X177.761 Y108.93 E.3488
G1 X177.227 Y108.93 E.01675
G1 X169.367 Y101.07 E.3488
G1 X168.833 Y101.07 E.01675
G1 X176.693 Y108.93 E.3488
G1 X176.16 Y108.93 E.01675
G1 X168.3 Y101.07 E.3488
G1 X167.766 Y101.07 E.01675
G1 X175.626 Y108.93 E.3488
G1 X175.092 Y108.93 E.01675
G1 X167.232 Y101.07 E.3488
G1 X166.699 Y101.07 E.01675
G1 X174.559 Y108.93 E.3488
G1 X174.025 Y108.93 E.01675
G1 X166.165 Y101.07 E.3488
G1 X165.631 Y101.07 E.01675
G1 X173.491 Y108.93 E.3488
G1 X172.958 Y108.93 E.01675
G1 X165.098 Y101.07 E.3488
G1 X164.564 Y101.07 E.01675
G1 X172.424 Y108.93 E.3488
G1 X171.89 Y108.93 E.01675
G1 X164.03 Y101.07 E.3488
G1 X163.497 Y101.07 E.01675
G1 X171.357 Y108.93 E.3488
G1 X170.823 Y108.93 E.01675
M73 P3 R32
M73 Q3 S32
G1 X162.963 Y101.07 E.3488
G1 X162.429 Y101.07 E.01675
G1 X170.289 Y108.93 E.3488
G1 X169.756 Y108.93 E.01675
G1 X161.896 Y101.07 E.3488
G1 X161.362 Y101.07 E.01675
G1 X169.222 Y108.93 E.3488
G1 X168.688 Y108.93 E.01675
G1 X160.828 Y101.07 E.3488
G1 X160.295 Y101.07 E.01675
G1 X168.155 Y108.93 E.3488
G1 X167.621 Y108.93 E.01675
G1 X159.761 Y101.07 E.3488
G1 X159.227 Y101.07 E.01675
G1 X167.087 Y108.93 E.3488
G1 X166.554 Y108.93 E.01675
G1 X158.694 Y101.07 E.3488
G1 X158.16 Y101.07 E.01675
G1 X166.02 Y108.93 E.3488
G1 X165.486 Y108.93 E.01675
G1 X157.626 Y101.07 E.3488
G1 X157.093 Y101.07 E.01675
G1 X164.953 Y108.93 E.3488
G1 X164.419 Y108.93 E.01675
G1 X156.559 Y101.07 E.3488
G1 X156.025 Y101.07 E.01675
G1 X163.885 Y108.93 E.3488
G1 X163.352 Y108.93 E.01675
G1 X155.492 Y101.07 E.3488
G1 X154.958 Y101.07 E.01675
G1 X162.818 Y108.93 E.3488
G1 X162.284 Y108.93 E.01675
G1 X154.424 Y101.07 E.3488
G1 X153.891 Y101.07 E.01675
G1 X161.751 Y108.93 E.3488
G1 X161.217 Y108.93 E.01675
G1 X153.357 Y101.07 E.3488
G1 X152.823 Y101.07 E.01675
G1 X160.683 Y108.93 E.3488
G1 X160.15 Y108.93 E.01675
G1 X152.29 Y101.07 E.3488
G1 X151.756 Y101.07 E.01675
G1 X159.616 Y108.93 E.3488
G1 X159.082 Y108.93 E.01675
G1 X151.222 Y101.07 E.3488
G1 X150.689 Y101.07 E.01675
G1 X158.549 Y108.93 E.3488
G1 X158.015 Y108.93 E.01675
G1 X150.155 Y101.07 E.3488
G1 X149.621 Y101.07 E.01675
G1 X157.481 Y108.93 E.3488
G1 X156.948 Y108.93 E.01675
G1 X149.087 Y101.07 E.3488
G1 X148.554 Y101.07 E.01675
G1 X156.414 Y108.93 E.3488
G1 X155.88 Y108.93 E.01675
G1 X148.02 Y101.07 E.3488
G1 X147.486 Y101.07 E.01675
G1 X155.347 Y108.93 E.3488
G1 X154.813 Y108.93 E.01675
G1 X146.953 Y101.07 E.3488
G1 X146.419 Y101.07 E.01675
G1 X154.279 Y108.93 E.3488
G1 X153.746 Y108.93 E.01675
M73 P3 R31
G1 X145.885 Y101.07 E.3488
G1 X145.352 Y101.07 E.01675
G1 X153.212 Y108.93 E.3488
G1 X152.678 Y108.93 E.01675
M73 P4 R31
M73 Q4 S32
G1 X144.818 Y101.07 E.3488
G1 X144.284 Y101.07 E.01675
G1 X152.145 Y108.93 E.3488
G1 X151.611 Y108.93 E.01675
G1 X143.751 Y101.07 E.3488
G1 X143.217 Y101.07 E.01675
G1 X151.077 Y108.93 E.3488
G1 X150.544 Y108.93 E.01675
G1 X142.683 Y101.07 E.3488
G1 X142.15 Y101.07 E.01675
G1 X150.01 Y108.93 E.3488
G1 X149.476 Y108.93 E.01675
G1 X141.616 Y101.07 E.3488
G1 X141.082 Y101.07 E.01675
G1 X148.943 Y108.93 E.3488
G1 X148.409 Y108.93 E.01675
G1 X140.549 Y101.07 E.3488
G1 X140.015 Y101.07 E.01675
G1 X147.875 Y108.93 E.3488
G1 X147.342 Y108.93 E.01675
G1 X139.481 Y101.07 E.3488
G1 X138.948 Y101.07 E.01675
G1 X146.808 Y108.93 E.3488
G1 X146.274 Y108.93 E.01675
G1 X138.414 Y101.07 E.3488
G1 X137.88 Y101.07 E.01675
G1 X145.741 Y108.93 E.3488
G1 X145.207 Y108.93 E.01675
G1 X137.347 Y101.07 E.3488
G1 X136.813 Y101.07 E.01675
G1 X144.673 Y108.93 E.3488
G1 X144.14 Y108.93 E.01675
G1 X136.279 Y101.07 E.3488
G1 X135.746 Y101.07 E.01675
G1 X143.606 Y108.93 E.3488
G1 X143.072 Y108.93 E.01675
G1 X135.212 Y101.07 E.3488
G1 X134.678 Y101.07 E.01675
G1 X142.539 Y108.93 E.3488
G1 X142.005 Y108.93 E.01675
G1 X134.145 Y101.07 E.3488
G1 X133.611 Y101.07 E.01675
G1 X141.471 Y108.93 E.3488
G1 X140.938 Y108.93 E.01675
G1 X133.077 Y101.07 E.3488
G1 X132.544 Y101.07 E.01675
G1 X140.404 Y108.93 E.3488
G1 X139.87 Y108.93 E.01675
G1 X132.01 Y101.07 E.3488
G1 X131.476 Y101.07 E.01675
G1 X139.337 Y108.93 E.3488
G1 X138.803 Y108.93 E.01675
G1 X130.943 Y101.07 E.3488
G1 X130.409 Y101.07 E.01675
G1 X138.269 Y108.93 E.3488
G1 X137.736 Y108.93 E.01675
G1 X129.875 Y101.07 E.3488
G1 X129.342 Y101.07 E.01675
G1 X137.202 Y108.93 E.3488
G1 X136.668 Y108.93 E.01675
G1 X128.808 Y101.07 E.3488
G1 X128.274 Y101.07 E.01675
M73 Q4 S31
G1 X136.135 Y108.93 E.3488
G1 X135.601 Y108.93 E.01675
G1 X127.741 Y101.07 E.3488
G1 X127.207 Y101.07 E.01675
M73 P5 R31
G1 X135.067 Y108.93 E.3488
G1 X134.534 Y108.93 E.01675
M73 Q5 S31
G1 X126.673 Y101.07 E.3488
G1 X126.14 Y101.07 E.01675
G1 X134 Y108.93 E.3488
G1 X133.466 Y108.93 E.01675
G1 X125.606 Y101.07 E.3488
G1 X125.072 Y101.07 E.01675
G1 X132.933 Y108.93 E.3488
G1 X132.399 Y108.93 E.01675
G1 X124.539 Y101.07 E.3488
G1 X124.005 Y101.07 E.01675
G1 X131.865 Y108.93 E.3488
G1 X131.332 Y108.93 E.01675
G1 X123.471 Y101.07 E.3488
G1 X122.938 Y101.07 E.01675
G1 X130.798 Y108.93 E.3488
G1 X130.264 Y108.93 E.01675
G1 X122.404 Y101.07 E.3488
G1 X121.87 Y101.07 E.01675
G1 X129.731 Y108.93 E.3488
G1 X129.197 Y108.93 E.01675
G1 X121.337 Y101.07 E.3488
G1 X120.803 Y101.07 E.01675
G1 X128.663 Y108.93 E.3488
G1 X128.13 Y108.93 E.01675
G1 X120.269 Y101.07 E.3488
G1 X119.736 Y101.07 E.01675
G1 X127.596 Y108.93 E.3488
G1 X127.062 Y108.93 E.01675
G1 X119.202 Y101.07 E.3488
G1 X118.668 Y101.07 E.01675
G1 X126.529 Y108.93 E.3488
G1 X125.995 Y108.93 E.01675
G1 X118.135 Y101.07 E.3488
G1 X117.601 Y101.07 E.01675
G1 X125.461 Y108.93 E.3488
G1 X124.928 Y108.93 E.01675
G1 X117.067 Y101.07 E.3488
G1 X116.534 Y101.07 E.01675
G1 X124.394 Y108.93 E.3488
G1 X123.86 Y108.93 E.01675
G1 X116 Y101.07 E.3488
G1 X115.466 Y101.07 E.01675
G1 X123.327 Y108.93 E.3488
G1 X122.793 Y108.93 E.01675
G1 X114.933 Y101.07 E.3488
G1 X114.399 Y101.07 E.01675
G1 X122.259 Y108.93 E.3488
G1 X121.726 Y108.93 E.01675
G1 X113.865 Y101.07 E.3488
G1 X113.332 Y101.07 E.01675
G1 X121.192 Y108.93 E.3488
G1 X120.658 Y108.93 E.01675
G1 X112.798 Y101.07 E.3488
G1 X112.264 Y101.07 E.01675
G1 X120.125 Y108.93 E.3488
G1 X119.591 Y108.93 E.01675
G1 X111.731 Y101.07 E.3488
G1 X111.197 Y101.07 E.01675
G1 X119.057 Y108.93 E.3488
G1 X118.524 Y108.93 E.01675
G1 X110.663 Y101.07 E.3488
G1 X110.13 Y101.07 E.01675
G1 X117.99 Y108.93 E.3488
G1 X117.456 Y108.93 E.01675
G1 X109.596 Y101.07 E.3488
G1 X109.062 Y101.07 E.01675
M73 P6 R31
M73 Q6 S31
G1 X116.923 Y108.93 E.3488
G1 X116.389 Y108.93 E.01675
G1 X108.529 Y101.07 E.3488
G1 X107.995 Y101.07 E.01675
G1 X115.855 Y108.93 E.3488
G1 X115.322 Y108.93 E.01675
G1 X107.461 Y101.07 E.3488
G1 X106.928 Y101.07 E.01675
G1 X114.788 Y108.93 E.3488
G1 X114.254 Y108.93 E.01675
G1 X106.394 Y101.07 E.3488
G1 X105.86 Y101.07 E.01675
G1 X113.721 Y108.93 E.3488
G1 X113.187 Y108.93 E.01675
G1 X105.327 Y101.07 E.3488
G1 X104.793 Y101.07 E.01675
G1 X112.653 Y108.93 E.3488
G1 X112.12 Y108.93 E.01675
G1 X104.259 Y101.07 E.3488
G1 X103.726 Y101.07 E.01675
G1 X111.586 Y108.93 E.3488
G1 X111.052 Y108.93 E.01675
G1 X103.192 Y101.07 E.3488
G1 X102.658 Y101.07 E.01675
G1 X110.519 Y108.93 E.3488
G1 X109.985 Y108.93 E.01675
G1 X102.125 Y101.07 E.3488
G1 X101.591 Y101.07 E.01675
G1 X109.451 Y108.93 E.3488
G1 X108.918 Y108.93 E.01675
G1 X101.057 Y101.07 E.3488
G1 X100.524 Y101.07 E.01675
G1 X108.384 Y108.93 E.3488
G1 X107.85 Y108.93 E.01675
G1 X99.99 Y101.07 E.3488
G1 X99.456 Y101.07 E.01675
G1 X107.317 Y108.93 E.3488
G1 X106.783 Y108.93 E.01675
G1 X98.923 Y101.07 E.3488
G1 X98.389 Y101.07 E.01675
G1 X106.249 Y108.93 E.3488
G1 X105.716 Y108.93 E.01675
G1 X97.855 Y101.07 E.3488
G1 X97.322 Y101.07 E.01675
G1 X105.182 Y108.93 E.3488
G1 X104.648 Y108.93 E.01675
G1 X96.788 Y101.07 E.3488
G1 X96.254 Y101.07 E.01675
G1 X104.115 Y108.93 E.3488
G1 X103.581 Y108.93 E.01675
G1 X95.721 Y101.07 E.3488
G1 X95.187 Y101.07 E.01675
G1 X103.047 Y108.93 E.3488
G1 X102.513 Y108.93 E.01675
G1 X94.653 Y101.07 E.3488
G1 X94.12 Y101.07 E.01675
G1 X101.98 Y108.93 E.3488
G1 X101.446 Y108.93 E.01675
G1 X93.586 Y101.07 E.3488
G1 X93.052 Y101.07 E.01675
G1 X100.912 Y108.93 E.3488
G1 X100.379 Y108.93 E.01675
G1 X92.519 Y101.07 E.3488
G1 X91.985 Y101.07 E.01675
M73 P6 R30
G1 X99.845 Y108.93 E.3488
G1 X99.311 Y108.93 E.01675
M73 P7 R30
G1 X91.451 Y101.07 E.3488
G1 X90.918 Y101.07 E.01675
M73 Q7 S31
G1 X98.778 Y108.93 E.3488
G1 X98.244 Y108.93 E.01675
G1 X90.384 Y101.07 E.3488
G1 X89.85 Y101.07 E.01675
G1 X97.71 Y108.93 E.3488
G1 X97.177 Y108.93 E.01675
G1 X89.317 Y101.07 E.3488
G1 X88.783 Y101.07 E.01675
G1 X96.643 Y108.93 E.3488
G1 X96.109 Y108.93 E.01675
G1 X88.249 Y101.07 E.3488
G1 X87.716 Y101.07 E.01675
G1 X95.576 Y108.93 E.3488
G1 X95.042 Y108.93 E.01675
G1 X87.182 Y101.07 E.3488
G1 X86.648 Y101.07 E.01675
G1 X94.508 Y108.93 E.3488
G1 X93.975 Y108.93 E.01675
G1 X86.115 Y101.07 E.3488
G1 X85.581 Y101.07 E.01675
G1 X93.441 Y108.93 E.3488
G1 X92.907 Y108.93 E.01675
G1 X85.047 Y101.07 E.3488
G1 X84.514 Y101.07 E.01675
G1 X92.374 Y108.93 E.3488
G1 X91.84 Y108.93 E.01675
G1 X83.98 Y101.07 E.3488
G1 X83.446 Y101.07 E.01675
G1 X91.306 Y108.93 E.3488
G1 X90.773 Y108.93 E.01675
G1 X82.913 Y101.07 E.3488
G1 X82.379 Y101.07 E.01675
G1 X90.239 Y108.93 E.3488
G1 X89.705 Y108.93 E.01675
G1 X81.845 Y101.07 E.3488
G1 X81.312 Y101.07 E.01675
G1 X89.172 Y108.93 E.3488
G1 X88.638 Y108.93 E.01675
G1 X80.778 Y101.07 E.3488
G1 X80.244 Y101.07 E.01675
G1 X88.104 Y108.93 E.3488
G1 X87.571 Y108.93 E.01675
G1 X79.711 Y101.07 E.3488
G1 X79.177 Y101.07 E.01675
G1 X87.037 Y108.93 E.3488
G1 X86.503 Y108.93 E.01675
G1 X78.643 Y101.07 E.3488
G1 X78.11 Y101.07 E.01675
G1 X85.97 Y108.93 E.3488
G1 X85.436 Y108.93 E.01675
G1 X77.576 Y101.07 E.3488
G1 X77.042 Y101.07 E.01675
G1 X84.902 Y108.93 E.3488
G1 X84.369 Y108.93 E.01675
G1 X76.509 Y101.07 E.3488
G1 X75.975 Y101.07 E.01675
G1 X83.835 Y108.93 E.3488
G1 X83.301 Y108.93 E.01675
G1 X75.441 Y101.07 E.3488
G1 X74.907 Y101.07 E.01675
G1 X82.768 Y108.93 E.3488
M73 Q7 S30
G1 X82.234 Y108.93 E.01675
G1 X74.374 Y101.07 E.3488
G1 X73.84 Y101.07 E.01675
G1 X81.7 Y108.93 E.3488
G1 X81.167 Y108.93 E.01675
M73 P8 R30
G1 X73.306 Y101.07 E.3488
G1 X72.773 Y101.07 E.01675
M73 Q8 S30
G1 X80.633 Y108.93 E.3488
G1 X80.099 Y108.93 E.01675
G1 X72.239 Y101.07 E.3488
G1 X71.705 Y101.07 E.01675
G1 X79.566 Y108.93 E.3488
G1 X79.032 Y108.93 E.01675
G1 X71.172 Y101.07 E.3488
G1 X70.638 Y101.07 E.01675
G1 X78.498 Y108.93 E.3488
G1 X77.965 Y108.93 E.01675
G1 X70.104 Y101.07 E.3488
G1 X70.07 Y101.07 E.00109
G1 X70.07 Y101.569 E.01566
G1 X77.431 Y108.93 E.32665
G1 X76.897 Y108.93 E.01675
G1 X70.07 Y102.103 E.30297
G1 X70.07 Y102.636 E.01675
G1 X76.364 Y108.93 E.27929
G1 X75.83 Y108.93 E.01675
G1 X70.07 Y103.17 E.25561
G1 X70.07 Y103.704 E.01675
G1 X75.296 Y108.93 E.23192
G1 X74.763 Y108.93 E.01675
G1 X70.07 Y104.237 E.20824
G1 X70.07 Y104.771 E.01675
G1 X74.229 Y108.93 E.18456
G1 X73.695 Y108.93 E.01675
G1 X70.07 Y105.305 E.16088
G1 X70.07 Y105.838 E.01675
G1 X73.162 Y108.93 E.1372
G1 X72.628 Y108.93 E.01675
G1 X70.07 Y106.372 E.11352
G1 X70.07 Y106.906 E.01675
G1 X72.094 Y108.93 E.08984
G1 X71.561 Y108.93 E.01675
G1 X70.07 Y107.439 E.06615
G1 X70.07 Y107.973 E.01675
G1 X71.027 Y108.93 E.04247
G1 X70.493 Y108.93 E.01675
G1 X69.9 Y108.337 E.02632
M204 S1000
; stop printing object camera-stand.stl id:0 copy 0
M106 S84.15
;LAYER_CHANGE
;Z:0.5
;HEIGHT:0.3
;BEFORE_LAYER_CHANGE
G92 E0.0
;0.5


;WIPE_START
G1 F8640
G1 X70.493 Y108.93 E-.1937
G1 X71.027 Y108.93 E-.12323
G1 X70.07 Y107.973 E-.31255
G1 X70.07 Y107.439 E-.12323
G1 X70.092 Y107.462 E-.0073
;WIPE_END
G1 E-.04 F2100
G1 Z.6 F720
;AFTER_LAYER_CHANGE
;0.5
G1 X66.623 Y107.462 F10800
G1 Z.5 F720
G1 E.8 F2100
;TYPE:Skirt/Brim
;WIDTH:0.42
G1 F2700
G1 X66.623 Y100 E.33096
G1 X67.015 Y98.693 E.06052
G1 X68.06 Y97.817 E.06052
G1 X69 Y97.623 E.04256
G1 X181 Y97.623 E4.96774
G1 X182.307 Y98.015 E.06052
G1 X183.183 Y99.06 E.06052
G1 X183.377 Y100 E.04256
G1 X183.377 Y110 E.44355
G1 X182.985 Y111.307 E.06052
G1 X181.94 Y112.183 E.06052
G1 X181 Y112.377 E.04256
G1 X69 Y112.377 E4.96774
G1 X67.693 Y111.985 E.06052
G1 X66.817 Y110.94 E.06052
G1 X66.623 Y110 E.04256
