; generated by PrusaSlicer 2.4.0+x64 on 2022-03-14 at 18:26:59 UTC

; 

; external perimeters extrusion width = 0.60mm
; perimeters extrusion width = 0.50mm
; infill extrusion width = 0.50mm
; solid infill extrusion width = 0.50mm
; top infill extrusion width = 0.45mm
; first layer extrusion width = 0.42mm

M73 P0 R224
M73 Q0 S227
M201 X1000 Y1000 Z200 E5000 ; sets maximum accelerations, mm/sec^2
M203 X200 Y200 Z12 E120 ; sets maximum feedrates, mm/sec
M204 P1250 R1250 T1250 ; sets acceleration (P, T) and retract acceleration (R), mm/sec^2
M205 X8.00 Y8.00 Z0.40 E4.50 ; sets the jerk limits, mm/sec
M205 S0 T0 ; sets the minimum extruding and travel feed rate, mm/sec
M107
;TYPE:Custom
M862.3 P "MK3S" ; printer model check
M862.1 P0.4 ; nozzle diameter check
M115 U3.10.0 ; tell printer latest fw version
G90 ; use absolute coordinates
M83 ; extruder relative mode
M104 S215 ; set extruder temp
M140 S60 ; set bed temp
M190 S60 ; wait for bed temp
M109 S215 ; wait for extruder temp
G28 W ; home all without mesh bed level
G80 ; mesh bed leveling
G1 Z0.2 F720
G1 Y-3 F1000 ; go outside print area
G92 E0
G1 X60 E9 F1000 ; intro line
G1 X100 E12.5 F1000 ; intro line
G92 E0
M221 S95

; Don't change E values below. Excessive value can damage the printer.

M907 E538 ; set extruder motor current
G21 ; set units to millimeters
G90 ; use absolute coordinates
M83 ; use relative distances for extrusion
M900 K0.05 ; Filament gcode LA 1.5
M900 K30 ; Filament gcode LA 1.0
M107
;LAYER_CHANGE
;Z:0.2
;HEIGHT:0.2
;BEFORE_LAYER_CHANGE
G92 E0.0
;0.2


M73 Q0 S226
G1 E-.8 F2100
G1 Z.4 F720
;AFTER_LAYER_CHANGE
;0.2
G1 X63.736 Y88.619 F10800
G1 Z.2 F720
G1 E.8 F2100
M204 S800
;TYPE:Skirt/Brim
;WIDTH:0.42
G1 F1200
G1 X65.416 Y87.923 E.05704
G1 X184.584 Y87.923 E3.7364
G1 X186.264 Y88.619 E.05704
G1 X192.181 Y94.536 E.26234
G1 X192.877 Y96.216 E.05704
G1 X192.877 Y113.784 E.5508
G1 X192.181 Y115.464 E.05704
G1 X186.264 Y121.381 E.26234
G1 X184.584 Y122.077 E.05704
G1 X65.416 Y122.077 E3.7364
G1 X63.736 Y121.381 E.05704
G1 X57.819 Y115.464 E.26234
G1 X57.123 Y113.784 E.05704
G1 X57.123 Y96.216 E.5508
G1 X57.819 Y94.536 E.05704
G1 X63.693 Y88.662 E.26046
M204 S1000
;WIPE_START
G1 F8640
G1 X65.416 Y87.923 E-.43292
G1 X66.833 Y87.923 E-.32708
;WIPE_END
G1 E-.04 F2100
G1 Z.6 F720
G1 X65.452 Y91.66 F10800
G1 Z.2 F720
G1 E.8 F2100
M204 S800
G1 F1200
G1 X65.843 Y91.431 E.0142
G1 X68.326 Y90.752 E.08072
G1 X181.343 Y90.719 E3.54357
G1 X183.376 Y91.138 E.06507
G1 X185.394 Y92.047 E.0694
G1 X187.529 Y93.787 E.08636
G1 X189.064 Y95.978 E.08388
G1 X189.977 Y98.683 E.08951
G1 X190.119 Y110.273 E.36344
G1 X189.315 Y113.491 E.104
G1 X187.518 Y116.242 E.10302
G1 X186.448 Y117.213 E.04532
G1 X185.257 Y118.054 E.0457
G1 X181.506 Y119.271 E.12365
G1 X68.873 Y119.316 E3.53151
G1 X65.7 Y118.511 E.10264
G1 X62.957 Y116.717 E.10276
G1 X61.986 Y115.647 E.04529
G1 X61.146 Y114.456 E.04571
G1 X59.942 Y110.788 E.12105
G1 X60.034 Y98.626 E.38136
G1 X60.915 Y96.021 E.08621
G1 X62.096 Y94.215 E.06767
G1 X63.626 Y92.731 E.06682
G1 X65.401 Y91.69 E.0645
M204 S1000
G1 X65.59 Y92.011 F10800
M204 S800
G1 F1200
G1 X65.967 Y91.788 E.01374
G1 X68.401 Y91.122 E.07913
G1 X181.287 Y91.092 E3.53944
G1 X183.241 Y91.491 E.06254
G1 X185.176 Y92.356 E.06645
G1 X187.236 Y94.026 E.08316
G1 X188.716 Y96.126 E.08055
G1 X189.6 Y98.718 E.08586
G1 X189.742 Y110.254 E.36174
G1 X188.981 Y113.312 E.09881
G1 X187.247 Y115.98 E.09975
G1 X186.203 Y116.926 E.04419
G1 X185.063 Y117.729 E.04371
G1 X181.418 Y118.903 E.12007
G1 X68.897 Y118.938 E3.52803
G1 X65.824 Y118.153 E.09945
M73 P0 R223
G1 X63.22 Y116.446 E.09762
G1 X62.274 Y115.403 E.04417
G1 X61.47 Y114.263 E.04373
G1 X60.31 Y110.701 E.11746
G1 X60.411 Y98.659 E.37756
G1 X61.263 Y96.165 E.08264
G1 X62.374 Y94.47 E.06354
G1 X63.838 Y93.044 E.06407
G1 X65.538 Y92.041 E.0619
M204 S1000
G1 X65.728 Y92.361 F10800
M204 S800
G1 F1200
G1 X66.091 Y92.145 E.01326
G1 X68.477 Y91.492 E.07754
G1 X181.231 Y91.466 E3.53533
G1 X183.108 Y91.844 E.06002
G1 X184.959 Y92.665 E.0635
G1 X186.944 Y94.266 E.07995
G1 X188.368 Y96.275 E.07723
G1 X189.223 Y98.753 E.08219
G1 X189.365 Y110.234 E.36001
G1 X188.623 Y113.19 E.09555
G1 X186.975 Y115.717 E.09458
G1 X185.976 Y116.625 E.04234
G1 X184.87 Y117.405 E.04244
G1 X181.331 Y118.535 E.11646
G1 X68.92 Y118.561 E3.52458
G1 X66.004 Y117.82 E.09435
M73 Q0 S225
G1 X63.483 Y116.175 E.09439
G1 X62.575 Y115.176 E.04232
G1 X61.795 Y114.069 E.04246
G1 X60.678 Y110.614 E.11385
G1 X60.787 Y98.694 E.37376
G1 X61.612 Y96.312 E.07904
G1 X62.678 Y94.695 E.06071
G1 X64.05 Y93.357 E.06009
G1 X65.676 Y92.391 E.0593
M204 S1000
G1 X65.867 Y92.71 F10800
M204 S800
G1 F1200
G1 X66.216 Y92.502 E.01275
G1 X68.552 Y91.863 E.07594
G1 X181.176 Y91.839 E3.53124
G1 X182.975 Y92.197 E.05752
G1 X184.743 Y92.975 E.06055
G1 X186.652 Y94.506 E.07675
G1 X188.022 Y96.425 E.07391
G1 X188.847 Y98.789 E.07849
G1 X188.987 Y110.215 E.35828
G1 X188.29 Y113.011 E.09037
G1 X186.704 Y115.454 E.09133
G1 X185.731 Y116.338 E.0412
G1 X184.677 Y117.079 E.04042
G1 X181.245 Y118.167 E.11286
G1 X68.944 Y118.184 E3.52113
G1 X66.128 Y117.463 E.09116
G1 X63.746 Y115.903 E.08926
G1 X62.862 Y114.931 E.0412
G1 X62.12 Y113.876 E.04045
G1 X61.047 Y110.528 E.11023
G1 X61.164 Y98.729 E.36996
G1 X61.96 Y96.459 E.07543
G1 X62.956 Y94.95 E.05669
G1 X64.263 Y93.669 E.05738
G1 X65.815 Y92.741 E.0567
M204 S1000
G1 X66.007 Y93.059 F10800
M204 S800
G1 F1200
G1 X66.34 Y92.859 E.01222
G1 X68.627 Y92.233 E.07432
G1 X181.121 Y92.213 E3.52718
G1 X182.844 Y92.551 E.05504
G1 X184.528 Y93.286 E.0576
G1 X186.362 Y94.748 E.07354
G1 X187.675 Y96.577 E.0706
G1 X188.47 Y98.825 E.07476
G1 X188.61 Y110.195 E.35653
G1 X187.932 Y112.889 E.0871
G1 X186.432 Y115.192 E.08617
G1 X185.504 Y116.036 E.03933
G1 X184.484 Y116.754 E.03912
G1 X181.16 Y117.799 E.10924
G1 X68.967 Y117.807 E3.51772
G1 X66.307 Y117.13 E.08607
G1 X64.008 Y115.632 E.08604
G1 X63.164 Y114.704 E.03932
G1 X62.445 Y113.683 E.03917
G1 X61.415 Y110.443 E.1066
G1 X61.541 Y98.765 E.36617
G1 X62.307 Y96.607 E.07178
G1 X63.259 Y95.175 E.05392
G1 X64.476 Y93.98 E.05349
G1 X65.955 Y93.09 E.05412
M204 S1000
G1 X66.148 Y93.408 F10800
M204 S800
G1 F1200
G1 X66.466 Y93.215 E.01165
G1 X68.702 Y92.603 E.0727
G1 X181.067 Y92.586 E3.52313
G1 X182.713 Y92.906 E.05257
G1 X184.313 Y93.597 E.05465
G1 X186.072 Y94.99 E.07034
G1 X187.33 Y96.729 E.06731
G1 X188.093 Y98.861 E.07099
G1 X188.233 Y110.175 E.35478
G1 X187.598 Y112.71 E.08193
G1 X186.16 Y114.93 E.08294
G1 X185.278 Y115.735 E.03744
G1 X184.291 Y116.428 E.03781
G1 X181.075 Y117.43 E.10561
G1 X68.991 Y117.43 E3.51432
G1 X66.431 Y116.773 E.08287
M73 P0 R222
G1 X64.271 Y115.36 E.08094
G1 X63.465 Y114.478 E.03746
G1 X62.771 Y113.49 E.03787
G1 X61.784 Y110.358 E.10294
G1 X61.917 Y98.801 E.36238
G1 X62.654 Y96.757 E.06812
G1 X63.538 Y95.43 E.05
G1 X64.691 Y94.291 E.05083
G1 X66.096 Y93.439 E.05153
M204 S1000
G1 X66.29 Y93.756 F10800
M204 S800
G1 F1200
G1 X66.591 Y93.572 E.01106
G1 X68.777 Y92.974 E.07107
G1 X181.014 Y92.96 E3.51911
G1 X182.584 Y93.261 E.05012
G1 X184.1 Y93.909 E.05169
G1 X185.783 Y95.233 E.06714
G1 X186.985 Y96.884 E.06402
G1 X187.717 Y98.898 E.06719
G1 X187.855 Y110.155 E.35299
G1 X187.241 Y112.587 E.07865
G1 X185.888 Y114.667 E.0778
G1 X185.032 Y115.448 E.03631
G1 X184.099 Y116.103 E.03576
G1 X181.047 Y117.053 E.10022
G1 X69.015 Y117.053 E3.51269
G1 X66.611 Y116.44 E.07779
M73 Q0 S224
G1 X64.533 Y115.088 E.07772
G1 X63.752 Y114.232 E.03631
G1 X63.096 Y113.297 E.03581
G1 X62.153 Y110.275 E.09929
G1 X62.294 Y98.838 E.3586
G1 X63 Y96.909 E.06443
G1 X63.84 Y95.656 E.0473
G1 X64.907 Y94.601 E.04703
G1 X66.239 Y93.787 E.04895
M204 S1000
G1 X66.434 Y94.103 F10800
M204 S800
G1 F1200
G1 X66.717 Y93.928 E.01044
G1 X68.852 Y93.344 E.06942
G1 X180.962 Y93.334 E3.51511
G1 X182.457 Y93.616 E.04769
G1 X183.888 Y94.222 E.04873
G1 X185.494 Y95.478 E.06394
G1 X186.64 Y97.04 E.06075
G1 X187.34 Y98.935 E.06335
G1 X187.478 Y110.135 E.3512
G1 X186.907 Y112.409 E.07349
G1 X185.615 Y114.406 E.07457
G1 X184.806 Y115.146 E.0344
G1 X183.906 Y115.777 E.03445
G1 X181.018 Y116.676 E.09483
G1 X69.038 Y116.676 E3.51107
G1 X66.789 Y116.106 E.07273
M73 P1 R222
M73 Q1 S224
G1 X64.794 Y114.815 E.0745
G1 X64.054 Y114.006 E.0344
G1 X63.422 Y113.105 E.03449
G1 X62.522 Y110.192 E.09561
G1 X62.671 Y98.876 E.35482
G1 X63.345 Y97.061 E.06071
G1 X64.119 Y95.91 E.0435
G1 X65.124 Y94.91 E.04443
G1 X66.382 Y94.135 E.04636
M204 S1000
G1 X66.578 Y94.449 F10800
M204 S800
G1 F1200
G1 X66.843 Y94.285 E.00978
G1 X68.928 Y93.715 E.06776
G1 X180.91 Y93.708 E3.51114
G1 X182.33 Y93.972 E.04528
G1 X183.677 Y94.535 E.04578
G1 X185.207 Y95.723 E.06074
G1 X186.297 Y97.198 E.0575
G1 X186.964 Y98.973 E.05946
G1 X187.101 Y110.115 E.34938
G1 X186.549 Y112.285 E.07021
G1 X185.343 Y114.144 E.06947
G1 X184.579 Y114.845 E.0325
G1 X183.714 Y115.452 E.03314
G1 X180.99 Y116.299 E.08944
G1 X69.062 Y116.299 E3.50943
G1 X66.913 Y115.749 E.06955
G1 X65.056 Y114.543 E.06942
G1 X64.355 Y113.779 E.0325
G1 X63.748 Y112.913 E.03317
G1 X62.899 Y110.167 E.09011
G1 X63.047 Y98.915 E.35284
G1 X63.69 Y97.216 E.05694
G1 X64.421 Y96.137 E.04089
G1 X65.341 Y95.219 E.04075
G1 X66.527 Y94.481 E.04379
M204 S1000
G1 X66.723 Y94.795 F10800
M204 S800
G1 F1200
G1 X66.969 Y94.641 E.0091
G1 X69.003 Y94.085 E.0661
G1 X180.86 Y94.082 E3.50719
G1 X182.205 Y94.328 E.04289
G1 X183.467 Y94.849 E.04281
G1 X184.921 Y95.97 E.05754
G1 X185.955 Y97.357 E.05426
G1 X186.587 Y99.012 E.05553
G1 X186.723 Y110.095 E.34755
G1 X186.216 Y112.107 E.06505
G1 X185.069 Y113.883 E.06627
G1 X184.352 Y114.543 E.03057
G1 X183.521 Y115.126 E.03183
G1 X180.961 Y115.922 E.08405
G1 X69.085 Y115.922 E3.5078
G1 X67.091 Y115.415 E.0645
G1 X65.317 Y114.269 E.06622
G1 X64.657 Y113.552 E.03057
G1 X64.073 Y112.72 E.03185
G1 X63.277 Y110.142 E.08461
G1 X63.412 Y99.016 E.34888
G1 X64.015 Y97.408 E.05385
G1 X64.701 Y96.39 E.03848
G1 X65.593 Y95.501 E.0395
G1 X66.672 Y94.827 E.03991
M204 S1000
M73 P1 R221
G1 X66.869 Y95.14 F10800
M204 S800
G1 F1200
G1 X67.096 Y94.998 E.0084
G1 X69.078 Y94.455 E.06444
G1 X180.842 Y94.459 E3.50428
G1 X182.116 Y94.695 E.04064
G1 X183.299 Y95.187 E.04015
G1 X184.668 Y96.251 E.05438
G1 X185.636 Y97.56 E.05103
G1 X186.222 Y99.114 E.05207
G1 X186.346 Y110.075 E.3437
G1 X185.858 Y111.984 E.06178
G1 X184.796 Y113.622 E.06121
G1 X184.123 Y114.244 E.02875
G1 X183.379 Y114.776 E.02868
G1 X180.932 Y115.545 E.0804
G1 X69.109 Y115.545 E3.50614
G1 X67.215 Y115.058 E.06132
G1 X65.578 Y113.996 E.06118
G1 X64.956 Y113.323 E.02875
M73 Q1 S223
G1 X64.424 Y112.578 E.02869
G1 X63.654 Y110.116 E.08088
G1 X63.777 Y99.117 E.34491
G1 X64.34 Y97.6 E.05073
G1 X65.003 Y96.617 E.03718
G1 X65.843 Y95.783 E.03712
G1 X66.818 Y95.172 E.03607
M204 S1000
G1 X67.015 Y95.485 F10800
M204 S800
G1 F1200
G1 X67.223 Y95.353 E.00772
G1 X69.104 Y94.832 E.06118
G1 X180.825 Y94.836 E3.50293
G1 X181.99 Y95.051 E.03715
G1 X183.13 Y95.526 E.03871
G1 X184.415 Y96.532 E.05118
G1 X185.316 Y97.761 E.04779
G1 X185.858 Y99.214 E.04862
G1 X185.969 Y110.054 E.3399
G1 X185.524 Y111.806 E.05666
G1 X184.522 Y113.362 E.05803
G1 X183.894 Y113.944 E.02687
G1 X183.184 Y114.452 E.02736
G1 X180.904 Y115.168 E.07493
G1 X69.133 Y115.168 E3.50451
G1 X67.393 Y114.724 E.05628
G1 X65.838 Y113.722 E.058
G1 X65.256 Y113.094 E.02687
G1 X64.748 Y112.383 E.02737
G1 X64.031 Y110.09 E.07532
G1 X64.142 Y99.216 E.34098
G1 X64.666 Y97.791 E.04762
G1 X65.282 Y96.871 E.0347
G1 X66.094 Y96.065 E.03588
G1 X66.965 Y95.517 E.03225
M204 S1000
G1 X67.163 Y95.829 F10800
M204 S800
G1 F1200
G1 X67.352 Y95.709 E.00705
G1 X69.13 Y95.209 E.05789
G1 X180.807 Y95.213 E3.50156
G1 X181.9 Y95.418 E.03487
G1 X182.959 Y95.863 E.03602
G1 X184.16 Y96.811 E.04797
G1 X184.995 Y97.961 E.04455
G1 X185.493 Y99.313 E.04519
G1 X185.591 Y110.033 E.33611
G1 X185.167 Y111.682 E.05339
G1 X184.249 Y113.101 E.053
G1 X183.646 Y113.659 E.02576
G1 X182.989 Y114.127 E.02529
G1 X180.875 Y114.791 E.06948
G1 X69.157 Y114.791 E3.50285
G1 X67.518 Y114.367 E.05308
G1 X66.099 Y113.449 E.05298
G1 X65.541 Y112.846 E.02576
G1 X65.073 Y112.189 E.0253
G1 X64.409 Y110.064 E.0698
G1 X64.507 Y99.314 E.33707
G1 X64.992 Y97.981 E.04448
G1 X65.585 Y97.097 E.03337
G1 X66.345 Y96.348 E.03346
G1 X67.112 Y95.861 E.02849
M204 S1000
G1 X67.311 Y96.173 F10800
M204 S800
G1 F1200
G1 X67.483 Y96.064 E.00639
G1 X69.157 Y95.587 E.05457
G1 X180.789 Y95.59 E3.50016
G1 X181.809 Y95.784 E.03256
G1 X182.788 Y96.2 E.03333
G1 X183.905 Y97.089 E.04476
G1 X184.673 Y98.159 E.0413
G1 X185.127 Y99.411 E.04177
G1 X185.214 Y110.011 E.33237
G1 X184.833 Y111.504 E.0483
G1 X183.975 Y112.841 E.04981
G1 X183.399 Y113.374 E.02461
G1 X182.796 Y113.802 E.0232
G1 X180.846 Y114.413 E.06405
G1 X69.18 Y114.413 E3.50121
G1 X67.695 Y114.033 E.04806
G1 X66.359 Y113.175 E.04979
G1 X65.826 Y112.599 E.02461
G1 X65.397 Y111.995 E.02321
G1 X64.786 Y110.038 E.0643
G1 X64.873 Y99.412 E.33319
G1 X65.319 Y98.172 E.04132
G1 X65.887 Y97.323 E.03201
G1 X66.594 Y96.631 E.03104
G1 X67.261 Y96.205 E.02479
M204 S1000
G1 X67.461 Y96.517 F10800
M204 S800
G1 F1200
G1 X67.615 Y96.418 E.00573
G1 X69.184 Y95.964 E.05121
G1 X180.771 Y95.967 E3.49874
G1 X181.717 Y96.15 E.03023
M73 P1 R220
G1 X182.615 Y96.536 E.03062
G1 X183.647 Y97.366 E.04154
G1 X184.35 Y98.355 E.03805
G1 X184.761 Y99.507 E.03836
G1 X184.837 Y109.989 E.32865
G1 X184.476 Y111.38 E.04505
G1 X183.701 Y112.58 E.0448
G1 X183.152 Y113.089 E.02347
G1 X182.602 Y113.477 E.02111
G1 X180.818 Y114.036 E.05863
G1 X69.205 Y114.036 E3.49955
G1 X67.82 Y113.676 E.04486
G1 X66.62 Y112.901 E.04479
G1 X66.111 Y112.352 E.02347
G1 X65.723 Y111.802 E.02111
G1 X65.163 Y110.011 E.05883
G1 X65.239 Y99.507 E.32935
G1 X65.646 Y98.361 E.03813
G1 X66.189 Y97.55 E.03063
G1 X66.844 Y96.915 E.0286
G1 X67.411 Y96.549 E.02115
M204 S1000
G1 X67.613 Y96.86 F10800
M204 S800
G1 F1200
G1 X67.748 Y96.771 E.00507
G1 X69.211 Y96.341 E.04781
G1 X180.752 Y96.344 E3.49729
G1 X181.624 Y96.516 E.02786
M73 Q1 S222
G1 X182.44 Y96.871 E.02791
G1 X183.389 Y97.641 E.03832
G1 X184.026 Y98.55 E.03479
G1 X184.395 Y99.602 E.03497
G1 X184.46 Y109.967 E.32499
G1 X184.142 Y111.202 E.03999
G1 X183.427 Y112.32 E.0416
G1 X182.905 Y112.804 E.0223
G1 X182.41 Y113.152 E.019
G1 X180.789 Y113.659 E.05324
G1 X69.228 Y113.659 E3.49791
G1 X67.997 Y113.342 E.03986
G1 X66.88 Y112.627 E.0416
G1 X66.396 Y112.105 E.0223
G1 X66.048 Y111.61 E.019
G1 X65.54 Y109.984 E.05338
G1 X65.605 Y99.602 E.32554
G1 X65.972 Y98.551 E.03491
G1 X66.491 Y97.777 E.02921
G1 X67.092 Y97.199 E.02616
G1 X67.563 Y96.892 E.0176
M204 S1000
G1 X67.767 Y97.202 F10800
M204 S800
G1 F1200
G1 X67.884 Y97.124 E.00441
G1 X69.239 Y96.718 E.04435
G1 X180.733 Y96.721 E3.49581
G1 X181.529 Y96.881 E.02545
G1 X182.264 Y97.205 E.02518
G1 X183.128 Y97.915 E.03508
G1 X183.701 Y98.742 E.03153
G1 X184.028 Y99.695 E.0316
G1 X184.082 Y109.944 E.32135
G1 X183.785 Y111.077 E.03674
G1 X183.154 Y112.06 E.03662
G1 X182.659 Y112.518 E.02115
G1 X182.218 Y112.826 E.01687
G1 X180.76 Y113.282 E.04788
G1 X69.253 Y113.282 E3.49624
G1 X68.123 Y112.985 E.03665
G1 X67.14 Y112.354 E.03661
G1 X66.682 Y111.859 E.02115
G1 X66.374 Y111.418 E.01687
G1 X65.918 Y109.957 E.04797
G1 X65.972 Y99.695 E.32178
G1 X66.3 Y98.74 E.03165
G1 X66.792 Y98.004 E.02776
G1 X67.34 Y97.483 E.0237
G1 X67.717 Y97.235 E.01415
M204 S1000
G1 X67.923 Y97.543 F10800
M204 S800
G1 F1200
G1 X68.022 Y97.476 E.00374
G1 X69.268 Y97.095 E.04084
G1 X180.714 Y97.098 E3.49433
G1 X181.396 Y97.235 E.02178
G1 X182.087 Y97.539 E.02369
G1 X182.866 Y98.187 E.03177
G1 X183.374 Y98.932 E.02826
G1 X183.661 Y99.786 E.02825
G1 X183.705 Y109.921 E.31779
G1 X183.451 Y110.901 E.03173
M73 P2 R220
G1 X182.879 Y111.8 E.03341
G1 X182.413 Y112.232 E.01994
G1 X182.027 Y112.5 E.01473
G1 X180.732 Y112.905 E.04254
G1 X69.277 Y112.905 E3.49459
G1 X68.299 Y112.651 E.03167
M73 Q2 S222
G1 X67.4 Y112.079 E.03341
G1 X66.968 Y111.613 E.01994
G1 X66.7 Y111.227 E.01473
G1 X66.295 Y109.93 E.0426
G1 X66.339 Y99.786 E.31806
G1 X66.627 Y98.928 E.02836
G1 X67.093 Y98.232 E.02627
G1 X67.587 Y97.768 E.02124
G1 X67.873 Y97.576 E.01082
M204 S1000
G1 X68.084 Y97.882 F10800
M204 S800
G1 F1200
G1 X68.163 Y97.827 E.00304
