; generated by PrusaSlicer 2.4.1+x64 on 2022-03-16 at 18:05:07 UTC

; 

; external perimeters extrusion width = 0.60mm
; perimeters extrusion width = 0.50mm
; infill extrusion width = 0.50mm
; solid infill extrusion width = 0.50mm
; top infill extrusion width = 0.45mm
; first layer extrusion width = 0.42mm

M73 P0 R98
M73 Q0 S98
M201 X1000 Y1000 Z200 E5000 ; sets maximum accelerations, mm/sec^2
M203 X200 Y200 Z12 E120 ; sets maximum feedrates, mm / sec
M204 P1250 R1250 T1250 ; sets acceleration (P, T) and retract acceleration (R), mm/sec^2
M205 X8.00 Y8.00 Z0.40 E4.50 ; sets the jerk limits, mm/sec
M205 S0 T0 ; sets the minimum extruding and travel feed rate, mm/sec
M107
;TYPE:Custom
M862.3 P "MK3S" ; printer model check
M862.1 P0.4 ; nozzle diameter check
M115 U3.10.1 ; tell printer latest fw version
G90 ; use absolute coordinates
M83 ; extruder relative mode
M104 S215 ; set extruder temp
M140 S60 ; set bed temp
M190 S60 ; wait for bed temp
M109 S215 ; wait for extruder temp
G28 W ; home all without mesh bed level
G80 ; mesh bed leveling
G1 Z0.2 F720
G1 Y-3 F1000 ; go outside print area
G92 E0
G1 X60 E9 F1000 ; intro line
G1 X100 E12.5 F1000 ; intro line
G92 E0
M221 S95

; Don't change E values below. Excessive value can damage the printer.

M907 E538 ; set extruder motor current
G21 ; set units to millimeters
G90 ; use absolute coordinates
M83 ; use relative distances for extrusion
M900 K0.05 ; Filament gcode LA 1.5
M900 K30 ; Filament gcode LA 1.0
M107
;LAYER_CHANGE
;Z:0.2
;HEIGHT:0.2
;BEFORE_LAYER_CHANGE
G92 E0.0
;0.2


G1 E-.8 F2100
G1 Z.4 F720
;AFTER_LAYER_CHANGE
;0.2
G1 X68.46 Y97.967 F10800
G1 Z.2 F720
G1 E.8 F2100
M204 S800
;TYPE:Skirt/Brim
;WIDTH:0.42
G1 F1200
G1 X69.4 Y97.773 E.03008
G1 X180.6 Y97.773 E3.4866
G1 X181.907 Y98.165 E.04278
G1 X182.783 Y99.21 E.04278
G1 X182.977 Y100.15 E.03008
G1 X182.977 Y109.85 E.30414
G1 X182.585 Y111.157 E.04278
G1 X181.54 Y112.033 E.04278
G1 X180.6 Y112.227 E.03008
G1 X69.4 Y112.227 E3.4866
G1 X68.093 Y111.835 E.04278
G1 X67.217 Y110.79 E.04278
G1 X67.023 Y109.85 E.03008
G1 X67.023 Y100.15 E.30414
G1 X67.415 Y98.843 E.04278
G1 X68.414 Y98.005 E.0409
M204 S1000
; printing object camera-stand.stl id:0 copy 0
;WIPE_START
G1 F8640
G1 X69.4 Y97.773 E-.23384
G1 X71.679 Y97.773 E-.52616
;WIPE_END
G1 E-.04 F2100
G1 Z.6 F720
G1 X70.187 Y100.937 F10800
G1 Z.2 F720
G1 E.8 F2100
M204 S800
;TYPE:Perimeter
G1 F1200
G1 X179.813 Y100.937 E3.43724
G1 X179.813 Y109.063 E.25478
M73 P0 R97
G1 X70.187 Y109.063 E3.43724
G1 X70.187 Y100.997 E.2529
M204 S1000
G1 X69.81 Y100.56 F10800
M204 S800
;TYPE:External perimeter
G1 F1200
G1 X180.19 Y100.56 E3.46089
G1 X180.19 Y109.44 E.27843
G1 X69.81 Y109.44 E3.46089
G1 X69.81 Y100.62 E.27654
M204 S1000
M73 Q0 S97
G1 X70.21 Y100.571 F10800
;WIPE_START
G1 F8640
G1 X73.101 Y100.618 E-.76
;WIPE_END
G1 E-.04 F2100
G1 Z.6 F720
G1 X178.937 Y101.05 F10800
G1 Z.2 F720
G1 E.8 F2100
M204 S800
;TYPE:Solid infill
;WIDTH:0.420176
G1 F1200
G1 X179.53 Y101.643 E.02631
G1 X179.53 Y102.177 E.01674
G1 X178.573 Y101.22 E.04245
G1 X178.04 Y101.22 E.01674
G1 X179.53 Y102.71 E.06611
G1 X179.53 Y103.244 E.01674
G1 X177.506 Y101.22 E.08978
G1 X176.973 Y101.22 E.01674
G1 X179.53 Y103.777 E.11345
G1 X179.53 Y104.311 E.01674
G1 X176.439 Y101.22 E.13712
G1 X175.906 Y101.22 E.01674
G1 X179.53 Y104.844 E.16079
G1 X179.53 Y105.378 E.01674
G1 X175.372 Y101.22 E.18446
G1 X174.839 Y101.22 E.01674
G1 X179.53 Y105.911 E.20812
G1 X179.53 Y106.445 E.01674
G1 X174.305 Y101.22 E.23179
G1 X173.772 Y101.22 E.01674
G1 X179.53 Y106.978 E.25546
G1 X179.53 Y107.512 E.01674
G1 X173.238 Y101.22 E.27913
G1 X172.705 Y101.22 E.01674
G1 X179.53 Y108.045 E.3028
G1 X179.53 Y108.579 E.01674
G1 X172.171 Y101.22 E.32646
G1 X171.638 Y101.22 E.01674
G1 X179.198 Y108.78 E.33539
G1 X178.664 Y108.78 E.01674
G1 X171.104 Y101.22 E.33539
G1 X170.571 Y101.22 E.01674
G1 X178.131 Y108.78 E.33539
G1 X177.597 Y108.78 E.01674
G1 X170.037 Y101.22 E.33539
G1 X169.503 Y101.22 E.01674
G1 X177.064 Y108.78 E.33539
G1 X176.53 Y108.78 E.01674
G1 X168.97 Y101.22 E.33539
G1 X168.436 Y101.22 E.01674
G1 X175.997 Y108.78 E.33539
G1 X175.463 Y108.78 E.01674
G1 X167.903 Y101.22 E.33539
G1 X167.369 Y101.22 E.01674
G1 X174.93 Y108.78 E.33539
G1 X174.396 Y108.78 E.01674
G1 X166.836 Y101.22 E.33539
G1 X166.302 Y101.22 E.01674
G1 X173.863 Y108.78 E.33539
G1 X173.329 Y108.78 E.01674
G1 X165.769 Y101.22 E.33539
G1 X165.235 Y101.22 E.01674
G1 X172.796 Y108.78 E.33539
G1 X172.262 Y108.78 E.01674
G1 X164.702 Y101.22 E.33539
G1 X164.168 Y101.22 E.01674
G1 X171.729 Y108.78 E.33539
G1 X171.195 Y108.78 E.01674
G1 X163.635 Y101.22 E.33539
G1 X163.101 Y101.22 E.01674
M73 Q1 S97
G1 X170.661 Y108.78 E.33539
G1 X170.128 Y108.78 E.01674
M73 P1 R97
G1 X162.568 Y101.22 E.33539
G1 X162.034 Y101.22 E.01674
G1 X169.594 Y108.78 E.33539
G1 X169.061 Y108.78 E.01674
G1 X161.501 Y101.22 E.33539
G1 X160.967 Y101.22 E.01674
G1 X168.527 Y108.78 E.33539
G1 X167.994 Y108.78 E.01674
G1 X160.434 Y101.22 E.33539
G1 X159.9 Y101.22 E.01674
G1 X167.46 Y108.78 E.33539
G1 X166.927 Y108.78 E.01674
G1 X159.367 Y101.22 E.33539
G1 X158.833 Y101.22 E.01674
G1 X166.393 Y108.78 E.33539
G1 X165.86 Y108.78 E.01674
G1 X158.3 Y101.22 E.33539
G1 X157.766 Y101.22 E.01674
G1 X165.326 Y108.78 E.33539
G1 X164.793 Y108.78 E.01674
G1 X157.233 Y101.22 E.33539
G1 X156.699 Y101.22 E.01674
G1 X164.259 Y108.78 E.33539
G1 X163.726 Y108.78 E.01674
G1 X156.165 Y101.22 E.33539
G1 X155.632 Y101.22 E.01674
G1 X163.192 Y108.78 E.33539
G1 X162.659 Y108.78 E.01674
G1 X155.098 Y101.22 E.33539
G1 X154.565 Y101.22 E.01674
G1 X162.125 Y108.78 E.33539
G1 X161.592 Y108.78 E.01674
G1 X154.031 Y101.22 E.33539
G1 X153.498 Y101.22 E.01674
G1 X161.058 Y108.78 E.33539
G1 X160.525 Y108.78 E.01674
G1 X152.964 Y101.22 E.33539
G1 X152.431 Y101.22 E.01674
G1 X159.991 Y108.78 E.33539
G1 X159.458 Y108.78 E.01674
G1 X151.897 Y101.22 E.33539
G1 X151.364 Y101.22 E.01674
G1 X158.924 Y108.78 E.33539
G1 X158.391 Y108.78 E.01674
G1 X150.83 Y101.22 E.33539
G1 X150.297 Y101.22 E.01674
G1 X157.857 Y108.78 E.33539
G1 X157.323 Y108.78 E.01674
G1 X149.763 Y101.22 E.33539
G1 X149.23 Y101.22 E.01674
G1 X156.79 Y108.78 E.33539
G1 X156.256 Y108.78 E.01674
G1 X148.696 Y101.22 E.33539
G1 X148.163 Y101.22 E.01674
G1 X155.723 Y108.78 E.33539
G1 X155.189 Y108.78 E.01674
G1 X147.629 Y101.22 E.33539
G1 X147.096 Y101.22 E.01674
G1 X154.656 Y108.78 E.33539
G1 X154.122 Y108.78 E.01674
G1 X146.562 Y101.22 E.33539
G1 X146.029 Y101.22 E.01674
G1 X153.589 Y108.78 E.33539
G1 X153.055 Y108.78 E.01674
G1 X145.495 Y101.22 E.33539
G1 X144.962 Y101.22 E.01674
G1 X152.522 Y108.78 E.33539
G1 X151.988 Y108.78 E.01674
G1 X144.428 Y101.22 E.33539
G1 X143.894 Y101.22 E.01674
G1 X151.455 Y108.78 E.33539
G1 X150.921 Y108.78 E.01674
G1 X143.361 Y101.22 E.33539
G1 X142.827 Y101.22 E.01674
M73 P1 R96
G1 X150.388 Y108.78 E.33539
G1 X149.854 Y108.78 E.01674
G1 X142.294 Y101.22 E.33539
G1 X141.76 Y101.22 E.01674
G1 X149.321 Y108.78 E.33539
G1 X148.787 Y108.78 E.01674
G1 X141.227 Y101.22 E.33539
G1 X140.693 Y101.22 E.01674
G1 X148.254 Y108.78 E.33539
G1 X147.72 Y108.78 E.01674
G1 X140.16 Y101.22 E.33539
G1 X139.626 Y101.22 E.01674
G1 X147.187 Y108.78 E.33539
G1 X146.653 Y108.78 E.01674
G1 X139.093 Y101.22 E.33539
G1 X138.559 Y101.22 E.01674
G1 X146.12 Y108.78 E.33539
G1 X145.586 Y108.78 E.01674
G1 X138.026 Y101.22 E.33539
G1 X137.492 Y101.22 E.01674
G1 X145.052 Y108.78 E.33539
G1 X144.519 Y108.78 E.01674
G1 X136.959 Y101.22 E.33539
G1 X136.425 Y101.22 E.01674
G1 X143.985 Y108.78 E.33539
G1 X143.452 Y108.78 E.01674
G1 X135.892 Y101.22 E.33539
G1 X135.358 Y101.22 E.01674
G1 X142.918 Y108.78 E.33539
G1 X142.385 Y108.78 E.01674
G1 X134.825 Y101.22 E.33539
G1 X134.291 Y101.22 E.01674
G1 X141.851 Y108.78 E.33539
G1 X141.318 Y108.78 E.01674
G1 X133.758 Y101.22 E.33539
G1 X133.224 Y101.22 E.01674
G1 X140.784 Y108.78 E.33539
G1 X140.251 Y108.78 E.01674
G1 X132.691 Y101.22 E.33539
G1 X132.157 Y101.22 E.01674
G1 X139.717 Y108.78 E.33539
G1 X139.184 Y108.78 E.01674
G1 X131.624 Y101.22 E.33539
G1 X131.09 Y101.22 E.01674
G1 X138.65 Y108.78 E.33539
G1 X138.117 Y108.78 E.01674
G1 X130.556 Y101.22 E.33539
G1 X130.023 Y101.22 E.01674
G1 X137.583 Y108.78 E.33539
G1 X137.05 Y108.78 E.01674
G1 X129.489 Y101.22 E.33539
G1 X128.956 Y101.22 E.01674
G1 X136.516 Y108.78 E.33539
G1 X135.983 Y108.78 E.01674
G1 X128.422 Y101.22 E.33539
G1 X127.889 Y101.22 E.01674
G1 X135.449 Y108.78 E.33539
G1 X134.916 Y108.78 E.01674
G1 X127.355 Y101.22 E.33539
G1 X126.822 Y101.22 E.01674
G1 X134.382 Y108.78 E.33539
G1 X133.849 Y108.78 E.01674
G1 X126.288 Y101.22 E.33539
G1 X125.755 Y101.22 E.01674
G1 X133.315 Y108.78 E.33539
G1 X132.782 Y108.78 E.01674
M73 Q1 S96
G1 X125.221 Y101.22 E.33539
G1 X124.688 Y101.22 E.01674
G1 X132.248 Y108.78 E.33539
G1 X131.714 Y108.78 E.01674
G1 X124.154 Y101.22 E.33539
G1 X123.621 Y101.22 E.01674
G1 X131.181 Y108.78 E.33539
G1 X130.647 Y108.78 E.01674
G1 X123.087 Y101.22 E.33539
G1 X122.554 Y101.22 E.01674
G1 X130.114 Y108.78 E.33539
G1 X129.58 Y108.78 E.01674
G1 X122.02 Y101.22 E.33539
G1 X121.487 Y101.22 E.01674
G1 X129.047 Y108.78 E.33539
G1 X128.513 Y108.78 E.01674
G1 X120.953 Y101.22 E.33539
G1 X120.42 Y101.22 E.01674
G1 X127.98 Y108.78 E.33539
G1 X127.446 Y108.78 E.01674
G1 X119.886 Y101.22 E.33539
G1 X119.353 Y101.22 E.01674
G1 X126.913 Y108.78 E.33539
G1 X126.379 Y108.78 E.01674
G1 X118.819 Y101.22 E.33539
G1 X118.286 Y101.22 E.01674
G1 X125.846 Y108.78 E.33539
G1 X125.312 Y108.78 E.01674
G1 X117.752 Y101.22 E.33539
G1 X117.218 Y101.22 E.01674
G1 X124.779 Y108.78 E.33539
G1 X124.245 Y108.78 E.01674
G1 X116.685 Y101.22 E.33539
G1 X116.151 Y101.22 E.01674
G1 X123.712 Y108.78 E.33539
G1 X123.178 Y108.78 E.01674
G1 X115.618 Y101.22 E.33539
G1 X115.084 Y101.22 E.01674
G1 X122.645 Y108.78 E.33539
G1 X122.111 Y108.78 E.01674
G1 X114.551 Y101.22 E.33539
G1 X114.017 Y101.22 E.01674
G1 X121.578 Y108.78 E.33539
G1 X121.044 Y108.78 E.01674
G1 X113.484 Y101.22 E.33539
G1 X112.95 Y101.22 E.01674
G1 X120.511 Y108.78 E.33539
G1 X119.977 Y108.78 E.01674
G1 X112.417 Y101.22 E.33539
G1 X111.883 Y101.22 E.01674
G1 X119.444 Y108.78 E.33539
G1 X118.91 Y108.78 E.01674
G1 X111.35 Y101.22 E.33539
G1 X110.816 Y101.22 E.01674
G1 X118.376 Y108.78 E.33539
G1 X117.843 Y108.78 E.01674
G1 X110.283 Y101.22 E.33539
G1 X109.749 Y101.22 E.01674
G1 X117.309 Y108.78 E.33539
G1 X116.776 Y108.78 E.01674
G1 X109.216 Y101.22 E.33539
G1 X108.682 Y101.22 E.01674
G1 X116.242 Y108.78 E.33539
G1 X115.709 Y108.78 E.01674
M73 P2 R96
M73 Q2 S96
G1 X108.149 Y101.22 E.33539
G1 X107.615 Y101.22 E.01674
G1 X115.175 Y108.78 E.33539
G1 X114.642 Y108.78 E.01674
G1 X107.082 Y101.22 E.33539
G1 X106.548 Y101.22 E.01674
G1 X114.108 Y108.78 E.33539
G1 X113.575 Y108.78 E.01674
G1 X106.015 Y101.22 E.33539
G1 X105.481 Y101.22 E.01674
G1 X113.041 Y108.78 E.33539
G1 X112.508 Y108.78 E.01674
G1 X104.947 Y101.22 E.33539
G1 X104.414 Y101.22 E.01674
G1 X111.974 Y108.78 E.33539
G1 X111.441 Y108.78 E.01674
G1 X103.88 Y101.22 E.33539
G1 X103.347 Y101.22 E.01674
G1 X110.907 Y108.78 E.33539
G1 X110.374 Y108.78 E.01674
G1 X102.813 Y101.22 E.33539
G1 X102.28 Y101.22 E.01674
G1 X109.84 Y108.78 E.33539
G1 X109.307 Y108.78 E.01674
G1 X101.746 Y101.22 E.33539
G1 X101.213 Y101.22 E.01674
G1 X108.773 Y108.78 E.33539
G1 X108.24 Y108.78 E.01674
G1 X100.679 Y101.22 E.33539
G1 X100.146 Y101.22 E.01674
G1 X107.706 Y108.78 E.33539
G1 X107.173 Y108.78 E.01674
G1 X99.612 Y101.22 E.33539
G1 X99.079 Y101.22 E.01674
G1 X106.639 Y108.78 E.33539
G1 X106.105 Y108.78 E.01674
G1 X98.545 Y101.22 E.33539
G1 X98.012 Y101.22 E.01674
G1 X105.572 Y108.78 E.33539
G1 X105.038 Y108.78 E.01674
G1 X97.478 Y101.22 E.33539
G1 X96.945 Y101.22 E.01674
G1 X104.505 Y108.78 E.33539
G1 X103.971 Y108.78 E.01674
G1 X96.411 Y101.22 E.33539
G1 X95.878 Y101.22 E.01674
G1 X103.438 Y108.78 E.33539
G1 X102.904 Y108.78 E.01674
G1 X95.344 Y101.22 E.33539
G1 X94.811 Y101.22 E.01674
G1 X102.371 Y108.78 E.33539
G1 X101.837 Y108.78 E.01674
G1 X94.277 Y101.22 E.33539
G1 X93.744 Y101.22 E.01674
G1 X101.304 Y108.78 E.33539
G1 X100.77 Y108.78 E.01674
G1 X93.21 Y101.22 E.33539
G1 X92.677 Y101.22 E.01674
G1 X100.237 Y108.78 E.33539
G1 X99.703 Y108.78 E.01674
G1 X92.143 Y101.22 E.33539
G1 X91.609 Y101.22 E.01674
G1 X99.17 Y108.78 E.33539
G1 X98.636 Y108.78 E.01674
G1 X91.076 Y101.22 E.33539
G1 X90.542 Y101.22 E.01674
G1 X98.103 Y108.78 E.33539
G1 X97.569 Y108.78 E.01674
G1 X90.009 Y101.22 E.33539
G1 X89.475 Y101.22 E.01674
G1 X97.036 Y108.78 E.33539
G1 X96.502 Y108.78 E.01674
G1 X88.942 Y101.22 E.33539
G1 X88.408 Y101.22 E.01674
G1 X95.969 Y108.78 E.33539
G1 X95.435 Y108.78 E.01674
G1 X87.875 Y101.22 E.33539
G1 X87.341 Y101.22 E.01674
M73 P2 R95
G1 X94.902 Y108.78 E.33539
G1 X94.368 Y108.78 E.01674
G1 X86.808 Y101.22 E.33539
G1 X86.274 Y101.22 E.01674
G1 X93.835 Y108.78 E.33539
G1 X93.301 Y108.78 E.01674
G1 X85.741 Y101.22 E.33539
G1 X85.207 Y101.22 E.01674
G1 X92.767 Y108.78 E.33539
G1 X92.234 Y108.78 E.01674
G1 X84.674 Y101.22 E.33539
G1 X84.14 Y101.22 E.01674
G1 X91.7 Y108.78 E.33539
G1 X91.167 Y108.78 E.01674
G1 X83.607 Y101.22 E.33539
G1 X83.073 Y101.22 E.01674
G1 X90.633 Y108.78 E.33539
G1 X90.1 Y108.78 E.01674
G1 X82.54 Y101.22 E.33539
G1 X82.006 Y101.22 E.01674
G1 X89.566 Y108.78 E.33539
G1 X89.033 Y108.78 E.01674
G1 X81.473 Y101.22 E.33539
G1 X80.939 Y101.22 E.01674
G1 X88.499 Y108.78 E.33539
G1 X87.966 Y108.78 E.01674
G1 X80.406 Y101.22 E.33539
G1 X79.872 Y101.22 E.01674
G1 X87.432 Y108.78 E.33539
G1 X86.899 Y108.78 E.01674
G1 X79.339 Y101.22 E.33539
G1 X78.805 Y101.22 E.01674
G1 X86.365 Y108.78 E.33539
G1 X85.832 Y108.78 E.01674
G1 X78.271 Y101.22 E.33539
G1 X77.738 Y101.22 E.01674
G1 X85.298 Y108.78 E.33539
G1 X84.765 Y108.78 E.01674
G1 X77.204 Y101.22 E.33539
G1 X76.671 Y101.22 E.01674
G1 X84.231 Y108.78 E.33539
G1 X83.698 Y108.78 E.01674
G1 X76.137 Y101.22 E.33539
G1 X75.604 Y101.22 E.01674
G1 X83.164 Y108.78 E.33539
G1 X82.631 Y108.78 E.01674
G1 X75.07 Y101.22 E.33539
G1 X74.537 Y101.22 E.01674
G1 X82.097 Y108.78 E.33539
G1 X81.564 Y108.78 E.01674
G1 X74.003 Y101.22 E.33539
G1 X73.47 Y101.22 E.01674
G1 X81.03 Y108.78 E.33539
G1 X80.497 Y108.78 E.01674
G1 X72.936 Y101.22 E.33539
G1 X72.403 Y101.22 E.01674
G1 X79.963 Y108.78 E.33539
G1 X79.429 Y108.78 E.01674
G1 X71.869 Y101.22 E.33539
G1 X71.336 Y101.22 E.01674
G1 X78.896 Y108.78 E.33539
G1 X78.362 Y108.78 E.01674
G1 X70.802 Y101.22 E.33539
G1 X70.47 Y101.22 E.01042
G1 X70.47 Y101.421 E.00631
G1 X77.829 Y108.78 E.32646
G1 X77.295 Y108.78 E.01674
M73 Q2 S95
G1 X70.47 Y101.955 E.3028
G1 X70.47 Y102.488 E.01674
G1 X76.762 Y108.78 E.27913
G1 X76.228 Y108.78 E.01674
G1 X70.47 Y103.022 E.25546
G1 X70.47 Y103.555 E.01674
G1 X75.695 Y108.78 E.23179
G1 X75.161 Y108.78 E.01674
G1 X70.47 Y104.089 E.20812
G1 X70.47 Y104.622 E.01674
G1 X74.628 Y108.78 E.18445
G1 X74.094 Y108.78 E.01674
G1 X70.47 Y105.156 E.16079
G1 X70.47 Y105.689 E.01674
G1 X73.561 Y108.78 E.13712
G1 X73.027 Y108.78 E.01674
G1 X70.47 Y106.223 E.11345
G1 X70.47 Y106.756 E.01674
G1 X72.494 Y108.78 E.08978
G1 X71.96 Y108.78 E.01674
G1 X70.47 Y107.29 E.06611
G1 X70.47 Y107.823 E.01674
G1 X71.427 Y108.78 E.04245
G1 X70.893 Y108.78 E.01674
G1 X70.3 Y108.187 E.0263
M204 S1000
; stop printing object camera-stand.stl id:0 copy 0
M106 S84.15
;LAYER_CHANGE
;Z:0.5
;HEIGHT:0.3
;BEFORE_LAYER_CHANGE
G92 E0.0
;0.5


;WIPE_START
G1 F8640
G1 X70.893 Y108.78 E-.19363
G1 X71.427 Y108.78 E-.12319
G1 X70.47 Y107.823 E-.31243
G1 X70.47 Y107.29 E-.12319
G1 X70.493 Y107.313 E-.00756
;WIPE_END
G1 E-.04 F2100
G1 Z.6 F720
;AFTER_LAYER_CHANGE
;0.5
G1 X67.023 Y107.313 F10800
G1 Z.5 F720
G1 E.8 F2100
;TYPE:Skirt/Brim
;WIDTH:0.42
G1 F2700
G1 X67.023 Y100.15 E.31771
G1 X67.415 Y98.843 E.06052
G1 X68.46 Y97.967 E.06052
G1 X69.4 Y97.773 E.04256
G1 X180.6 Y97.773 E4.93226
G1 X181.907 Y98.165 E.06052
G1 X182.783 Y99.21 E.06052
G1 X182.977 Y100.15 E.04256
G1 X182.977 Y109.85 E.43024
G1 X182.585 Y111.157 E.06052
G1 X181.54 Y112.033 E.06052
G1 X180.6 Y112.227 E.04256
G1 X69.4 Y112.227 E4.93226
G1 X68.093 Y111.835 E.06052
G1 X67.217 Y110.79 E.06052
G1 X67.023 Y109.85 E.04256
G1 X67.023 Y107.373 E.10987
