; generated by PrusaSlicer 2.4.1+x64 on 2022-03-18 at 17:44:07 UTC

; 

; external perimeters extrusion width = 0.60mm
; perimeters extrusion width = 0.50mm
; infill extrusion width = 0.50mm
; solid infill extrusion width = 0.50mm
; top infill extrusion width = 0.45mm
; first layer extrusion width = 0.42mm

M73 P0 R225
M73 Q0 S226
M201 X1000 Y1000 Z200 E5000 ; sets maximum accelerations, mm/sec^2
M203 X200 Y200 Z12 E120 ; sets maximum feedrates, mm / sec
M204 P1250 R1250 T1250 ; sets acceleration (P, T) and retract acceleration (R), mm/sec^2
M205 X8.00 Y8.00 Z0.40 E4.50 ; sets the jerk limits, mm/sec
M205 S0 T0 ; sets the minimum extruding and travel feed rate, mm/sec
M107
;TYPE:Custom
M862.3 P "MK3S" ; printer model check
M862.1 P0.4 ; nozzle diameter check
M115 U3.10.1 ; tell printer latest fw version
G90 ; use absolute coordinates
M83 ; extruder relative mode
M104 S215 ; set extruder temp
M140 S60 ; set bed temp
M190 S60 ; wait for bed temp
M109 S215 ; wait for extruder temp
G28 W ; home all without mesh bed level
G80 ; mesh bed leveling
G1 Z0.2 F720
G1 Y-3 F1000 ; go outside print area
G92 E0
G1 X60 E9 F1000 ; intro line
G1 X100 E12.5 F1000 ; intro line
G92 E0
M221 S95

; Don't change E values below. Excessive value can damage the printer.

M907 E538 ; set extruder motor current
G21 ; set units to millimeters
G90 ; use absolute coordinates
M83 ; use relative distances for extrusion
M900 K0.05 ; Filament gcode LA 1.5
M900 K30 ; Filament gcode LA 1.0
M107
;LAYER_CHANGE
;Z:0.2
;HEIGHT:0.2
;BEFORE_LAYER_CHANGE
G92 E0.0
;0.2


M73 Q0 S225
G1 E-.8 F2100
G1 Z.4 F720
;AFTER_LAYER_CHANGE
;0.2
G1 X67.415 Y68.343 F10800
G1 Z.2 F720
G1 E.8 F2100
M204 S800
;TYPE:Skirt/Brim
;WIDTH:0.42
G1 F1200
G1 X68.46 Y67.467 E.04278
G1 X69.4 Y67.273 E.03008
G1 X180.6 Y67.273 E3.4866
G1 X181.907 Y67.665 E.04278
G1 X182.783 Y68.71 E.04278
G1 X182.977 Y69.65 E.03008
G1 X182.977 Y140.35 E2.21675
G1 X182.585 Y141.657 E.04278
G1 X181.54 Y142.533 E.04278
G1 X180.6 Y142.727 E.03008
G1 X69.4 Y142.727 E3.4866
G1 X68.093 Y142.335 E.04278
G1 X67.217 Y141.29 E.04278
G1 X67.023 Y140.35 E.03008
G1 X67.023 Y69.65 E2.21675
G1 X67.397 Y68.4 E.0409
M204 S1000
; printing object camera-stand.stl id:0 copy 0
;WIPE_START
G1 F8640
G1 X68.46 Y67.467 E-.32671
G1 X69.4 Y67.273 E-.22155
G1 X70.317 Y67.273 E-.21174
;WIPE_END
G1 E-.04 F2100
G1 Z.6 F720
G1 X144.813 Y89.863 F10800
G1 Z.2 F720
G1 E.8 F2100
M204 S800
;TYPE:Perimeter
G1 F1200
G1 X166.387 Y89.863 E.67644
G1 X166.387 Y121.437 E.98999
G1 X144.813 Y121.437 E.67644
G1 X144.813 Y89.923 E.9881
M204 S1000
G1 X145.19 Y90.24 F10800
M204 S800
;TYPE:External perimeter
G1 F1200
G1 X166.01 Y90.24 E.6528
G1 X166.01 Y121.06 E.96634
G1 X145.19 Y121.06 E.6528
G1 X145.19 Y90.3 E.96446
M204 S1000
M73 P0 R224
G1 X145.111 Y89.848 F10800
;WIPE_START
G1 F8640
G1 X148.481 Y90.291 E-.76
;WIPE_END
G1 E-.04 F2100
G1 Z.6 F720
G1 X179.813 Y70.437 F10800
G1 Z.2 F720
G1 E.8 F2100
M204 S800
;TYPE:Perimeter
G1 F1200
G1 X179.813 Y139.563 E2.16739
G1 X70.187 Y139.563 E3.43724
G1 X70.187 Y70.437 E2.16739
G1 X179.753 Y70.437 E3.43536
M204 S1000
G1 X180.19 Y70.06 F10800
M204 S800
;TYPE:External perimeter
G1 F1200
G1 X180.19 Y139.94 E2.19104
G1 X69.81 Y139.94 E3.46089
G1 X69.81 Y70.06 E2.19104
M73 Q0 S224
G1 X180.13 Y70.06 E3.45901
M204 S1000
G1 X180.058 Y70.438 F10800
;WIPE_START
G1 F8640
G1 X180.133 Y73.351 E-.76
;WIPE_END
G1 E-.04 F2100
G1 Z.6 F720
G1 X179.7 Y71.314 F10800
G1 Z.2 F720
G1 E.8 F2100
M204 S800
;TYPE:Solid infill
;WIDTH:0.420554
G1 F1200
G1 X179.106 Y70.72 E.02637
G1 X178.572 Y70.72 E.01677
G1 X179.53 Y71.678 E.04255
G1 X179.53 Y72.212 E.01677
G1 X178.038 Y70.72 E.06626
G1 X177.504 Y70.72 E.01677
G1 X179.53 Y72.746 E.08998
G1 X179.53 Y73.28 E.01677
G1 X176.97 Y70.72 E.11369
G1 X176.436 Y70.72 E.01677
G1 X179.53 Y73.814 E.13741
G1 X179.53 Y74.348 E.01677
G1 X175.902 Y70.72 E.16113
G1 X175.368 Y70.72 E.01677
G1 X179.53 Y74.882 E.18484
G1 X179.53 Y75.416 E.01677
G1 X174.834 Y70.72 E.20856
G1 X174.3 Y70.72 E.01677
G1 X179.53 Y75.95 E.23227
G1 X179.53 Y76.485 E.01677
G1 X173.765 Y70.72 E.25599
G1 X173.231 Y70.72 E.01677
G1 X179.53 Y77.019 E.2797
G1 X179.53 Y77.553 E.01677
G1 X172.697 Y70.72 E.30342
G1 X172.163 Y70.72 E.01677
G1 X179.53 Y78.087 E.32714
G1 X179.53 Y78.621 E.01677
G1 X171.629 Y70.72 E.35085
G1 X171.095 Y70.72 E.01677
G1 X179.53 Y79.155 E.37457
G1 X179.53 Y79.689 E.01677
G1 X170.561 Y70.72 E.39828
G1 X170.027 Y70.72 E.01677
G1 X179.53 Y80.223 E.422
G1 X179.53 Y80.757 E.01677
G1 X169.493 Y70.72 E.44571
G1 X168.959 Y70.72 E.01677
G1 X179.53 Y81.291 E.46943
G1 X179.53 Y81.825 E.01677
G1 X168.425 Y70.72 E.49315
G1 X167.891 Y70.72 E.01677
G1 X179.53 Y82.359 E.51686
G1 X179.53 Y82.893 E.01677
G1 X167.357 Y70.72 E.54058
G1 X166.823 Y70.72 E.01677
G1 X179.53 Y83.427 E.56429
G1 X179.53 Y83.961 E.01677
G1 X166.289 Y70.72 E.58801
G1 X165.755 Y70.72 E.01677
G1 X179.53 Y84.495 E.61172
G1 X179.53 Y85.029 E.01677
G1 X165.221 Y70.72 E.63544
G1 X164.687 Y70.72 E.01677
G1 X179.53 Y85.563 E.65916
G1 X179.53 Y86.097 E.01677
G1 X164.153 Y70.72 E.68287
G1 X163.618 Y70.72 E.01677
G1 X179.53 Y86.632 E.70659
G1 X179.53 Y87.166 E.01677
G1 X163.084 Y70.72 E.7303
G1 X162.55 Y70.72 E.01677
G1 X179.53 Y87.7 E.75402
G1 X179.53 Y88.234 E.01677
M73 P0 R223
G1 X162.016 Y70.72 E.77773
G1 X161.482 Y70.72 E.01677
G1 X179.53 Y88.768 E.80145
G1 X179.53 Y89.302 E.01677
G1 X160.948 Y70.72 E.82517
G1 X160.414 Y70.72 E.01677
G1 X179.53 Y89.836 E.84888
G1 X179.53 Y90.37 E.01677
G1 X159.88 Y70.72 E.8726
G1 X159.346 Y70.72 E.01677
G1 X179.53 Y90.904 E.89631
G1 X179.53 Y91.438 E.01677
G1 X158.812 Y70.72 E.92003
G1 X158.278 Y70.72 E.01677
G1 X179.53 Y91.972 E.94374
G1 X179.53 Y92.506 E.01677
G1 X157.744 Y70.72 E.96746
G1 X157.21 Y70.72 E.01677
G1 X179.53 Y93.04 E.99118
G1 X179.53 Y93.574 E.01677
G1 X156.676 Y70.72 E1.01489
G1 X156.142 Y70.72 E.01677
G1 X179.53 Y94.108 E1.03861
G1 X179.53 Y94.642 E.01677
G1 X155.608 Y70.72 E1.06232
G1 X155.074 Y70.72 E.01677
G1 X179.53 Y95.176 E1.08604
G1 X179.53 Y95.71 E.01677
G1 X154.54 Y70.72 E1.10975
G1 X154.005 Y70.72 E.01677
G1 X179.53 Y96.245 E1.13347
G1 X179.53 Y96.779 E.01677
M73 Q0 S223
G1 X153.471 Y70.72 E1.15719
G1 X152.937 Y70.72 E.01677
G1 X179.53 Y97.313 E1.1809
G1 X179.53 Y97.847 E.01677
G1 X152.403 Y70.72 E1.20462
G1 X151.869 Y70.72 E.01677
G1 X179.53 Y98.381 E1.22833
G1 X179.53 Y98.915 E.01677
G1 X151.335 Y70.72 E1.25205
G1 X150.801 Y70.72 E.01677
G1 X179.53 Y99.449 E1.27576
G1 X179.53 Y99.983 E.01677
G1 X150.267 Y70.72 E1.29948
G1 X149.733 Y70.72 E.01677
G1 X179.53 Y100.517 E1.3232
G1 X179.53 Y101.051 E.01677
M73 P1 R223
M73 Q1 S223
G1 X149.199 Y70.72 E1.34691
G1 X148.665 Y70.72 E.01677
G1 X179.53 Y101.585 E1.37063
G1 X179.53 Y102.119 E.01677
G1 X148.131 Y70.72 E1.39434
G1 X147.597 Y70.72 E.01677
G1 X179.53 Y102.653 E1.41806
G1 X179.53 Y103.187 E.01677
G1 X166.67 Y90.327 E.57108
G1 X166.67 Y90.861 E.01677
G1 X179.53 Y103.721 E.57108
G1 X179.53 Y104.255 E.01677
G1 X166.67 Y91.395 E.57108
G1 X166.67 Y91.929 E.01677
G1 X179.53 Y104.789 E.57108
G1 X179.53 Y105.323 E.01677
G1 X166.67 Y92.463 E.57108
G1 X166.67 Y92.997 E.01677
G1 X179.53 Y105.858 E.57108
G1 X179.53 Y106.392 E.01677
G1 X166.67 Y93.531 E.57108
G1 X166.67 Y94.065 E.01677
G1 X179.53 Y106.926 E.57108
G1 X179.53 Y107.46 E.01677
G1 X166.67 Y94.599 E.57108
G1 X166.67 Y95.134 E.01677
G1 X179.53 Y107.994 E.57108
G1 X179.53 Y108.528 E.01677
G1 X166.67 Y95.668 E.57108
G1 X166.67 Y96.202 E.01677
M73 P1 R222
G1 X179.53 Y109.062 E.57108
G1 X179.53 Y109.596 E.01677
G1 X166.67 Y96.736 E.57108
G1 X166.67 Y97.27 E.01677
G1 X179.53 Y110.13 E.57108
G1 X179.53 Y110.664 E.01677
G1 X166.67 Y97.804 E.57108
G1 X166.67 Y98.338 E.01677
G1 X179.53 Y111.198 E.57108
G1 X179.53 Y111.732 E.01677
G1 X166.67 Y98.872 E.57108
G1 X166.67 Y99.406 E.01677
G1 X179.53 Y112.266 E.57108
G1 X179.53 Y112.8 E.01677
G1 X166.67 Y99.94 E.57108
G1 X166.67 Y100.474 E.01677
G1 X179.53 Y113.334 E.57108
G1 X179.53 Y113.868 E.01677
G1 X166.67 Y101.008 E.57108
G1 X166.67 Y101.542 E.01677
G1 X179.53 Y114.402 E.57108
G1 X179.53 Y114.936 E.01677
G1 X166.67 Y102.076 E.57108
G1 X166.67 Y102.61 E.01677
G1 X179.53 Y115.471 E.57108
G1 X179.53 Y116.005 E.01677
G1 X166.67 Y103.144 E.57108
G1 X166.67 Y103.678 E.01677
G1 X179.53 Y116.539 E.57108
G1 X179.53 Y117.073 E.01677
G1 X166.67 Y104.212 E.57108
G1 X166.67 Y104.747 E.01677
G1 X179.53 Y117.607 E.57108
G1 X179.53 Y118.141 E.01677
G1 X166.67 Y105.281 E.57108
G1 X166.67 Y105.815 E.01677
G1 X179.53 Y118.675 E.57108
G1 X179.53 Y119.209 E.01677
G1 X166.67 Y106.349 E.57108
G1 X166.67 Y106.883 E.01677
G1 X179.53 Y119.743 E.57108
G1 X179.53 Y120.277 E.01677
G1 X166.67 Y107.417 E.57108
G1 X166.67 Y107.951 E.01677
G1 X179.53 Y120.811 E.57108
G1 X179.53 Y121.345 E.01677
G1 X166.67 Y108.485 E.57108
G1 X166.67 Y109.019 E.01677
G1 X179.53 Y121.879 E.57108
G1 X179.53 Y122.413 E.01677
G1 X166.67 Y109.553 E.57108
G1 X166.67 Y110.087 E.01677
M73 Q1 S222
G1 X179.53 Y122.947 E.57108
G1 X179.53 Y123.481 E.01677
G1 X166.67 Y110.621 E.57108
G1 X166.67 Y111.155 E.01677
G1 X179.53 Y124.015 E.57108
G1 X179.53 Y124.549 E.01677
G1 X166.67 Y111.689 E.57108
G1 X166.67 Y112.223 E.01677
G1 X179.53 Y125.084 E.57108
G1 X179.53 Y125.618 E.01677
G1 X166.67 Y112.757 E.57108
G1 X166.67 Y113.291 E.01677
G1 X179.53 Y126.152 E.57108
G1 X179.53 Y126.686 E.01677
G1 X166.67 Y113.825 E.57108
G1 X166.67 Y114.359 E.01677
G1 X179.53 Y127.22 E.57108
G1 X179.53 Y127.754 E.01677
G1 X166.67 Y114.894 E.57108
G1 X166.67 Y115.428 E.01677
G1 X179.53 Y128.288 E.57108
G1 X179.53 Y128.822 E.01677
G1 X166.67 Y115.962 E.57108
G1 X166.67 Y116.496 E.01677
G1 X179.53 Y129.356 E.57108
G1 X179.53 Y129.89 E.01677
G1 X166.67 Y117.03 E.57108
G1 X166.67 Y117.564 E.01677
G1 X179.53 Y130.424 E.57108
G1 X179.53 Y130.958 E.01677
G1 X166.67 Y118.098 E.57108
G1 X166.67 Y118.632 E.01677
G1 X179.53 Y131.492 E.57108
G1 X179.53 Y132.026 E.01677
G1 X166.67 Y119.166 E.57108
G1 X166.67 Y119.7 E.01677
G1 X179.53 Y132.56 E.57108
G1 X179.53 Y133.094 E.01677
G1 X166.67 Y120.234 E.57108
G1 X166.67 Y120.768 E.01677
G1 X179.53 Y133.628 E.57108
G1 X179.53 Y134.162 E.01677
G1 X166.67 Y121.302 E.57108
G1 X166.67 Y121.72 E.01311
G1 X166.553 Y121.72 E.00365
G1 X179.53 Y134.697 E.57625
G1 X179.53 Y135.231 E.01677
G1 X166.019 Y121.72 E.59997
G1 X165.485 Y121.72 E.01677
G1 X179.53 Y135.765 E.62368
G1 X179.53 Y136.299 E.01677
G1 X164.951 Y121.72 E.6474
G1 X164.417 Y121.72 E.01677
G1 X179.53 Y136.833 E.67111
G1 X179.53 Y137.367 E.01677
G1 X163.883 Y121.72 E.69483
G1 X163.349 Y121.72 E.01677
G1 X179.53 Y137.901 E.71855
G1 X179.53 Y138.435 E.01677
G1 X162.815 Y121.72 E.74226
G1 X162.281 Y121.72 E.01677
G1 X179.53 Y138.969 E.76598
G1 X179.53 Y139.28 E.00977
G1 X179.307 Y139.28 E.007
G1 X161.747 Y121.72 E.7798
G1 X161.213 Y121.72 E.01677
G1 X178.773 Y139.28 E.7798
G1 X178.239 Y139.28 E.01677
G1 X160.679 Y121.72 E.7798
G1 X160.145 Y121.72 E.01677
M73 P1 R221
G1 X177.705 Y139.28 E.7798
G1 X177.171 Y139.28 E.01677
G1 X159.611 Y121.72 E.7798
G1 X159.077 Y121.72 E.01677
G1 X176.637 Y139.28 E.7798
G1 X176.103 Y139.28 E.01677
G1 X158.543 Y121.72 E.7798
G1 X158.009 Y121.72 E.01677
G1 X175.569 Y139.28 E.7798
G1 X175.035 Y139.28 E.01677
G1 X157.475 Y121.72 E.7798
G1 X156.94 Y121.72 E.01677
G1 X174.501 Y139.28 E.7798
G1 X173.967 Y139.28 E.01677
G1 X156.406 Y121.72 E.7798
G1 X155.872 Y121.72 E.01677
G1 X173.433 Y139.28 E.7798
G1 X172.899 Y139.28 E.01677
G1 X155.338 Y121.72 E.7798
G1 X154.804 Y121.72 E.01677
G1 X172.365 Y139.28 E.7798
G1 X171.83 Y139.28 E.01677
G1 X154.27 Y121.72 E.7798
G1 X153.736 Y121.72 E.01677
G1 X171.296 Y139.28 E.7798
G1 X170.762 Y139.28 E.01677
G1 X153.202 Y121.72 E.7798
G1 X152.668 Y121.72 E.01677
G1 X170.228 Y139.28 E.7798
G1 X169.694 Y139.28 E.01677
G1 X152.134 Y121.72 E.7798
G1 X151.6 Y121.72 E.01677
G1 X169.16 Y139.28 E.7798
G1 X168.626 Y139.28 E.01677
G1 X151.066 Y121.72 E.7798
G1 X150.532 Y121.72 E.01677
G1 X168.092 Y139.28 E.7798
G1 X167.558 Y139.28 E.01677
G1 X149.998 Y121.72 E.7798
G1 X149.464 Y121.72 E.01677
M73 Q1 S221
G1 X167.024 Y139.28 E.7798
G1 X166.49 Y139.28 E.01677
G1 X148.93 Y121.72 E.7798
G1 X148.396 Y121.72 E.01677
G1 X165.956 Y139.28 E.7798
G1 X165.422 Y139.28 E.01677
G1 X147.862 Y121.72 E.7798
G1 X147.328 Y121.72 E.01677
G1 X164.888 Y139.28 E.7798
G1 X164.354 Y139.28 E.01677
G1 X146.793 Y121.72 E.7798
G1 X146.259 Y121.72 E.01677
G1 X163.82 Y139.28 E.7798
G1 X163.286 Y139.28 E.01677
G1 X145.725 Y121.72 E.7798
G1 X145.191 Y121.72 E.01677
G1 X162.921 Y139.45 E.78733
M204 S1000
;WIPE_START
G1 F8640
G1 X160.594 Y137.122 E-.76
;WIPE_END
G1 E-.04 F2100
G1 Z.6 F720
G1 X166.093 Y89.75 F10800
G1 Z.2 F720
G1 E.8 F2100
M204 S800
G1 F1200
G1 X147.063 Y70.72 E.84506
G1 X146.529 Y70.72 E.01677
G1 X165.389 Y89.58 E.83752
G1 X164.855 Y89.58 E.01677
G1 X145.995 Y70.72 E.83752
G1 X145.461 Y70.72 E.01677
G1 X164.321 Y89.58 E.83752
G1 X163.787 Y89.58 E.01677
G1 X144.927 Y70.72 E.83752
G1 X144.392 Y70.72 E.01677
G1 X163.253 Y89.58 E.83752
G1 X162.719 Y89.58 E.01677
G1 X143.858 Y70.72 E.83752
G1 X143.324 Y70.72 E.01677
G1 X162.185 Y89.58 E.83752
G1 X161.651 Y89.58 E.01677
G1 X142.79 Y70.72 E.83752
G1 X142.256 Y70.72 E.01677
G1 X161.116 Y89.58 E.83752
G1 X160.582 Y89.58 E.01677
G1 X141.722 Y70.72 E.83752
G1 X141.188 Y70.72 E.01677
G1 X160.048 Y89.58 E.83752
G1 X159.514 Y89.58 E.01677
G1 X140.654 Y70.72 E.83752
G1 X140.12 Y70.72 E.01677
M73 P2 R221
M73 Q2 S221
G1 X158.98 Y89.58 E.83752
G1 X158.446 Y89.58 E.01677
G1 X139.586 Y70.72 E.83752
G1 X139.052 Y70.72 E.01677
G1 X157.912 Y89.58 E.83752
G1 X157.378 Y89.58 E.01677
M73 P2 R220
G1 X138.518 Y70.72 E.83752
G1 X137.984 Y70.72 E.01677
G1 X156.844 Y89.58 E.83752
G1 X156.31 Y89.58 E.01677
G1 X137.45 Y70.72 E.83752
G1 X136.916 Y70.72 E.01677
G1 X155.776 Y89.58 E.83752
G1 X155.242 Y89.58 E.01677
G1 X136.382 Y70.72 E.83752
G1 X135.848 Y70.72 E.01677
G1 X154.708 Y89.58 E.83752
G1 X154.174 Y89.58 E.01677
G1 X135.314 Y70.72 E.83752
G1 X134.779 Y70.72 E.01677
G1 X153.64 Y89.58 E.83752
G1 X153.106 Y89.58 E.01677
G1 X134.245 Y70.72 E.83752
G1 X133.711 Y70.72 E.01677
G1 X152.572 Y89.58 E.83752
G1 X152.038 Y89.58 E.01677
G1 X133.177 Y70.72 E.83752
G1 X132.643 Y70.72 E.01677
G1 X151.503 Y89.58 E.83752
G1 X150.969 Y89.58 E.01677
G1 X132.109 Y70.72 E.83752
G1 X131.575 Y70.72 E.01677
G1 X150.435 Y89.58 E.83752
G1 X149.901 Y89.58 E.01677
G1 X131.041 Y70.72 E.83752
G1 X130.507 Y70.72 E.01677
G1 X149.367 Y89.58 E.83752
G1 X148.833 Y89.58 E.01677
G1 X129.973 Y70.72 E.83752
G1 X129.439 Y70.72 E.01677
G1 X148.299 Y89.58 E.83752
G1 X147.765 Y89.58 E.01677
M73 Q2 S220
G1 X128.905 Y70.72 E.83752
G1 X128.371 Y70.72 E.01677
G1 X147.231 Y89.58 E.83752
G1 X146.697 Y89.58 E.01677
G1 X127.837 Y70.72 E.83752
G1 X127.303 Y70.72 E.01677
G1 X146.163 Y89.58 E.83752
G1 X145.629 Y89.58 E.01677
G1 X126.769 Y70.72 E.83752
G1 X126.235 Y70.72 E.01677
G1 X145.095 Y89.58 E.83752
G1 X144.561 Y89.58 E.01677
G1 X125.701 Y70.72 E.83752
G1 X125.166 Y70.72 E.01677
G1 X144.53 Y90.084 E.85988
G1 X144.53 Y90.618 E.01677
G1 X124.632 Y70.72 E.88359
G1 X124.098 Y70.72 E.01677
G1 X144.53 Y91.152 E.90731
G1 X144.53 Y91.686 E.01677
G1 X123.564 Y70.72 E.93103
G1 X123.03 Y70.72 E.01677
G1 X144.53 Y92.22 E.95474
G1 X144.53 Y92.754 E.01677
G1 X122.496 Y70.72 E.97846
G1 X121.962 Y70.72 E.01677
G1 X144.53 Y93.288 E1.00217
G1 X144.53 Y93.822 E.01677
G1 X121.428 Y70.72 E1.02589
G1 X120.894 Y70.72 E.01677
G1 X144.53 Y94.356 E1.0496
G1 X144.53 Y94.89 E.01677
G1 X120.36 Y70.72 E1.07332
G1 X119.826 Y70.72 E.01677
G1 X144.53 Y95.424 E1.09704
G1 X144.53 Y95.958 E.01677
G1 X119.292 Y70.72 E1.12075
G1 X118.758 Y70.72 E.01677
G1 X144.53 Y96.492 E1.14447
G1 X144.53 Y97.026 E.01677
G1 X118.224 Y70.72 E1.16818
G1 X117.69 Y70.72 E.01677
G1 X144.53 Y97.56 E1.1919
G1 X144.53 Y98.094 E.01677
G1 X117.156 Y70.72 E1.21561
G1 X116.622 Y70.72 E.01677
M73 P2 R219
G1 X144.53 Y98.628 E1.23933
G1 X144.53 Y99.162 E.01677
G1 X116.088 Y70.72 E1.26305
G1 X115.553 Y70.72 E.01677
G1 X144.53 Y99.697 E1.28676
G1 X144.53 Y100.231 E.01677
G1 X115.019 Y70.72 E1.31048
G1 X114.485 Y70.72 E.01677
G1 X144.53 Y100.765 E1.33419
G1 X144.53 Y101.299 E.01677
G1 X113.951 Y70.72 E1.35791
