; generated by PrusaSlicer 2.4.0+x64 on 2022-03-13 at 18:07:13 UTC

; 

; external perimeters extrusion width = 0.60mm
; perimeters extrusion width = 0.50mm
; infill extrusion width = 0.50mm
; solid infill extrusion width = 0.50mm
; top infill extrusion width = 0.45mm
; first layer extrusion width = 0.42mm

M73 P0 R38
M73 Q0 S38
M201 X1000 Y1000 Z200 E5000 ; sets maximum accelerations, mm/sec^2
M203 X200 Y200 Z12 E120 ; sets maximum feedrates, mm/sec
M204 P1250 R1250 T1250 ; sets acceleration (P, T) and retract acceleration (R), mm/sec^2
M205 X8.00 Y8.00 Z0.40 E4.50 ; sets the jerk limits, mm/sec
M205 S0 T0 ; sets the minimum extruding and travel feed rate, mm/sec
M107
;TYPE:Custom
M862.3 P "MK3S" ; printer model check
M862.1 P0.4 ; nozzle diameter check
M115 U3.10.0 ; tell printer latest fw version
G90 ; use absolute coordinates
M83 ; extruder relative mode
M104 S215 ; set extruder temp
M140 S60 ; set bed temp
M190 S60 ; wait for bed temp
M109 S215 ; wait for extruder temp
G28 W ; home all without mesh bed level
G80 ; mesh bed leveling
G1 Z0.2 F720
G1 Y-3 F1000 ; go outside print area
G92 E0
G1 X60 E9 F1000 ; intro line
G1 X100 E12.5 F1000 ; intro line
G92 E0
M221 S95

; Don't change E values below. Excessive value can damage the printer.

M907 E538 ; set extruder motor current
G21 ; set units to millimeters
G90 ; use absolute coordinates
M83 ; use relative distances for extrusion
M900 K0.05 ; Filament gcode LA 1.5
M900 K30 ; Filament gcode LA 1.0
M107
;LAYER_CHANGE
;Z:0.2
;HEIGHT:0.2
;BEFORE_LAYER_CHANGE
G92 E0.0
;0.2


G1 E-.8 F2100
G1 Z.4 F720
;AFTER_LAYER_CHANGE
;0.2
G1 X69.06 Y82.817 F10800
G1 Z.2 F720
G1 E.8 F2100
M204 S800
;TYPE:Skirt/Brim
;WIDTH:0.42
G1 F1200
G1 X70 Y82.623 E.03008
G1 X180 Y82.623 E3.44897
G1 X181.307 Y83.015 E.04278
M73 P0 R37
G1 X182.183 Y84.06 E.04278
G1 X182.377 Y85 E.03008
G1 X182.377 Y122 E1.16011
G1 X181.985 Y123.307 E.04278
G1 X180.936 Y124.185 E.04289
G1 X173.936 Y127.185 E.23879
G1 X173 Y127.377 E.02997
G1 X77 Y127.377 E3.01001
G1 X76.064 Y127.185 E.02997
M73 Q0 S37
G1 X69.064 Y124.185 E.23879
G1 X68.017 Y123.31 E.04278
G1 X67.623 Y122 E.04289
G1 X67.623 Y85 E1.16011
G1 X68.015 Y83.693 E.04278
G1 X69.014 Y82.855 E.0409
M204 S1000
; printing object camera-stand.stl id:0 copy 0
;WIPE_START
G1 F8640
G1 X70 Y82.623 E-.23384
G1 X72.279 Y82.623 E-.52616
;WIPE_END
G1 E-.04 F2100
M73 Q1 S37
G1 Z.6 F720
G1 X71.187 Y85.787 F10800
G1 Z.2 F720
M73 P1 R37
G1 E.8 F2100
M204 S800
;TYPE:Perimeter
G1 F1200
G1 X179.213 Y85.787 E3.38707
G1 X179.213 Y121.213 E1.11075
G1 X176.787 Y121.213 E.07606
G1 X176.787 Y114.213 E.21948
G1 X172.213 Y114.213 E.14342
G1 X172.213 Y124.213 E.31354
G1 X77.787 Y124.213 E2.96066
G1 X77.787 Y114.213 E.31354
G1 X73.213 Y114.213 E.14342
G1 X73.213 Y121.213 E.21948
G1 X70.787 Y121.213 E.07606
G1 X70.787 Y85.787 E1.11075
G1 X71.127 Y85.787 E.01066
M204 S1000
G1 X70.41 Y85.41 F10800
M204 S800
;TYPE:External perimeter
G1 F1200
G1 X179.59 Y85.41 E3.42326
G1 X179.59 Y121.59 E1.1344
G1 X176.41 Y121.59 E.09971
M73 P2 R37
M73 Q2 S37
G1 X176.41 Y114.59 E.21948
G1 X172.59 Y114.59 E.11977
G1 X172.59 Y124.59 E.31354
G1 X77.41 Y124.59 E2.9843
G1 X77.41 Y114.59 E.31354
G1 X73.59 Y114.59 E.11977
G1 X73.59 Y121.59 E.21948
G1 X70.41 Y121.59 E.09971
G1 X70.41 Y85.47 E1.13252
M204 S1000
G1 X70.762 Y85.6 F10800
;WIPE_START
G1 F8640
G1 X73.701 Y85.468 E-.76
;WIPE_END
G1 E-.04 F2100
G1 Z.6 F720
G1 X179.1 Y86.663 F10800
G1 Z.2 F720
G1 E.8 F2100
M204 S800
;TYPE:Solid infill
;WIDTH:0.420064
G1 F1200
G1 X178.507 Y86.07 E.02629
G1 X177.974 Y86.07 E.01673
G1 X178.93 Y87.026 E.04242
G1 X178.93 Y87.56 E.01673
G1 X177.44 Y86.07 E.06607
G1 X176.907 Y86.07 E.01673
G1 X178.93 Y88.093 E.08972
G1 X178.93 Y88.626 E.01673
G1 X176.374 Y86.07 E.11338
G1 X175.84 Y86.07 E.01673
G1 X178.93 Y89.16 E.13703
G1 X178.93 Y89.693 E.01673
G1 X175.307 Y86.07 E.16069
G1 X174.774 Y86.07 E.01673
G1 X178.93 Y90.226 E.18434
G1 X178.93 Y90.76 E.01673
G1 X174.24 Y86.07 E.208
G1 X173.707 Y86.07 E.01673
G1 X178.93 Y91.293 E.23165
G1 X178.93 Y91.827 E.01673
G1 X173.173 Y86.07 E.2553
G1 X172.64 Y86.07 E.01673
G1 X178.93 Y92.36 E.27896
G1 X178.93 Y92.893 E.01673
G1 X172.107 Y86.07 E.30261
G1 X171.573 Y86.07 E.01673
G1 X178.93 Y93.427 E.32627
G1 X178.93 Y93.96 E.01673
G1 X171.04 Y86.07 E.34992
G1 X170.507 Y86.07 E.01673
G1 X178.93 Y94.493 E.37357
G1 X178.93 Y95.027 E.01673
G1 X169.973 Y86.07 E.39723
G1 X169.44 Y86.07 E.01673
G1 X178.93 Y95.56 E.42088
G1 X178.93 Y96.093 E.01673
G1 X168.907 Y86.07 E.44454
G1 X168.373 Y86.07 E.01673
G1 X178.93 Y96.627 E.46819
G1 X178.93 Y97.16 E.01673
G1 X167.84 Y86.07 E.49185
G1 X167.306 Y86.07 E.01673
G1 X178.93 Y97.694 E.5155
G1 X178.93 Y98.227 E.01673
G1 X166.773 Y86.07 E.53915
G1 X166.24 Y86.07 E.01673
G1 X178.93 Y98.76 E.56281
G1 X178.93 Y99.294 E.01673
M73 P3 R37
M73 Q3 S37
G1 X165.706 Y86.07 E.58646
G1 X165.173 Y86.07 E.01673
M73 P3 R36
G1 X178.93 Y99.827 E.61012
G1 X178.93 Y100.36 E.01673
G1 X164.64 Y86.07 E.63377
G1 X164.106 Y86.07 E.01673
G1 X178.93 Y100.894 E.65743
G1 X178.93 Y101.427 E.01673
G1 X163.573 Y86.07 E.68108
G1 X163.04 Y86.07 E.01673
G1 X178.93 Y101.96 E.70473
G1 X178.93 Y102.494 E.01673
G1 X162.506 Y86.07 E.72839
G1 X161.973 Y86.07 E.01673
G1 X178.93 Y103.027 E.75204
G1 X178.93 Y103.561 E.01673
G1 X161.439 Y86.07 E.7757
G1 X160.906 Y86.07 E.01673
M73 Q3 S36
G1 X178.93 Y104.094 E.79935
G1 X178.93 Y104.627 E.01673
G1 X160.373 Y86.07 E.823
G1 X159.839 Y86.07 E.01673
G1 X178.93 Y105.161 E.84666
G1 X178.93 Y105.694 E.01673
G1 X159.306 Y86.07 E.87031
G1 X158.773 Y86.07 E.01673
G1 X178.93 Y106.227 E.89397
G1 X178.93 Y106.761 E.01673
G1 X158.239 Y86.07 E.91762
G1 X157.706 Y86.07 E.01673
G1 X178.93 Y107.294 E.94128
G1 X178.93 Y107.827 E.01673
G1 X157.173 Y86.07 E.96493
G1 X156.639 Y86.07 E.01673
G1 X178.93 Y108.361 E.98858
G1 X178.93 Y108.894 E.01673
M73 P4 R36
M73 Q4 S36
G1 X156.106 Y86.07 E1.01224
G1 X155.573 Y86.07 E.01673
G1 X178.93 Y109.427 E1.03589
G1 X178.93 Y109.961 E.01673
G1 X155.039 Y86.07 E1.05955
G1 X154.506 Y86.07 E.01673
G1 X178.93 Y110.494 E1.0832
G1 X178.93 Y111.028 E.01673
G1 X153.972 Y86.07 E1.10686
G1 X153.439 Y86.07 E.01673
G1 X178.93 Y111.561 E1.13051
G1 X178.93 Y112.094 E.01673
G1 X152.906 Y86.07 E1.15416
G1 X152.372 Y86.07 E.01673
G1 X178.93 Y112.628 E1.17782
G1 X178.93 Y113.161 E.01673
G1 X151.839 Y86.07 E1.20147
G1 X151.306 Y86.07 E.01673
G1 X178.93 Y113.694 E1.22513
G1 X178.93 Y114.228 E.01673
G1 X150.772 Y86.07 E1.24878
G1 X150.239 Y86.07 E.01673
G1 X178.93 Y114.761 E1.27243
G1 X178.93 Y115.294 E.01673
M73 Q5 S36
G1 X149.706 Y86.07 E1.29609
G1 X149.172 Y86.07 E.01673
M73 P5 R36
G1 X178.93 Y115.828 E1.31974
G1 X178.93 Y116.361 E.01673
G1 X177.07 Y114.501 E.0825
G1 X177.07 Y115.034 E.01673
G1 X178.93 Y116.895 E.0825
G1 X178.93 Y117.428 E.01673
G1 X177.07 Y115.568 E.0825
G1 X177.07 Y116.101 E.01673
G1 X178.93 Y117.961 E.0825
G1 X178.93 Y118.495 E.01673
G1 X177.07 Y116.634 E.0825
G1 X177.07 Y117.168 E.01673
G1 X178.93 Y119.028 E.0825
G1 X178.93 Y119.561 E.01673
G1 X177.07 Y117.701 E.0825
G1 X177.07 Y118.234 E.01673
G1 X178.93 Y120.095 E.0825
G1 X178.93 Y120.628 E.01673
G1 X177.07 Y118.768 E.0825
G1 X177.07 Y119.301 E.01673
G1 X178.699 Y120.93 E.07224
G1 X178.165 Y120.93 E.01673
G1 X177.07 Y119.835 E.04859
G1 X177.07 Y120.368 E.01673
G1 X177.632 Y120.93 E.02493
G1 X177.099 Y120.93 E.01673
G1 X176.9 Y120.732 E.0088
M204 S1000
;WIPE_START
G1 F8640
G1 X177.099 Y120.93 E-.06482
G1 X177.632 Y120.93 E-.12315
G1 X177.07 Y120.368 E-.18358
G1 X177.07 Y119.835 E-.12315
G1 X177.882 Y120.647 E-.26528
;WIPE_END
G1 E-.04 F2100
G1 Z.6 F720
G1 X176.669 Y114.1 F10800
G1 Z.2 F720
G1 E.8 F2100
M204 S800
G1 F1200
G1 X148.639 Y86.07 E1.24311
G1 X148.105 Y86.07 E.01673
G1 X175.966 Y113.93 E1.23558
G1 X175.432 Y113.93 E.01673
G1 X147.572 Y86.07 E1.23558
G1 X147.039 Y86.07 E.01673
G1 X174.899 Y113.93 E1.23558
G1 X174.366 Y113.93 E.01673
G1 X146.505 Y86.07 E1.23558
G1 X145.972 Y86.07 E.01673
M73 P5 R35
G1 X173.832 Y113.93 E1.23558
G1 X173.299 Y113.93 E.01673
G1 X145.439 Y86.07 E1.23558
G1 X144.905 Y86.07 E.01673
G1 X172.766 Y113.93 E1.23558
G1 X172.232 Y113.93 E.01673
G1 X144.372 Y86.07 E1.23558
M73 Q6 S36
G1 X143.839 Y86.07 E.01673
M73 P6 R35
M73 Q6 S35
G1 X171.93 Y114.161 E1.24584
G1 X171.93 Y114.695 E.01673
G1 X143.305 Y86.07 E1.26949
G1 X142.772 Y86.07 E.01673
G1 X171.93 Y115.228 E1.29315
G1 X171.93 Y115.762 E.01673
G1 X142.238 Y86.07 E1.3168
G1 X141.705 Y86.07 E.01673
G1 X171.93 Y116.295 E1.34046
G1 X171.93 Y116.828 E.01673
G1 X141.172 Y86.07 E1.36411
G1 X140.638 Y86.07 E.01673
G1 X171.93 Y117.362 E1.38777
G1 X171.93 Y117.895 E.01673
G1 X140.105 Y86.07 E1.41142
G1 X139.572 Y86.07 E.01673
G1 X171.93 Y118.428 E1.43507
G1 X171.93 Y118.962 E.01673
G1 X139.038 Y86.07 E1.45873
G1 X138.505 Y86.07 E.01673
M73 P7 R35
M73 Q7 S35
G1 X171.93 Y119.495 E1.48238
G1 X171.93 Y120.028 E.01673
G1 X137.972 Y86.07 E1.50604
G1 X137.438 Y86.07 E.01673
G1 X171.93 Y120.562 E1.52969
G1 X171.93 Y121.095 E.01673
G1 X136.905 Y86.07 E1.55335
G1 X136.371 Y86.07 E.01673
G1 X171.93 Y121.629 E1.577
G1 X171.93 Y122.162 E.01673
G1 X135.838 Y86.07 E1.60065
G1 X135.305 Y86.07 E.01673
G1 X171.93 Y122.695 E1.62431
G1 X171.93 Y123.229 E.01673
G1 X134.771 Y86.07 E1.64796
G1 X134.238 Y86.07 E.01673
G1 X171.93 Y123.762 E1.67162
G1 X171.93 Y123.93 E.00527
M73 P8 R35
M73 Q8 S35
G1 X171.565 Y123.93 E.01145
G1 X133.705 Y86.07 E1.67907
G1 X133.171 Y86.07 E.01673
G1 X171.032 Y123.93 E1.67907
G1 X170.498 Y123.93 E.01673
M73 P8 R34
G1 X132.638 Y86.07 E1.67907
G1 X132.105 Y86.07 E.01673
G1 X169.965 Y123.93 E1.67907
G1 X169.431 Y123.93 E.01673
G1 X131.571 Y86.07 E1.67907
G1 X131.038 Y86.07 E.01673
G1 X168.898 Y123.93 E1.67907
G1 X168.365 Y123.93 E.01673
M73 Q8 S34
G1 X130.504 Y86.07 E1.67907
G1 X129.971 Y86.07 E.01673
G1 X167.831 Y123.93 E1.67907
G1 X167.298 Y123.93 E.01673
G1 X129.438 Y86.07 E1.67907
G1 X128.904 Y86.07 E.01673
M73 P9 R34
M73 Q9 S34
G1 X166.765 Y123.93 E1.67907
G1 X166.231 Y123.93 E.01673
G1 X128.371 Y86.07 E1.67907
G1 X127.838 Y86.07 E.01673
G1 X165.698 Y123.93 E1.67907
G1 X165.165 Y123.93 E.01673
G1 X127.304 Y86.07 E1.67907
G1 X126.771 Y86.07 E.01673
G1 X164.631 Y123.93 E1.67907
G1 X164.098 Y123.93 E.01673
G1 X126.238 Y86.07 E1.67907
G1 X125.704 Y86.07 E.01673
G1 X163.564 Y123.93 E1.67907
G1 X163.031 Y123.93 E.01673
G1 X125.171 Y86.07 E1.67907
G1 X124.638 Y86.07 E.01673
M73 P10 R34
M73 Q10 S34
G1 X162.498 Y123.93 E1.67907
G1 X161.964 Y123.93 E.01673
G1 X124.104 Y86.07 E1.67907
G1 X123.571 Y86.07 E.01673
G1 X161.431 Y123.93 E1.67907
G1 X160.898 Y123.93 E.01673
G1 X123.037 Y86.07 E1.67907
G1 X122.504 Y86.07 E.01673
G1 X160.364 Y123.93 E1.67907
G1 X159.831 Y123.93 E.01673
G1 X121.971 Y86.07 E1.67907
G1 X121.437 Y86.07 E.01673
G1 X159.298 Y123.93 E1.67907
G1 X158.764 Y123.93 E.01673
M73 P10 R33
G1 X120.904 Y86.07 E1.67907
G1 X120.371 Y86.07 E.01673
M73 P11 R33
G1 X158.231 Y123.93 E1.67907
M73 Q11 S34
G1 X157.697 Y123.93 E.01673
G1 X119.837 Y86.07 E1.67907
G1 X119.304 Y86.07 E.01673
G1 X157.164 Y123.93 E1.67907
G1 X156.631 Y123.93 E.01673
M73 Q11 S33
G1 X118.771 Y86.07 E1.67907
G1 X118.237 Y86.07 E.01673
G1 X156.097 Y123.93 E1.67907
G1 X155.564 Y123.93 E.01673
G1 X117.704 Y86.07 E1.67907
G1 X117.17 Y86.07 E.01673
G1 X155.031 Y123.93 E1.67907
G1 X154.497 Y123.93 E.01673
G1 X116.637 Y86.07 E1.67907
G1 X116.104 Y86.07 E.01673
G1 X153.964 Y123.93 E1.67907
G1 X153.431 Y123.93 E.01673
M73 P12 R33
M73 Q12 S33
G1 X115.57 Y86.07 E1.67907
G1 X115.037 Y86.07 E.01673
G1 X152.897 Y123.93 E1.67907
G1 X152.364 Y123.93 E.01673
G1 X114.504 Y86.07 E1.67907
G1 X113.97 Y86.07 E.01673
G1 X151.831 Y123.93 E1.67907
G1 X151.297 Y123.93 E.01673
G1 X113.437 Y86.07 E1.67907
G1 X112.904 Y86.07 E.01673
G1 X150.764 Y123.93 E1.67907
G1 X150.23 Y123.93 E.01673
G1 X112.37 Y86.07 E1.67907
G1 X111.837 Y86.07 E.01673
G1 X149.697 Y123.93 E1.67907
G1 X149.164 Y123.93 E.01673
M73 P13 R33
M73 Q13 S33
G1 X111.303 Y86.07 E1.67907
G1 X110.77 Y86.07 E.01673
G1 X148.63 Y123.93 E1.67907
G1 X148.097 Y123.93 E.01673
G1 X110.237 Y86.07 E1.67907
G1 X109.703 Y86.07 E.01673
G1 X147.564 Y123.93 E1.67907
G1 X147.03 Y123.93 E.01673
G1 X109.17 Y86.07 E1.67907
G1 X108.637 Y86.07 E.01673
M73 P13 R32
G1 X146.497 Y123.93 E1.67907
G1 X145.964 Y123.93 E.01673
G1 X108.103 Y86.07 E1.67907
G1 X107.57 Y86.07 E.01673
G1 X145.43 Y123.93 E1.67907
G1 X144.897 Y123.93 E.01673
M73 Q13 S32
G1 X107.037 Y86.07 E1.67907
G1 X106.503 Y86.07 E.01673
M73 P14 R32
M73 Q14 S32
G1 X144.363 Y123.93 E1.67907
G1 X143.83 Y123.93 E.01673
G1 X105.97 Y86.07 E1.67907
G1 X105.436 Y86.07 E.01673
G1 X143.297 Y123.93 E1.67907
G1 X142.763 Y123.93 E.01673
G1 X104.903 Y86.07 E1.67907
G1 X104.37 Y86.07 E.01673
G1 X142.23 Y123.93 E1.67907
G1 X141.697 Y123.93 E.01673
G1 X103.836 Y86.07 E1.67907
G1 X103.303 Y86.07 E.01673
G1 X141.163 Y123.93 E1.67907
G1 X140.63 Y123.93 E.01673
G1 X102.77 Y86.07 E1.67907
G1 X102.236 Y86.07 E.01673
M73 P15 R32
M73 Q15 S32
G1 X140.097 Y123.93 E1.67907
G1 X139.563 Y123.93 E.01673
G1 X101.703 Y86.07 E1.67907
G1 X101.17 Y86.07 E.01673
G1 X139.03 Y123.93 E1.67907
G1 X138.496 Y123.93 E.01673
G1 X100.636 Y86.07 E1.67907
G1 X100.103 Y86.07 E.01673
G1 X137.963 Y123.93 E1.67907
G1 X137.43 Y123.93 E.01673
G1 X99.569 Y86.07 E1.67907
G1 X99.036 Y86.07 E.01673
G1 X136.896 Y123.93 E1.67907
G1 X136.363 Y123.93 E.01673
G1 X98.503 Y86.07 E1.67907
G1 X97.969 Y86.07 E.01673
M73 P16 R32
G1 X135.83 Y123.93 E1.67907
G1 X135.296 Y123.93 E.01673
M73 Q16 S32
G1 X97.436 Y86.07 E1.67907
G1 X96.903 Y86.07 E.01673
M73 P16 R31
G1 X134.763 Y123.93 E1.67907
G1 X134.23 Y123.93 E.01673
G1 X96.369 Y86.07 E1.67907
G1 X95.836 Y86.07 E.01673
G1 X133.696 Y123.93 E1.67907
G1 X133.163 Y123.93 E.01673
M73 Q16 S31
G1 X95.303 Y86.07 E1.67907
G1 X94.769 Y86.07 E.01673
G1 X132.629 Y123.93 E1.67907
G1 X132.096 Y123.93 E.01673
G1 X94.236 Y86.07 E1.67907
G1 X93.703 Y86.07 E.01673
G1 X131.563 Y123.93 E1.67907
G1 X131.029 Y123.93 E.01673
M73 P17 R31
M73 Q17 S31
G1 X93.169 Y86.07 E1.67907
G1 X92.636 Y86.07 E.01673
G1 X130.496 Y123.93 E1.67907
G1 X129.963 Y123.93 E.01673
G1 X92.102 Y86.07 E1.67907
G1 X91.569 Y86.07 E.01673
G1 X129.429 Y123.93 E1.67907
G1 X128.896 Y123.93 E.01673
G1 X91.036 Y86.07 E1.67907
G1 X90.502 Y86.07 E.01673
G1 X128.363 Y123.93 E1.67907
G1 X127.829 Y123.93 E.01673
G1 X89.969 Y86.07 E1.67907
G1 X89.436 Y86.07 E.01673
G1 X127.296 Y123.93 E1.67907
G1 X126.762 Y123.93 E.01673
M73 P18 R31
G1 X88.902 Y86.07 E1.67907
G1 X88.369 Y86.07 E.01673
M73 Q18 S31
G1 X126.229 Y123.93 E1.67907
G1 X125.696 Y123.93 E.01673
G1 X87.836 Y86.07 E1.67907
G1 X87.302 Y86.07 E.01673
G1 X125.162 Y123.93 E1.67907
G1 X124.629 Y123.93 E.01673
G1 X86.769 Y86.07 E1.67907
G1 X86.235 Y86.07 E.01673
G1 X124.096 Y123.93 E1.67907
G1 X123.562 Y123.93 E.01673
G1 X85.702 Y86.07 E1.67907
G1 X85.169 Y86.07 E.01673
M73 P18 R30
G1 X123.029 Y123.93 E1.67907
G1 X122.496 Y123.93 E.01673
G1 X84.635 Y86.07 E1.67907
G1 X84.102 Y86.07 E.01673
M73 P19 R30
M73 Q19 S31
G1 X121.962 Y123.93 E1.67907
G1 X121.429 Y123.93 E.01673
M73 Q19 S30
G1 X83.569 Y86.07 E1.67907
G1 X83.035 Y86.07 E.01673
G1 X120.896 Y123.93 E1.67907
G1 X120.362 Y123.93 E.01673
G1 X82.502 Y86.07 E1.67907
G1 X81.969 Y86.07 E.01673
G1 X119.829 Y123.93 E1.67907
G1 X119.295 Y123.93 E.01673
G1 X81.435 Y86.07 E1.67907
G1 X80.902 Y86.07 E.01673
G1 X118.762 Y123.93 E1.67907
G1 X118.229 Y123.93 E.01673
G1 X80.368 Y86.07 E1.67907
G1 X79.835 Y86.07 E.01673
M73 P20 R30
G1 X117.695 Y123.93 E1.67907
G1 X117.162 Y123.93 E.01673
M73 Q20 S30
G1 X79.302 Y86.07 E1.67907
G1 X78.768 Y86.07 E.01673
G1 X116.629 Y123.93 E1.67907
G1 X116.095 Y123.93 E.01673
G1 X78.235 Y86.07 E1.67907
G1 X77.702 Y86.07 E.01673
G1 X115.562 Y123.93 E1.67907
G1 X115.029 Y123.93 E.01673
G1 X77.168 Y86.07 E1.67907
G1 X76.635 Y86.07 E.01673
G1 X114.495 Y123.93 E1.67907
G1 X113.962 Y123.93 E.01673
G1 X76.102 Y86.07 E1.67907
G1 X75.568 Y86.07 E.01673
G1 X113.428 Y123.93 E1.67907
G1 X112.895 Y123.93 E.01673
M73 P21 R30
M73 Q21 S30
G1 X75.035 Y86.07 E1.67907
G1 X74.501 Y86.07 E.01673
G1 X112.362 Y123.93 E1.67907
G1 X111.828 Y123.93 E.01673
G1 X73.968 Y86.07 E1.67907
G1 X73.435 Y86.07 E.01673
M73 P21 R29
G1 X111.295 Y123.93 E1.67907
